Log3G10_RWG_to_Provia.cube
TITLE "Generated by Resolve"
LUT_3D_SIZE 9
0.0164645 0.0171817 0.0188907
0.0801404 0.0188602 0.0198215
0.428428 0.0677806 0.071397
0.867842 0.132952 0.185595
1 0.20061 0.462531
1 0.0519722 0.750286
1 0.396612 0.975464
1 0.326375 1
1 0.389319 1
0.000259403 0.0551766 0.00750744
0.0345006 0.0468757 0.00320439
0.385672 0.0725261 0.057145
0.825772 0.127581 0.146319
1 0.193912 0.404822
1 0.119326 0.716747
1 0.396582 0.975464
1 0.326375 1
1 0.389319 1
0 0.285084 0.000457771
0 0.271351 0
0.152071 0.207858 0
0.764126 0.181323 0.106004
1 0.17174 0.201831
1 0.214389 0.577798
1 0.0694591 0.914977
1 0.333318 1
1 0.389319 1
0 0.655924 0.00895705
0 0.649958 0.00300603
0 0.605951 0
0.431601 0.511452 0.000762951
1 0.414237 0.185138
1 0.189822 0.246479
1 0.15256 0.691188
1 0.336202 0.956298
1 0.376654 1
0 0.955261 0.111971
0 0.955261 0.111955
0 0.944533 0.0489662
0 0.908217 0
0.725368 0.800732 0.00968948
1 0.616464 0.0964981
1 0.353017 0.211124
1 0.194903 0.550027
1 0.0325933 0.874327
0 0.994751 0.312688
0 0.994751 0.312688
0 0.994751 0.312688
0 0.994217 0.108217
0.315099 0.976822 0
0.951797 0.941665 0
1 0.913634 0
1 0.804639 0.0163729
1 0.64062 0.0887007
0 0.992157 0.476997
0 0.992157 0.476997
0 0.992157 0.476997
0 0.992157 0.476982
0 0.996155 0.0136416
0.800916 0.964172 0
1 0.957336 0
1 0.954467 0
1 0.952712 0
0 0.990997 0.600214
0 0.990997 0.600214
0 0.990997 0.600214
0 0.990997 0.600214
0 0.991119 0.586542
0.640421 0.982391 0.270634
0.981064 0.962036 0
1 0.959426 0
1 0.960235 0
0 0.990402 0.669184
0 0.990402 0.669184
0 0.990402 0.669184
0 0.990402 0.669184
0 0.990402 0.669184
0.258335 1 0.303883
0.937133 0.975677 0
1 0.964019 0
1 0.967254 0
0.0218357 0.0250553 0.0869764
0.071046 0.0221408 0.0833906
0.404883 0.0634623 0.094728
0.866423 0.133501 0.196719
1 0.200916 0.465293
1 0.0519875 0.750286
1 0.396612 0.975464
1 0.326375 1
1 0.389319 1
0.000610361 0.0449989 0.0509651
0.0373999 0.0381781 0.0436561
0.42385 0.0755322 0.0837568
0.827222 0.12665 0.151125
1 0.194354 0.408438
1 0.113695 0.719432
1 0.396582 0.975464
1 0.326375 1
1 0.389319 1
0 0.2804 0.00102235
0 0.267491 0
0.154406 0.204379 0
0.763348 0.179202 0.105745
1 0.171908 0.20296
1 0.214481 0.579416
1 0.0767987 0.915846
1 0.332403 1
1 0.389319 1
0 0.654963 0.00888075
0 0.649073 0.0030518
0 0.60502 0
0.432044 0.51046 0.000717174
1 0.412863 0.184817
1 0.189837 0.246738
1 0.151156 0.691951
1 0.337575 0.956603
1 0.376394 1
0 0.955169 0.111833
0 0.955154 0.111818
0 0.944442 0.0490425
0 0.908019 0
0.725429 0.800504 0.00953689
1 0.616236 0.0969406
1 0.352789 0.211078
1 0.194644 0.551858
1 0.0320745 0.874968
0 0.994751 0.312657
0 0.994751 0.312657
0 0.994751 0.312642
0 0.994202 0.108232
0.315282 0.976806 0
0.951858 0.941649 0
1 0.913588 0
1 0.804288 0.0164645
1 0.640452 0.0889601
0 0.992157 0.476982
0 0.992157 0.476982
0 0.992157 0.476982
0 0.992157 0.476967
0 0.996139 0.013962
0.801068 0.964172 0
1 0.957336 0
1 0.954467 0
1 0.952712 0
0 0.990997 0.600214
0 0.990997 0.600214
0 0.990997 0.600214
0 0.990997 0.600198
0 0.991119 0.586755
0.640406 0.982391 0.270604
0.981018 0.962036 0
1 0.959426 0
1 0.960235 0
0 0.990402 0.669184
0 0.990402 0.669184
0 0.990402 0.669184
0 0.990402 0.669184
0 0.990402 0.669184
0.258579 1 0.303624
0.936904 0.975708 0
1 0.964019 0
1 0.967254 0
0.0543069 0.12668 0.487861
0.108797 0.113436 0.521202
0.400519 0.0874495 0.403967
0.865736 0.098146 0.465553
1 0.207431 0.543328
1 0.0520485 0.750256
1 0.396597 0.975464
1 0.326375 1
1 0.389319 1
0.0457313 0.120073 0.446891
0.0735485 0.110002 0.468437
0.376883 0.0942397 0.380316
0.805783 0.129229 0.3897
1 0.200519 0.486778
1 0.0960098 0.728573
1 0.396567 0.975464
1 0.326375 1
1 0.389319 1
0 0.209476 0.231891
0 0.198611 0.220188
0.180529 0.179721 0.213794
0.806928 0.175845 0.235935
1 0.177218 0.236057
1 0.214786 0.585504
1 0.101549 0.918517
1 0.32871 1
1 0.389319 1
0 0.642695 0.0210422
0 0.636835 0.0138399
0 0.599237 0
0.433555 0.506905 0.000534066
1 0.408316 0.183734
1 0.189914 0.24802
1 0.145632 0.695003
1 0.340856 0.957443
1 0.375235 1
0 0.954833 0.11133
0 0.954833 0.11133
0 0.944106 0.0494545
0 0.907469 0
0.726024 0.799558 0.0087129
1 0.615305 0.0987106
1 0.348821 0.210956
1 0.194293 0.554116
1 0.0307317 0.876631
0 0.994736 0.312535
0 0.994736 0.312535
0 0.994736 0.31252
0 0.994202 0.108598
0.314595 0.976822 0
0.952178 0.941558 0
1 0.913481 0
1 0.803937 0.016556
1 0.640024 0.0895552
0 0.992157 0.476936
0 0.992157 0.476936
0 0.992157 0.476936
0 0.992157 0.476921
0 0.996155 0.0138857
0.800885 0.964172 0
1 0.957336 0
1 0.954467 0
1 0.952712 0
0 0.990997 0.600183
0 0.990997 0.600183
0 0.990997 0.600183
0 0.990997 0.600183
0 0.991119 0.587228
0.641093 0.982361 0.270573
0.980972 0.962051 0
1 0.959426 0
1 0.96022 0
0 0.990402 0.669184
0 0.990402 0.669184
0 0.990402 0.669184
0 0.990402 0.669184
0 0.990402 0.669184
0.25832 1 0.303868
0.93724 0.975662 0
1 0.964019 0
1 0.967254 0
0.0501106 0.287892 0.894728
0.0805982 0.278752 0.895552
0.449912 0.204501 0.909194
0.853605 0.167071 0.828489
1 0.142504 0.901946
1 0.153765 0.93022
1 0.396551 0.975448
1 0.326375 1
1 0.389319 1
0.0488136 0.284794 0.886305
0.0716259 0.278599 0.886198
0.437201 0.203952 0.906416
0.84448 0.164553 0.817655
1 0.12047 0.898207
1 0.134508 0.927581
1 0.396521 0.975448
1 0.326375 1
1 0.389319 1
0.0491035 0.279698 0.770428
0.0479133 0.27747 0.778286
0.176852 0.222965 0.844266
0.782788 0.170489 0.771603
1 6.10361e-05 0.756619
1 0.031632 0.765209
1 0.18555 0.931136
1 0.324422 1
1 0.389319 1
0 0.541421 0.604013
0 0.535592 0.596994
0 0.493614 0.553246
0.459907 0.466911 0.51693
1 0.395422 0.501579
1 0.197177 0.347845
1 0.125429 0.706081
1 0.365682 0.96054
1 0.371008 1
0 0.941085 0.231601
0 0.941222 0.229313
0 0.928786 0.146929
0 0.898955 0
0.727031 0.795834 0.00611887
1 0.611948 0.105135
1 0.338094 0.210483
1 0.192538 0.566232
1 0.0249638 0.883772
0 0.994705 0.312078
0 0.994705 0.312078
0 0.994705 0.312078
0 0.994171 0.110033
0.314275 0.976761 0
0.952758 0.941299 0
1 0.913024 0
1 0.80174 0.0171206
1 0.638148 0.092195
0 0.992157 0.476768
0 0.992157 0.476768
0 0.992157 0.476753
0 0.992157 0.476753
0 0.996139 0.0140841
0.800977 0.964172 0
1 0.957321 0
1 0.954452 0
1 0.952682 0
0 0.990997 0.600107
0 0.990997 0.600107
0 0.990997 0.600107
0 0.990997 0.600107
0 0.991089 0.588952
0.640223 0.982376 0.2701
0.981109 0.962036 0
1 0.959426 0
1 0.96022 0
0 0.990402 0.669184
0 0.990402 0.669184
0 0.990402 0.669184
0 0.990402 0.669184
0 0.990402 0.669184
0.257816 1 0.304356
0.936904 0.975708 0
1 0.964019 0
1 0.967254 0
0.0403296 0.391608 1
0.0408484 0.390921 1
0.419837 0.260349 1
0.894865 0.324361 1
1 0.228641 1
1 0.237598 1
1 0.237659 1
1 0.326375 1
1 0.389319 1
0.0403601 0.391455 1
0.040589 0.39118 1
0.416037 0.261234 1
0.894041 0.323949 1
1 0.228595 1
1 0.237598 1
1 0.237644 1
1 0.326375 1
1 0.389319 1
0.0413062 0.386694 1
0.0412909 0.38677 1
0.281071 0.308888 1
0.872419 0.311177 1
1 0.224826 1
1 0.237629 1
1 0.237598 1
1 0.326375 1
1 0.389319 1
0.115602 0.603998 1
0.115648 0.602899 1
0.120867 0.541115 1
0.479759 0.369085 1
1 0.224887 1
1 0.394919 0.992721
1 0.39913 0.999832
1 0.384649 0.976501
1 0.354849 1
0 0.869947 0.973693
0 0.869917 0.973388
0 0.851728 0.963607
0 0.80177 0.923232
0.723934 0.735805 0.796735
1 0.665858 0.738506
1 0.263401 0.512337
1 0.18616 0.607965
1 0.0451514 0.897444
0 0.989471 0.601648
0 0.989471 0.600855
0 0.989502 0.597986
0 0.989929 0.436179
0.182864 0.981888 0.00924697
0.946548 0.937606 0
1 0.91136 0
1 0.795422 0.0187839
1 0.63122 0.101869
0 0.992172 0.476158
0 0.992172 0.476143
0 0.992172 0.476143
0 0.992172 0.476143
0 0.996139 0.014725
0.8009 0.964172 0
1 0.95729 0
1 0.954421 0
1 0.952621 0
0 0.990997 0.599832
0 0.990997 0.599832
0 0.990997 0.599832
0 0.990997 0.599832
0 0.991043 0.594598
0.638773 0.982391 0.268498
0.981003 0.962036 0
1 0.959411 0
1 0.960189 0
0 0.990402 0.669184
0 0.990402 0.669184
0 0.990402 0.669184
0 0.990402 0.669184
0 0.990402 0.669184
0.25742 1 0.304662
0.936889 0.975708 0
1 0.964019 0
1 0.967254 0
0.033341 0.416785 1
0.033341 0.416785 1
0.0406348 0.412131 1
0.880964 0.309087 1
1 0.240696 1
1 0.238651 1
1 0.238743 1
1 0.238743 1
1 0.29221 1
0.033341 0.416785 1
0.033341 0.416785 1
0.0401465 0.412467 1
0.879911 0.308553 1
1 0.240696 1
1 0.238651 1
1 0.238743 1
1 0.238743 1
1 0.292454 1
0.033341 0.41677 1
0.033341 0.41677 1
0.0387884 0.413474 1
0.876478 0.306828 1
1 0.240711 1
1 0.238651 1
1 0.238743 1
1 0.238743 1
1 0.293294 1
0.0295109 0.434272 1
0.0295262 0.434272 1
0.0348058 0.413382 1
0.5579 0.275792 1
1 0.255192 1
1 0.238193 1
1 0.23859 1
1 0.238651 1
1 0.293568 1
0 0.839353 1
0 0.839338 1
0 0.831861 1
0 0.782376 1
0.718257 0.657908 1
1 0.461509 1
1 0.237964 1
1 0.238056 1
1 0.246983 1
0 0.987793 1
0 0.987793 1
0 0.987793 1
0 0.97995 1
0 0.964721 1
0.920501 0.935546 0.942962
1 0.898589 0.922301
1 0.735866 0.88397
1 0.391852 0.640604
0 0.984649 0.906447
0 0.984665 0.906386
0 0.98468 0.906126
0 0.984802 0.905104
0 0.989517 0.763149
0.677791 0.996979 0.56376
0.999146 0.980667 0
1 0.954299 0
1 0.952361 0
0 0.991012 0.598932
0 0.991012 0.598932
0 0.991012 0.598932
0 0.991012 0.598917
0 0.991012 0.598917
0.636805 0.9823 0.263661
0.981277 0.961975 0
1 0.959381 0
1 0.960098 0
0 0.990402 0.669184
0 0.990402 0.669184
0 0.990402 0.669184
0 0.990402 0.669184
0 0.990402 0.669184
0.253391 1 0.308293
0.936416 0.975784 0
1 0.964019 0
1 0.967254 0
0.0406043 0.47483 1
0.0406043 0.47483 1
0.0389105 0.471824 1
0.552224 0.279744 1
1 0.240772 1
1 0.238727 1
1 0.238758 1
1 0.238758 1
1 0.238758 1
0.040589 0.4748 1
0.040589 0.474784 1
0.0392004 0.472328 1
0.549783 0.279927 1
1 0.240772 1
1 0.238727 1
1 0.238758 1
1 0.238758 1
1 0.238758 1
0.0405432 0.474662 1
0.0405432 0.474647 1
0.0401617 0.473976 1
0.540963 0.280552 1
1 0.240803 1
1 0.238727 1
1 0.238758 1
1 0.238758 1
1 0.238758 1
0.0403449 0.474144 1
0.0403449 0.474144 1
0.0403296 0.474113 1
0.508904 0.282765 1
1 0.240879 1
1 0.238727 1
1 0.238758 1
1 0.238758 1
1 0.238758 1
0 0.761761 1
0 0.76173 1
0 0.761685 1
0.0931258 0.723384 1
0.827756 0.487694 1
1 0.239261 1
1 0.238758 1
1 0.238758 1
1 0.238758 1
0 0.987625 1
0 0.98761 1
0 0.98761 1
0 0.98027 1
0 0.95552 1
0.904601 0.884657 1
1 0.813474 1
1 0.468925 1
1 0.238682 1
0 1 1
0 1 1
0 1 1
0 1 1
0 0.999649 1
0.539315 0.984909 0.978988
0.985626 0.990311 0.973526
1 0.980377 0.967147
1 0.972473 0.962997
0 0.999603 1
0 0.999588 1
0 0.999588 1
0 0.999573 1
0 0.999527 1
0.379614 0.988342 0.933974
0.944381 0.999771 0.927962
0.991714 1 0.859144
0.995178 1 0.831983
0 0.986587 0.957794
0 0.986587 0.957732
0 0.986557 0.957427
0 0.98645 0.956481
0 0.986099 0.95317
0.341833 0.99353 0.854902
0.869902 0.999756 0.567163
0.999481 0.999771 0.0153353
1 0.964233 0
0.135775 0.651347 1
0.135775 0.651331 1
0.135775 0.651331 1
0.121599 0.565499 1
1 0.276005 1
1 0.238758 1
1 0.238758 1
1 0.238758 1
1 0.238758 1
0.135775 0.651331 1
0.135775 0.651316 1
0.135775 0.651301 1
0.121645 0.565682 1
1 0.27628 1
1 0.238758 1
1 0.238758 1
1 0.238758 1
1 0.238758 1
0.135775 0.651255 1
0.135775 0.651255 1
0.135775 0.65124 1
0.121736 0.566186 1
1 0.277028 1
1 0.238758 1
1 0.238758 1
1 0.238758 1
1 0.238758 1
0.135775 0.650996 1
0.135775 0.650996 1
0.135775 0.65098 1
0.122072 0.5682 1
1 0.280629 1
1 0.238758 1
1 0.238758 1
1 0.238758 1
1 0.238758 1
0.13579 0.65008 1
0.13579 0.65008 1
0.13579 0.650065 1
0.126665 0.583337 1
1 0.293187 1
1 0.238758 1
1 0.238758 1
1 0.238758 1
1 0.238758 1
0 0.976562 1
0 0.976547 1
0 0.976577 1
0 0.976562 1
0 0.930541 1
0.924422 0.847669 1
1 0.719081 1
1 0.280949 1
1 0.238758 1
0 1 1
0 1 1
0 1 1
0 1 1
0 0.999863 1
0.445136 0.993912 1
0.986068 0.984298 0.998856
1 0.975647 0.999115
1 0.961669 0.999756
0 1 1
0 1 1
0 1 1
0 1 1
0 1 1
0.105348 0.999756 1
0.929107 0.995483 0.985336
0.99498 0.998505 0.98674
0.999771 0.997253 0.986435
0 1 1
0 1 1
0 1 1
0 1 1
0 1 1
0 1 1
0.89192 0.994202 0.975952
0.991547 0.999756 0.979141
0.997177 0.999908 0.974914
0.135729 0.655177 1
0.135729 0.655177 1
0.135729 0.655177 1
0.136828 0.63624 1
1 0.320012 1
1 0.238758 1
1 0.238758 1
1 0.238758 1
1 0.238758 1
0.135729 0.655177 1
0.135729 0.655177 1
0.135729 0.655177 1
0.137118 0.63711 1
1 0.320333 1
1 0.238758 1
1 0.238758 1
1 0.238758 1
1 0.238758 1
0.135729 0.655177 1
0.135729 0.655177 1
0.135729 0.655177 1
0.136934 0.639414 1
1 0.321294 1
1 0.238758 1
1 0.238758 1
1 0.238758 1
1 0.238758 1
0.135729 0.655177 1
0.135729 0.655177 1
0.135729 0.655177 1
0.136294 0.647593 1
1 0.325505 1
1 0.238758 1
1 0.238758 1
1 0.238758 1
1 0.238758 1
0.135729 0.655177 1
0.135729 0.655177 1
0.135729 0.655177 1
0.135729 0.655177 1
1 0.340932 1
1 0.238758 1
1 0.238758 1
1 0.238758 1
1 0.238758 1
0 0.942718 1
0 0.942733 1
0 0.942718 1
0 0.942657 1
0 0.880323 1
0.997116 0.780362 1
1 0.498878 1
1 0.238758 1
1 0.238758 1
0 1 1
0 1 1
0 1 1
0 1 1
0 0.999786 1
0.446723 0.993393 1
0.988495 0.982437 0.999435
1 0.968475 0.999908
1 0.948455 1
0 1 1
0 1 1
0 1 1
0 1 1
0 1 1
0.0619211 0.999893 1
0.914031 0.995254 0.988006
0.994949 0.997528 0.992889
0.999893 0.995605 0.991562
0 1 1
0 1 1
0 1 1
0 1 1
0 1 1
0 1 1
0.872389 0.994186 0.982147
0.993286 0.999161 0.991714
0.99765 0.999496 0.988312
