Log3G10_RWG_to_ACROS.cube
TITLE "Generated by Resolve"
LUT_3D_SIZE 9
0 0 0
0.00798047 0.00798047 0.00798047
0.0493019 0.0493019 0.0493019
0.144289 0.144289 0.144289
0.318685 0.318685 0.318685
0.395514 0.395514 0.395514
0.395514 0.395514 0.395514
0.395514 0.395514 0.395514
0.395514 0.395514 0.395514
0.0175631 0.0175631 0.0175631
0.022034 0.022034 0.022034
0.066453 0.066453 0.066453
0.175494 0.175494 0.175494
0.318517 0.318517 0.318517
0.395514 0.395514 0.395514
0.395514 0.395514 0.395514
0.395514 0.395514 0.395514
0.395514 0.395514 0.395514
0.147875 0.147875 0.147875
0.152346 0.152346 0.152346
0.191135 0.191135 0.191135
0.303365 0.303365 0.303365
0.452384 0.452384 0.452384
0.395514 0.395514 0.395514
0.395514 0.395514 0.395514
0.395514 0.395514 0.395514
0.395514 0.395514 0.395514
0.542885 0.542885 0.542885
0.542535 0.542535 0.542535
0.489891 0.489891 0.489891
0.553658 0.553658 0.553658
0.65536 0.65536 0.65536
0.636667 0.636667 0.636667
0.419577 0.419577 0.419577
0.395514 0.395514 0.395514
0.395514 0.395514 0.395514
0.806973 0.806973 0.806973
0.806973 0.806973 0.806973
0.806912 0.806912 0.806912
0.808209 0.808209 0.808209
0.85771 0.85771 0.85771
0.839078 0.839078 0.839078
0.776638 0.776638 0.776638
0.66038 0.66038 0.66038
0.395514 0.395514 0.395514
0.833982 0.833982 0.833982
0.833982 0.833982 0.833982
0.833982 0.833982 0.833982
0.833982 0.833982 0.833982
0.878096 0.878096 0.878096
0.937942 0.937942 0.937942
0.919936 0.919936 0.919936
0.897841 0.897841 0.897841
0.87361 0.87361 0.87361
0.833982 0.833982 0.833982
0.833982 0.833982 0.833982
0.833982 0.833982 0.833982
0.833982 0.833982 0.833982
0.833982 0.833982 0.833982
0.911208 0.911208 0.911208
0.943481 0.943481 0.943481
0.941405 0.941405 0.941405
0.941405 0.941405 0.941405
0.833982 0.833982 0.833982
0.833982 0.833982 0.833982
0.833982 0.833982 0.833982
0.833982 0.833982 0.833982
0.833982 0.833982 0.833982
0.866484 0.866484 0.866484
0.943328 0.943328 0.943328
0.941405 0.941405 0.941405
0.941405 0.941405 0.941405
0.833982 0.833982 0.833982
0.833982 0.833982 0.833982
0.833982 0.833982 0.833982
0.833982 0.833982 0.833982
0.833982 0.833982 0.833982
0.833982 0.833982 0.833982
0.930632 0.930632 0.930632
0.941405 0.941405 0.941405
0.941405 0.941405 0.941405
0.00292973 0.00292973 0.00292973
0.00996414 0.00996414 0.00996414
0.05243 0.05243 0.05243
0.146365 0.146365 0.146365
0.318517 0.318517 0.318517
0.395514 0.395514 0.395514
0.395514 0.395514 0.395514
0.395514 0.395514 0.395514
0.395514 0.395514 0.395514
0.0153353 0.0153353 0.0153353
0.0179904 0.0179904 0.0179904
0.060441 0.060441 0.060441
0.165148 0.165148 0.165148
0.318349 0.318349 0.318349
0.395514 0.395514 0.395514
0.395514 0.395514 0.395514
0.395514 0.395514 0.395514
0.395514 0.395514 0.395514
0.138811 0.138811 0.138811
0.142535 0.142535 0.142535
0.182559 0.182559 0.182559
0.296162 0.296162 0.296162
0.444877 0.444877 0.444877
0.395514 0.395514 0.395514
0.395514 0.395514 0.395514
0.395514 0.395514 0.395514
0.395514 0.395514 0.395514
0.539025 0.539025 0.539025
0.538674 0.538674 0.538674
0.485756 0.485756 0.485756
0.550622 0.550622 0.550622
0.653223 0.653223 0.653223
0.634424 0.634424 0.634424
0.410483 0.410483 0.410483
0.395514 0.395514 0.395514
0.395514 0.395514 0.395514
0.806775 0.806775 0.806775
0.806775 0.806775 0.806775
0.806699 0.806699 0.806699
0.80766 0.80766 0.80766
0.857328 0.857328 0.857328
0.838682 0.838682 0.838682
0.77615 0.77615 0.77615
0.659159 0.659159 0.659159
0.395514 0.395514 0.395514
0.833982 0.833982 0.833982
0.833982 0.833982 0.833982
0.833982 0.833982 0.833982
0.833982 0.833982 0.833982
0.87805 0.87805 0.87805
0.937942 0.937942 0.937942
0.919905 0.919905 0.919905
0.897749 0.897749 0.897749
0.873457 0.873457 0.873457
0.833982 0.833982 0.833982
0.833982 0.833982 0.833982
0.833982 0.833982 0.833982
0.833982 0.833982 0.833982
0.833982 0.833982 0.833982
0.911177 0.911177 0.911177
0.943481 0.943481 0.943481
0.941405 0.941405 0.941405
0.941405 0.941405 0.941405
0.833982 0.833982 0.833982
0.833982 0.833982 0.833982
0.833982 0.833982 0.833982
0.833982 0.833982 0.833982
0.833982 0.833982 0.833982
0.866453 0.866453 0.866453
0.943328 0.943328 0.943328
0.941405 0.941405 0.941405
0.941405 0.941405 0.941405
0.833982 0.833982 0.833982
0.833982 0.833982 0.833982
0.833982 0.833982 0.833982
0.833982 0.833982 0.833982
0.833982 0.833982 0.833982
0.833982 0.833982 0.833982
0.930632 0.930632 0.930632
0.941405 0.941405 0.941405
0.941405 0.941405 0.941405
0.017731 0.017731 0.017731
0.0200809 0.0200809 0.0200809
0.0749523 0.0749523 0.0749523
0.20238 0.20238 0.20238
0.346853 0.346853 0.346853
0.395514 0.395514 0.395514
0.395514 0.395514 0.395514
0.395514 0.395514 0.395514
0.395514 0.395514 0.395514
0.0173342 0.0173342 0.0173342
0.0175021 0.0175021 0.0175021
0.072282 0.072282 0.072282
0.199954 0.199954 0.199954
0.345098 0.345098 0.345098
0.395514 0.395514 0.395514
0.395514 0.395514 0.395514
0.395514 0.395514 0.395514
0.395514 0.395514 0.395514
0.195575 0.195575 0.195575
0.191196 0.191196 0.191196
0.194873 0.194873 0.194873
0.295995 0.295995 0.295995
0.415824 0.415824 0.415824
0.395514 0.395514 0.395514
0.395514 0.395514 0.395514
0.395514 0.395514 0.395514
0.395514 0.395514 0.395514
0.524117 0.524117 0.524117
0.523095 0.523095 0.523095
0.470497 0.470497 0.470497
0.539391 0.539391 0.539391
0.645167 0.645167 0.645167
0.626154 0.626154 0.626154
0.395514 0.395514 0.395514
0.395514 0.395514 0.395514
0.395514 0.395514 0.395514
0.806043 0.806043 0.806043
0.806012 0.806012 0.806012
0.805951 0.805951 0.805951
0.805676 0.805676 0.805676
0.855924 0.855924 0.855924
0.837049 0.837049 0.837049
0.774136 0.774136 0.774136
0.654582 0.654582 0.654582
0.395514 0.395514 0.395514
0.833982 0.833982 0.833982
0.833982 0.833982 0.833982
0.833982 0.833982 0.833982
0.833982 0.833982 0.833982
0.877882 0.877882 0.877882
0.937926 0.937926 0.937926
0.919646 0.919646 0.919646
0.897383 0.897383 0.897383
0.872969 0.872969 0.872969
0.833982 0.833982 0.833982
0.833982 0.833982 0.833982
0.833982 0.833982 0.833982
0.833982 0.833982 0.833982
0.833982 0.833982 0.833982
0.911131 0.911131 0.911131
0.943481 0.943481 0.943481
0.941405 0.941405 0.941405
0.941405 0.941405 0.941405
0.833982 0.833982 0.833982
0.833982 0.833982 0.833982
0.833982 0.833982 0.833982
0.833982 0.833982 0.833982
0.833982 0.833982 0.833982
0.866377 0.866377 0.866377
0.943313 0.943313 0.943313
0.941405 0.941405 0.941405
0.941405 0.941405 0.941405
0.833982 0.833982 0.833982
0.833982 0.833982 0.833982
0.833982 0.833982 0.833982
0.833982 0.833982 0.833982
0.833982 0.833982 0.833982
0.833982 0.833982 0.833982
0.930602 0.930602 0.930602
0.941405 0.941405 0.941405
0.941405 0.941405 0.941405
0.0529335 0.0529335 0.0529335
0.052842 0.052842 0.052842
0.107713 0.107713 0.107713
0.28481 0.28481 0.28481
0.447181 0.447181 0.447181
0.41503 0.41503 0.41503
0.395514 0.395514 0.395514
0.395514 0.395514 0.395514
0.395514 0.395514 0.395514
0.0524605 0.0524605 0.0524605
0.052369 0.052369 0.052369
0.104952 0.104952 0.104952
0.282795 0.282795 0.282795
0.445762 0.445762 0.445762
0.413489 0.413489 0.413489
0.395514 0.395514 0.395514
0.395514 0.395514 0.395514
0.395514 0.395514 0.395514
0.0957504 0.0957504 0.0957504
0.0934615 0.0934615 0.0934615
0.144091 0.144091 0.144091
0.327489 0.327489 0.327489
0.440497 0.440497 0.440497
0.407599 0.407599 0.407599
0.395514 0.395514 0.395514
0.395514 0.395514 0.395514
0.395514 0.395514 0.395514
0.549661 0.549661 0.549661
0.549294 0.549294 0.549294
0.495216 0.495216 0.495216
0.576532 0.576532 0.576532
0.655833 0.655833 0.655833
0.576516 0.576516 0.576516
0.395514 0.395514 0.395514
0.395514 0.395514 0.395514
0.395514 0.395514 0.395514
0.807019 0.807019 0.807019
0.806973 0.806973 0.806973
0.806577 0.806577 0.806577
0.79089 0.79089 0.79089
0.85069 0.85069 0.85069
0.830594 0.830594 0.830594
0.76672 0.76672 0.76672
0.637049 0.637049 0.637049
0.395514 0.395514 0.395514
0.833982 0.833982 0.833982
0.833982 0.833982 0.833982
0.833982 0.833982 0.833982
0.833982 0.833982 0.833982
0.877226 0.877226 0.877226
0.937911 0.937911 0.937911
0.918746 0.918746 0.918746
0.896162 0.896162 0.896162
0.871214 0.871214 0.871214
0.833982 0.833982 0.833982
0.833982 0.833982 0.833982
0.833982 0.833982 0.833982
0.833982 0.833982 0.833982
0.833982 0.833982 0.833982
0.910964 0.910964 0.910964
0.943465 0.943465 0.943465
0.941405 0.941405 0.941405
0.941405 0.941405 0.941405
0.833982 0.833982 0.833982
0.833982 0.833982 0.833982
0.833982 0.833982 0.833982
0.833982 0.833982 0.833982
0.833982 0.833982 0.833982
0.866041 0.866041 0.866041
0.943297 0.943297 0.943297
0.941405 0.941405 0.941405
0.941405 0.941405 0.941405
0.833982 0.833982 0.833982
0.833982 0.833982 0.833982
0.833982 0.833982 0.833982
0.833982 0.833982 0.833982
0.833982 0.833982 0.833982
0.833982 0.833982 0.833982
0.93051 0.93051 0.93051
0.941405 0.941405 0.941405
0.941405 0.941405 0.941405
0.11635 0.11635 0.11635
0.11632 0.11632 0.11632
0.116091 0.116091 0.116091
0.381567 0.381567 0.381567
0.557641 0.557641 0.557641
0.537102 0.537102 0.537102
0.476707 0.476707 0.476707
0.395514 0.395514 0.395514
0.395514 0.395514 0.395514
0.116091 0.116091 0.116091
0.116045 0.116045 0.116045
0.115862 0.115862 0.115862
0.380041 0.380041 0.380041
0.55729 0.55729 0.55729
0.536767 0.536767 0.536767
0.476127 0.476127 0.476127
0.395514 0.395514 0.395514
0.395514 0.395514 0.395514
0.115129 0.115129 0.115129
0.115099 0.115099 0.115099
0.11487 0.11487 0.11487
0.374655 0.374655 0.374655
0.555917 0.555917 0.555917
0.535637 0.535637 0.535637
0.474083 0.474083 0.474083
0.395514 0.395514 0.395514
0.395514 0.395514 0.395514
0.464729 0.464729 0.464729
0.463996 0.463996 0.463996
0.461479 0.461479 0.461479
0.536995 0.536995 0.536995
0.610819 0.610819 0.610819
0.531411 0.531411 0.531411
0.466224 0.466224 0.466224
0.395514 0.395514 0.395514
0.395514 0.395514 0.395514
0.670054 0.670054 0.670054
0.670054 0.670054 0.670054
0.670054 0.670054 0.670054
0.721096 0.721096 0.721096
0.842786 0.842786 0.842786
0.824201 0.824201 0.824201
0.731456 0.731456 0.731456
0.547036 0.547036 0.547036
0.395514 0.395514 0.395514
0.834409 0.834409 0.834409
0.834455 0.834455 0.834455
0.834623 0.834623 0.834623
0.835279 0.835279 0.835279
0.878767 0.878767 0.878767
0.937896 0.937896 0.937896
0.915496 0.915496 0.915496
0.8916 0.8916 0.8916
0.864332 0.864332 0.864332
0.833982 0.833982 0.833982
0.833982 0.833982 0.833982
0.833982 0.833982 0.833982
0.833982 0.833982 0.833982
0.833982 0.833982 0.833982
0.910399 0.910399 0.910399
0.943404 0.943404 0.943404
0.941405 0.941405 0.941405
0.941405 0.941405 0.941405
0.833982 0.833982 0.833982
0.833982 0.833982 0.833982
0.833982 0.833982 0.833982
0.833982 0.833982 0.833982
0.833982 0.833982 0.833982
0.86479 0.86479 0.86479
0.943206 0.943206 0.943206
0.941405 0.941405 0.941405
0.941405 0.941405 0.941405
0.833982 0.833982 0.833982
0.833982 0.833982 0.833982
0.833982 0.833982 0.833982
0.833982 0.833982 0.833982
0.833982 0.833982 0.833982
0.833982 0.833982 0.833982
0.93022 0.93022 0.93022
0.941405 0.941405 0.941405
0.941405 0.941405 0.941405
0.232212 0.232212 0.232212
0.232212 0.232212 0.232212
0.232074 0.232074 0.232074
0.23064 0.23064 0.23064
0.651942 0.651942 0.651942
0.63357 0.63357 0.63357
0.608347 0.608347 0.608347
0.564508 0.564508 0.564508
0.485542 0.485542 0.485542
0.232074 0.232074 0.232074
0.232074 0.232074 0.232074
0.231998 0.231998 0.231998
0.228229 0.228229 0.228229
0.651865 0.651865 0.651865
0.633509 0.633509 0.633509
0.60827 0.60827 0.60827
0.564385 0.564385 0.564385
0.485237 0.485237 0.485237
0.231586 0.231586 0.231586
0.231586 0.231586 0.231586
0.231449 0.231449 0.231449
0.217823 0.217823 0.217823
0.651576 0.651576 0.651576
0.633249 0.633249 0.633249
0.607919 0.607919 0.607919
0.563897 0.563897 0.563897
0.484108 0.484108 0.484108
0.229801 0.229801 0.229801
0.229801 0.229801 0.229801
0.22974 0.22974 0.22974
0.229328 0.229328 0.229328
0.650492 0.650492 0.650492
0.632349 0.632349 0.632349
0.606668 0.606668 0.606668
0.562112 0.562112 0.562112
0.479713 0.479713 0.479713
0.570718 0.570718 0.570718
0.570596 0.570596 0.570596
0.57026 0.57026 0.57026
0.56907 0.56907 0.56907
0.732784 0.732784 0.732784
0.738186 0.738186 0.738186
0.601999 0.601999 0.601999
0.555261 0.555261 0.555261
0.457343 0.457343 0.457343
0.760739 0.760739 0.760739
0.760739 0.760739 0.760739
0.760739 0.760739 0.760739
0.760739 0.760739 0.760739
0.816144 0.816144 0.816144
0.939406 0.939406 0.939406
0.914183 0.914183 0.914183
0.877546 0.877546 0.877546
0.833738 0.833738 0.833738
0.790951 0.790951 0.790951
0.791028 0.791028 0.791028
0.791333 0.791333 0.791333
0.792432 0.792432 0.792432
0.795804 0.795804 0.795804
0.921721 0.921721 0.921721
0.943908 0.943908 0.943908
0.941405 0.941405 0.941405
0.941405 0.941405 0.941405
0.833982 0.833982 0.833982
0.833982 0.833982 0.833982
0.833982 0.833982 0.833982
0.833982 0.833982 0.833982
0.833982 0.833982 0.833982
0.85951 0.85951 0.85951
0.942901 0.942901 0.942901
0.941405 0.941405 0.941405
0.941405 0.941405 0.941405
0.833982 0.833982 0.833982
0.833982 0.833982 0.833982
0.833982 0.833982 0.833982
0.833982 0.833982 0.833982
0.833982 0.833982 0.833982
0.833982 0.833982 0.833982
0.929137 0.929137 0.929137
0.941405 0.941405 0.941405
0.941405 0.941405 0.941405
0.348241 0.348241 0.348241
0.348241 0.348241 0.348241
0.348196 0.348196 0.348196
0.34815 0.34815 0.34815
0.584222 0.584222 0.584222
0.70161 0.70161 0.70161
0.689479 0.689479 0.689479
0.674159 0.674159 0.674159
0.659693 0.659693 0.659693
0.348196 0.348196 0.348196
0.348196 0.348196 0.348196
0.348196 0.348196 0.348196
0.348104 0.348104 0.348104
0.583185 0.583185 0.583185
0.701595 0.701595 0.701595
0.689464 0.689464 0.689464
0.674159 0.674159 0.674159
0.659663 0.659663 0.659663
0.348104 0.348104 0.348104
0.348104 0.348104 0.348104
0.348074 0.348074 0.348074
0.348028 0.348028 0.348028
0.579431 0.579431 0.579431
0.701549 0.701549 0.701549
0.689403 0.689403 0.689403
0.674067 0.674067 0.674067
0.659556 0.659556 0.659556
0.347768 0.347768 0.347768
0.347768 0.347768 0.347768
0.347738 0.347738 0.347738
0.347692 0.347692 0.347692
0.564706 0.564706 0.564706
0.701411 0.701411 0.701411
0.689204 0.689204 0.689204
0.673762 0.673762 0.673762
0.659175 0.659175 0.659175
0.346593 0.346593 0.346593
0.346563 0.346563 0.346563
0.346563 0.346563 0.346563
0.346471 0.346471 0.346471
0.483543 0.483543 0.483543
0.700893 0.700893 0.700893
0.688441 0.688441 0.688441
0.672663 0.672663 0.672663
0.657877 0.657877 0.657877
0.672038 0.672038 0.672038
0.672038 0.672038 0.672038
0.671962 0.671962 0.671962
0.671672 0.671672 0.671672
0.67071 0.67071 0.67071
0.847837 0.847837 0.847837
0.835737 0.835737 0.835737
0.77821 0.77821 0.77821
0.653132 0.653132 0.653132
0.760739 0.760739 0.760739
0.760739 0.760739 0.760739
0.760739 0.760739 0.760739
0.760739 0.760739 0.760739
0.760739 0.760739 0.760739
0.887694 0.887694 0.887694
0.993896 0.993896 0.993896
0.982528 0.982528 0.982528
0.972061 0.972061 0.972061
0.760739 0.760739 0.760739
0.760739 0.760739 0.760739
0.760739 0.760739 0.760739
0.760739 0.760739 0.760739
0.760739 0.760739 0.760739
0.771008 0.771008 0.771008
0.969635 0.969635 0.969635
0.976959 0.976959 0.976959
0.963424 0.963424 0.963424
0.833982 0.833982 0.833982
0.833982 0.833982 0.833982
0.833982 0.833982 0.833982
0.833982 0.833982 0.833982
0.833982 0.833982 0.833982
0.833982 0.833982 0.833982
0.925597 0.925597 0.925597
0.941405 0.941405 0.941405
0.941405 0.941405 0.941405
0.401984 0.401984 0.401984
0.401984 0.401984 0.401984
0.401953 0.401953 0.401953
0.401953 0.401953 0.401953
0.401892 0.401892 0.401892
0.710933 0.710933 0.710933
0.710933 0.710933 0.710933
0.710933 0.710933 0.710933
0.710933 0.710933 0.710933
0.401953 0.401953 0.401953
0.401953 0.401953 0.401953
0.401953 0.401953 0.401953
0.401953 0.401953 0.401953
0.401877 0.401877 0.401877
0.710933 0.710933 0.710933
0.710933 0.710933 0.710933
0.710933 0.710933 0.710933
0.710933 0.710933 0.710933
0.401953 0.401953 0.401953
0.401923 0.401923 0.401923
0.401923 0.401923 0.401923
0.401923 0.401923 0.401923
0.401846 0.401846 0.401846
0.710933 0.710933 0.710933
0.710933 0.710933 0.710933
0.710933 0.710933 0.710933
0.710933 0.710933 0.710933
0.401877 0.401877 0.401877
0.401846 0.401846 0.401846
0.401846 0.401846 0.401846
0.401846 0.401846 0.401846
0.40177 0.40177 0.40177
0.710933 0.710933 0.710933
0.710933 0.710933 0.710933
0.710933 0.710933 0.710933
0.710933 0.710933 0.710933
0.401572 0.401572 0.401572
0.401572 0.401572 0.401572
0.401572 0.401572 0.401572
0.401556 0.401556 0.401556
0.401495 0.401495 0.401495
0.710933 0.710933 0.710933
0.710933 0.710933 0.710933
0.710933 0.710933 0.710933
0.710933 0.710933 0.710933
0.400565 0.400565 0.400565
0.400565 0.400565 0.400565
0.400565 0.400565 0.400565
0.400534 0.400534 0.400534
0.400488 0.400488 0.400488
0.710933 0.710933 0.710933
0.710933 0.710933 0.710933
0.710933 0.710933 0.710933
0.710933 0.710933 0.710933
0.760739 0.760739 0.760739
0.760739 0.760739 0.760739
0.760739 0.760739 0.760739
0.760739 0.760739 0.760739
0.760739 0.760739 0.760739
0.802243 0.802243 0.802243
0.957671 0.957671 0.957671
0.936599 0.936599 0.936599
0.919966 0.919966 0.919966
0.760739 0.760739 0.760739
0.760739 0.760739 0.760739
0.760739 0.760739 0.760739
0.760739 0.760739 0.760739
0.760739 0.760739 0.760739
0.760739 0.760739 0.760739
0.954376 0.954376 0.954376
1 1 1
1 1 1
0.760739 0.760739 0.760739
0.760739 0.760739 0.760739
0.760739 0.760739 0.760739
0.760739 0.760739 0.760739
0.760739 0.760739 0.760739
0.760739 0.760739 0.760739
0.91516 0.91516 0.91516
1 1 1
0.999741 0.999741 0.999741
0.411139 0.411139 0.411139
0.411139 0.411139 0.411139
0.411139 0.411139 0.411139
0.411139 0.411139 0.411139
0.411139 0.411139 0.411139
0.411139 0.411139 0.411139
0.710933 0.710933 0.710933
0.710933 0.710933 0.710933
0.710933 0.710933 0.710933
0.411139 0.411139 0.411139
0.411139 0.411139 0.411139
0.411139 0.411139 0.411139
0.411139 0.411139 0.411139
0.411139 0.411139 0.411139
0.411139 0.411139 0.411139
0.710933 0.710933 0.710933
0.710933 0.710933 0.710933
0.710933 0.710933 0.710933
0.411139 0.411139 0.411139
0.411139 0.411139 0.411139
0.411139 0.411139 0.411139
0.411139 0.411139 0.411139
0.411139 0.411139 0.411139
0.411139 0.411139 0.411139
0.710933 0.710933 0.710933
0.710933 0.710933 0.710933
0.710933 0.710933 0.710933
0.411139 0.411139 0.411139
0.411139 0.411139 0.411139
0.411139 0.411139 0.411139
0.411139 0.411139 0.411139
0.411139 0.411139 0.411139
0.411139 0.411139 0.411139
0.710933 0.710933 0.710933
0.710933 0.710933 0.710933
0.710933 0.710933 0.710933
0.411139 0.411139 0.411139
0.411139 0.411139 0.411139
0.411139 0.411139 0.411139
0.411139 0.411139 0.411139
0.411139 0.411139 0.411139
0.411139 0.411139 0.411139
0.710933 0.710933 0.710933
0.710933 0.710933 0.710933
0.710933 0.710933 0.710933
0.411139 0.411139 0.411139
0.411139 0.411139 0.411139
0.411139 0.411139 0.411139
0.411139 0.411139 0.411139
0.411139 0.411139 0.411139
0.411139 0.411139 0.411139
0.710933 0.710933 0.710933
0.710933 0.710933 0.710933
0.710933 0.710933 0.710933
0.411139 0.411139 0.411139
0.411139 0.411139 0.411139
0.411139 0.411139 0.411139
0.411139 0.411139 0.411139
0.411139 0.411139 0.411139
0.411139 0.411139 0.411139
0.710933 0.710933 0.710933
0.710933 0.710933 0.710933
0.710933 0.710933 0.710933
0.760739 0.760739 0.760739
0.760739 0.760739 0.760739
0.760739 0.760739 0.760739
0.760739 0.760739 0.760739
0.760739 0.760739 0.760739
0.760739 0.760739 0.760739
0.940795 0.940795 0.940795
1 1 1
1 1 1
0.760739 0.760739 0.760739
0.760739 0.760739 0.760739
0.760739 0.760739 0.760739
0.760739 0.760739 0.760739
0.760739 0.760739 0.760739
0.760739 0.760739 0.760739
0.884153 0.884153 0.884153
1 1 1
1 1 1
