Log3G10_RWG_to_ACROS.cube
TITLE "Generated by Resolve"
LUT_3D_SIZE 33
0 0 0
0 0 0
0 0 0
0.00222782 0.00222782 0.00222782
0.00798047 0.00798047 0.00798047
0.0164492 0.0164492 0.0164492
0.0242924 0.0242924 0.0242924
0.0337835 0.0337835 0.0337835
0.0493019 0.0493019 0.0493019
0.0677195 0.0677195 0.0677195
0.0902419 0.0902419 0.0902419
0.113863 0.113863 0.113863
0.144289 0.144289 0.144289
0.181094 0.181094 0.181094
0.221988 0.221988 0.221988
0.268437 0.268437 0.268437
0.318685 0.318685 0.318685
0.351003 0.351003 0.351003
0.374868 0.374868 0.374868
0.395514 0.395514 0.395514
0.395514 0.395514 0.395514
0.395514 0.395514 0.395514
0.395514 0.395514 0.395514
0.395514 0.395514 0.395514
0.395514 0.395514 0.395514
0.395514 0.395514 0.395514
0.395514 0.395514 0.395514
0.395514 0.395514 0.395514
0.395514 0.395514 0.395514
0.395514 0.395514 0.395514
0.395514 0.395514 0.395514
0.395514 0.395514 0.395514
0.395514 0.395514 0.395514
0 0 0
0 0 0
0 0 0
0.00201419 0.00201419 0.00201419
0.00784314 0.00784314 0.00784314
0.0153048 0.0153048 0.0153048
0.0237125 0.0237125 0.0237125
0.0325322 0.0325322 0.0325322
0.0483101 0.0483101 0.0483101
0.0672313 0.0672313 0.0672313
0.0901656 0.0901656 0.0901656
0.113817 0.113817 0.113817
0.144228 0.144228 0.144228
0.181033 0.181033 0.181033
0.221988 0.221988 0.221988
0.268345 0.268345 0.268345
0.318608 0.318608 0.318608
0.350973 0.350973 0.350973
0.374868 0.374868 0.374868
0.395514 0.395514 0.395514
0.395514 0.395514 0.395514
0.395514 0.395514 0.395514
0.395514 0.395514 0.395514
0.395514 0.395514 0.395514
0.395514 0.395514 0.395514
0.395514 0.395514 0.395514
0.395514 0.395514 0.395514
0.395514 0.395514 0.395514
0.395514 0.395514 0.395514
0.395514 0.395514 0.395514
0.395514 0.395514 0.395514
0.395514 0.395514 0.395514
0.395514 0.395514 0.395514
0 0 0
0 0 0
0 0 0
0.000854505 0.000854505 0.000854505
0.00665293 0.00665293 0.00665293
0.0131838 0.0131838 0.0131838
0.0223392 0.0223392 0.0223392
0.0311742 0.0311742 0.0311742
0.0452125 0.0452125 0.0452125
0.0661479 0.0661479 0.0661479
0.0910201 0.0910201 0.0910201
0.117098 0.117098 0.117098
0.144106 0.144106 0.144106
0.180972 0.180972 0.180972
0.221912 0.221912 0.221912
0.268345 0.268345 0.268345
0.318608 0.318608 0.318608
0.350973 0.350973 0.350973
0.374823 0.374823 0.374823
0.395514 0.395514 0.395514
0.395514 0.395514 0.395514
0.395514 0.395514 0.395514
0.395514 0.395514 0.395514
0.395514 0.395514 0.395514
0.395514 0.395514 0.395514
0.395514 0.395514 0.395514
0.395514 0.395514 0.395514
0.395514 0.395514 0.395514
0.395514 0.395514 0.395514
0.395514 0.395514 0.395514
0.395514 0.395514 0.395514
0.395514 0.395514 0.395514
0.395514 0.395514 0.395514
0.00520333 0.00520333 0.00520333
0.00512703 0.00512703 0.00512703
0.00500496 0.00500496 0.00500496
0.00546273 0.00546273 0.00546273
0.0107424 0.0107424 0.0107424
0.0168765 0.0168765 0.0168765
0.0250095 0.0250095 0.0250095
0.0347143 0.0347143 0.0347143
0.0502327 0.0502327 0.0502327
0.0713664 0.0713664 0.0713664
0.0980545 0.0980545 0.0980545
0.127398 0.127398 0.127398
0.157855 0.157855 0.157855
0.188678 0.188678 0.188678
0.221836 0.221836 0.221836
0.268254 0.268254 0.268254
0.318517 0.318517 0.318517
0.350973 0.350973 0.350973
0.374823 0.374823 0.374823
0.395514 0.395514 0.395514
0.395514 0.395514 0.395514
0.395514 0.395514 0.395514
0.395514 0.395514 0.395514
0.395514 0.395514 0.395514
0.395514 0.395514 0.395514
0.395514 0.395514 0.395514
0.395514 0.395514 0.395514
0.395514 0.395514 0.395514
0.395514 0.395514 0.395514
0.395514 0.395514 0.395514
0.395514 0.395514 0.395514
0.395514 0.395514 0.395514
0.395514 0.395514 0.395514
0.0175631 0.0175631 0.0175631
0.0174716 0.0174716 0.0174716
0.0166934 0.0166934 0.0166934
0.0162661 0.0162661 0.0162661
0.022034 0.022034 0.022034
0.0292515 0.0292515 0.0292515
0.0375982 0.0375982 0.0375982
0.0491798 0.0491798 0.0491798
0.066453 0.066453 0.066453
0.0898299 0.0898299 0.0898299
0.115114 0.115114 0.115114
0.143755 0.143755 0.143755
0.175494 0.175494 0.175494
0.212802 0.212802 0.212802
0.24622 0.24622 0.24622
0.271458 0.271458 0.271458
0.318517 0.318517 0.318517
0.350927 0.350927 0.350927
0.374823 0.374823 0.374823
0.395514 0.395514 0.395514
0.395514 0.395514 0.395514
0.395514 0.395514 0.395514
0.395514 0.395514 0.395514
0.395514 0.395514 0.395514
0.395514 0.395514 0.395514
0.395514 0.395514 0.395514
0.395514 0.395514 0.395514
0.395514 0.395514 0.395514
0.395514 0.395514 0.395514
0.395514 0.395514 0.395514
0.395514 0.395514 0.395514
0.395514 0.395514 0.395514
0.395514 0.395514 0.395514
0.0337835 0.0337835 0.0337835
0.0336919 0.0336919 0.0336919
0.0348516 0.0348516 0.0348516
0.0349279 0.0349279 0.0349279
0.0384985 0.0384985 0.0384985
0.0469062 0.0469062 0.0469062
0.0555886 0.0555886 0.0555886
0.0677653 0.0677653 0.0677653
0.0869459 0.0869459 0.0869459
0.112444 0.112444 0.112444
0.140536 0.140536 0.140536
0.172854 0.172854 0.172854
0.209796 0.209796 0.209796
0.249104 0.249104 0.249104
0.286336 0.286336 0.286336
0.322271 0.322271 0.322271
0.336278 0.336278 0.336278
0.350896 0.350896 0.350896
0.374762 0.374762 0.374762
0.395514 0.395514 0.395514
0.395514 0.395514 0.395514
0.395514 0.395514 0.395514
0.395514 0.395514 0.395514
0.395514 0.395514 0.395514
0.395514 0.395514 0.395514
0.395514 0.395514 0.395514
0.395514 0.395514 0.395514
0.395514 0.395514 0.395514
0.395514 0.395514 0.395514
0.395514 0.395514 0.395514
0.395514 0.395514 0.395514
0.395514 0.395514 0.395514
0.395514 0.395514 0.395514
0.0555581 0.0555581 0.0555581
0.0554513 0.0554513 0.0554513
0.0556497 0.0556497 0.0556497
0.0580911 0.0580911 0.0580911
0.0587015 0.0587015 0.0587015
0.0671855 0.0671855 0.0671855
0.0766308 0.0766308 0.0766308
0.089662 0.089662 0.089662
0.109895 0.109895 0.109895
0.136233 0.136233 0.136233
0.165942 0.165942 0.165942
0.197894 0.197894 0.197894
0.230945 0.230945 0.230945
0.269413 0.269413 0.269413
0.310658 0.310658 0.310658
0.34789 0.34789 0.34789
0.355581 0.355581 0.355581
0.373678 0.373678 0.373678
0.374701 0.374701 0.374701
0.395514 0.395514 0.395514
0.395514 0.395514 0.395514
0.395514 0.395514 0.395514
0.395514 0.395514 0.395514
0.395514 0.395514 0.395514
0.395514 0.395514 0.395514
0.395514 0.395514 0.395514
0.395514 0.395514 0.395514
0.395514 0.395514 0.395514
0.395514 0.395514 0.395514
0.395514 0.395514 0.395514
0.395514 0.395514 0.395514
0.395514 0.395514 0.395514
0.395514 0.395514 0.395514
0.0906081 0.0906081 0.0906081
0.0904402 0.0904402 0.0904402
0.0907149 0.0907149 0.0907149
0.0929732 0.0929732 0.0929732
0.0926528 0.0926528 0.0926528
0.0995193 0.0995193 0.0995193
0.109682 0.109682 0.109682
0.123186 0.123186 0.123186
0.142733 0.142733 0.142733
0.167346 0.167346 0.167346
0.194705 0.194705 0.194705
0.226078 0.226078 0.226078
0.26067 0.26067 0.26067
0.298985 0.298985 0.298985
0.34052 0.34052 0.34052
0.381415 0.381415 0.381415
0.402441 0.402441 0.402441
0.400275 0.400275 0.400275
0.395514 0.395514 0.395514
0.395514 0.395514 0.395514
0.395514 0.395514 0.395514
0.395514 0.395514 0.395514
0.395514 0.395514 0.395514
0.395514 0.395514 0.395514
0.395514 0.395514 0.395514
0.395514 0.395514 0.395514
0.395514 0.395514 0.395514
0.395514 0.395514 0.395514
0.395514 0.395514 0.395514
0.395514 0.395514 0.395514
0.395514 0.395514 0.395514
0.395514 0.395514 0.395514
0.395514 0.395514 0.395514
0.147875 0.147875 0.147875
0.147768 0.147768 0.147768
0.147707 0.147707 0.147707
0.150164 0.150164 0.150164
0.152346 0.152346 0.152346
0.153384 0.153384 0.153384
0.162493 0.162493 0.162493
0.17293 0.17293 0.17293
0.191135 0.191135 0.191135
0.21474 0.21474 0.21474
0.240284 0.240284 0.240284
0.270222 0.270222 0.270222
0.303365 0.303365 0.303365
0.342016 0.342016 0.342016
0.3841 0.3841 0.3841
0.425299 0.425299 0.425299
0.452384 0.452384 0.452384
0.456611 0.456611 0.456611
0.45153 0.45153 0.45153
0.398352 0.398352 0.398352
0.395514 0.395514 0.395514
0.395514 0.395514 0.395514
0.395514 0.395514 0.395514
0.395514 0.395514 0.395514
0.395514 0.395514 0.395514
0.395514 0.395514 0.395514
0.395514 0.395514 0.395514
0.395514 0.395514 0.395514
0.395514 0.395514 0.395514
0.395514 0.395514 0.395514
0.395514 0.395514 0.395514
0.395514 0.395514 0.395514
0.395514 0.395514 0.395514
0.224887 0.224887 0.224887
0.224735 0.224735 0.224735
0.224582 0.224582 0.224582
0.227558 0.227558 0.227558
0.233478 0.233478 0.233478
0.228626 0.228626 0.228626
0.226703 0.226703 0.226703
0.234974 0.234974 0.234974
0.252171 0.252171 0.252171
0.272297 0.272297 0.272297
0.297658 0.297658 0.297658
0.324804 0.324804 0.324804
0.357122 0.357122 0.357122
0.393347 0.393347 0.393347
0.433249 0.433249 0.433249
0.472786 0.472786 0.472786
0.504372 0.504372 0.504372
0.508431 0.508431 0.508431
0.507683 0.507683 0.507683
0.481498 0.481498 0.481498
0.425574 0.425574 0.425574
0.395514 0.395514 0.395514
0.395514 0.395514 0.395514
0.395514 0.395514 0.395514
0.395514 0.395514 0.395514
0.395514 0.395514 0.395514
0.395514 0.395514 0.395514
0.395514 0.395514 0.395514
0.395514 0.395514 0.395514
0.395514 0.395514 0.395514
0.395514 0.395514 0.395514
0.395514 0.395514 0.395514
0.395514 0.395514 0.395514
0.321508 0.321508 0.321508
0.321508 0.321508 0.321508
0.321324 0.321324 0.321324
0.321141 0.321141 0.321141
0.327718 0.327718 0.327718
0.312886 0.312886 0.312886
0.298863 0.298863 0.298863
0.305699 0.305699 0.305699
0.32047 0.32047 0.32047
0.339559 0.339559 0.339559
0.361959 0.361959 0.361959
0.386618 0.386618 0.386618
0.417014 0.417014 0.417014
0.449241 0.449241 0.449241
0.485649 0.485649 0.485649
0.521401 0.521401 0.521401
0.552773 0.552773 0.552773
0.559564 0.559564 0.559564
0.558053 0.558053 0.558053
0.545708 0.545708 0.545708
0.512352 0.512352 0.512352
0.456397 0.456397 0.456397
0.395514 0.395514 0.395514
0.395514 0.395514 0.395514
0.395514 0.395514 0.395514
0.395514 0.395514 0.395514
0.395514 0.395514 0.395514
0.395514 0.395514 0.395514
0.395514 0.395514 0.395514
0.395514 0.395514 0.395514
0.395514 0.395514 0.395514
0.395514 0.395514 0.395514
0.395514 0.395514 0.395514
0.438941 0.438941 0.438941
0.438758 0.438758 0.438758
0.438758 0.438758 0.438758
0.43856 0.43856 0.43856
0.437873 0.437873 0.437873
0.41799 0.41799 0.41799
0.393896 0.393896 0.393896
0.388357 0.388357 0.388357
0.400916 0.400916 0.400916
0.416556 0.416556 0.416556
0.43505 0.43505 0.43505
0.456687 0.456687 0.456687
0.482246 0.482246 0.482246
0.510292 0.510292 0.510292
0.541421 0.541421 0.541421
0.573678 0.573678 0.573678
0.602426 0.602426 0.602426
0.612421 0.612421 0.612421
0.610056 0.610056 0.610056
0.601175 0.601175 0.601175
0.577279 0.577279 0.577279
0.543694 0.543694 0.543694
0.490333 0.490333 0.490333
0.395514 0.395514 0.395514
0.395514 0.395514 0.395514
0.395514 0.395514 0.395514
0.395514 0.395514 0.395514
0.395514 0.395514 0.395514
0.395514 0.395514 0.395514
0.395514 0.395514 0.395514
0.395514 0.395514 0.395514
0.395514 0.395514 0.395514
0.395514 0.395514 0.395514
0.542885 0.542885 0.542885
0.542702 0.542702 0.542702
0.542702 0.542702 0.542702
0.542535 0.542535 0.542535
0.542535 0.542535 0.542535
0.536431 0.536431 0.536431
0.507546 0.507546 0.507546
0.484688 0.484688 0.484688
0.489891 0.489891 0.489891
0.50219 0.50219 0.50219
0.516899 0.516899 0.516899
0.532876 0.532876 0.532876
0.553658 0.553658 0.553658
0.577935 0.577935 0.577935
0.603082 0.603082 0.603082
0.630426 0.630426 0.630426
0.65536 0.65536 0.65536
0.66627 0.66627 0.66627
0.663951 0.663951 0.663951
0.654856 0.654856 0.654856
0.636667 0.636667 0.636667
0.61088 0.61088 0.61088
0.576333 0.576333 0.576333
0.525658 0.525658 0.525658
0.419577 0.419577 0.419577
0.395514 0.395514 0.395514
0.395514 0.395514 0.395514
0.395514 0.395514 0.395514
0.395514 0.395514 0.395514
0.395514 0.395514 0.395514
0.395514 0.395514 0.395514
0.395514 0.395514 0.395514
0.395514 0.395514 0.395514
0.640085 0.640085 0.640085
0.639918 0.639918 0.639918
0.639918 0.639918 0.639918
0.639918 0.639918 0.639918
0.639765 0.639765 0.639765
0.639612 0.639612 0.639612
0.627634 0.627634 0.627634
0.595941 0.595941 0.595941
0.581231 0.581231 0.581231
0.587716 0.587716 0.587716
0.597986 0.597986 0.597986
0.610376 0.610376 0.610376
0.627085 0.627085 0.627085
0.64596 0.64596 0.64596
0.667002 0.667002 0.667002
0.688884 0.688884 0.688884
0.709697 0.709697 0.709697
0.722774 0.722774 0.722774
0.718044 0.718044 0.718044
0.706844 0.706844 0.706844
0.690333 0.690333 0.690333
0.671107 0.671107 0.671107
0.646113 0.646113 0.646113
0.61207 0.61207 0.61207
0.563149 0.563149 0.563149
0.475761 0.475761 0.475761
0.395514 0.395514 0.395514
0.395514 0.395514 0.395514
0.395514 0.395514 0.395514
0.395514 0.395514 0.395514
0.395514 0.395514 0.395514
0.395514 0.395514 0.395514
0.395514 0.395514 0.395514
0.723247 0.723247 0.723247
0.723247 0.723247 0.723247
0.723247 0.723247 0.723247
0.723247 0.723247 0.723247
0.723125 0.723125 0.723125
0.723125 0.723125 0.723125
0.723003 0.723003 0.723003
0.704997 0.704997 0.704997
0.676356 0.676356 0.676356
0.668391 0.668391 0.668391
0.675074 0.675074 0.675074
0.684871 0.684871 0.684871
0.698177 0.698177 0.698177
0.712398 0.712398 0.712398
0.728679 0.728679 0.728679
0.746761 0.746761 0.746761
0.764096 0.764096 0.764096
0.776898 0.776898 0.776898
0.771542 0.771542 0.771542
0.758816 0.758816 0.758816
0.740887 0.740887 0.740887
0.724529 0.724529 0.724529
0.706554 0.706554 0.706554
0.683604 0.683604 0.683604
0.652293 0.652293 0.652293
0.605875 0.605875 0.605875
0.532555 0.532555 0.532555
0.395514 0.395514 0.395514
0.395514 0.395514 0.395514
0.395514 0.395514 0.395514
0.395514 0.395514 0.395514
0.395514 0.395514 0.395514
0.395514 0.395514 0.395514
0.781186 0.781186 0.781186
0.781186 0.781186 0.781186
0.781186 0.781186 0.781186
0.781186 0.781186 0.781186
0.781125 0.781125 0.781125
0.781125 0.781125 0.781125
0.781048 0.781048 0.781048
0.781048 0.781048 0.781048
0.764401 0.764401 0.764401
0.742641 0.742641 0.742641
0.743648 0.743648 0.743648
0.751324 0.751324 0.751324
0.762417 0.762417 0.762417
0.774166 0.774166 0.774166
0.788373 0.788373 0.788373
0.802594 0.802594 0.802594
0.817624 0.817624 0.817624
0.827832 0.827832 0.827832
0.822995 0.822995 0.822995
0.809018 0.809018 0.809018
0.790997 0.790997 0.790997
0.773022 0.773022 0.773022
0.758785 0.758785 0.758785
0.741833 0.741833 0.741833
0.720409 0.720409 0.720409
0.693034 0.693034 0.693034
0.654185 0.654185 0.654185
0.595529 0.595529 0.595529
0.492271 0.492271 0.492271
0.395514 0.395514 0.395514
0.395514 0.395514 0.395514
0.395514 0.395514 0.395514
0.395514 0.395514 0.395514
0.806973 0.806973 0.806973
0.806973 0.806973 0.806973
0.806973 0.806973 0.806973
0.806973 0.806973 0.806973
0.806973 0.806973 0.806973
0.806943 0.806943 0.806943
0.806943 0.806943 0.806943
0.806912 0.806912 0.806912
0.806912 0.806912 0.806912
0.796307 0.796307 0.796307
0.788525 0.788525 0.788525
0.796994 0.796994 0.796994
0.808209 0.808209 0.808209
0.820264 0.820264 0.820264
0.832837 0.832837 0.832837
0.845106 0.845106 0.845106
0.85771 0.85771 0.85771
0.866743 0.866743 0.866743
0.868284 0.868284 0.868284
0.854841 0.854841 0.854841
0.839078 0.839078 0.839078
0.819577 0.819577 0.819577
0.805722 0.805722 0.805722
0.792584 0.792584 0.792584
0.776638 0.776638 0.776638
0.757961 0.757961 0.757961
0.733791 0.733791 0.733791
0.703105 0.703105 0.703105
0.66038 0.66038 0.66038
0.597299 0.597299 0.597299
0.489921 0.489921 0.489921
0.395514 0.395514 0.395514
0.395514 0.395514 0.395514
0.822568 0.822568 0.822568
0.822568 0.822568 0.822568
0.822568 0.822568 0.822568
0.822568 0.822568 0.822568
0.822568 0.822568 0.822568
0.822568 0.822568 0.822568
0.822538 0.822538 0.822538
0.822538 0.822538 0.822538
0.822507 0.822507 0.822507
0.822477 0.822477 0.822477
0.812573 0.812573 0.812573
0.812711 0.812711 0.812711
0.825727 0.825727 0.825727
0.840238 0.840238 0.840238
0.855436 0.855436 0.855436
0.869596 0.869596 0.869596
0.882841 0.882841 0.882841
0.894194 0.894194 0.894194
0.901122 0.901122 0.901122
0.894087 0.894087 0.894087
0.879973 0.879973 0.879973
0.862501 0.862501 0.862501
0.846082 0.846082 0.846082
0.836545 0.836545 0.836545
0.825223 0.825223 0.825223
0.811292 0.811292 0.811292
0.794766 0.794766 0.794766
0.775311 0.775311 0.775311
0.751415 0.751415 0.751415
0.721691 0.721691 0.721691
0.685527 0.685527 0.685527
0.639948 0.639948 0.639948
0.580224 0.580224 0.580224
0.833524 0.833524 0.833524
0.833524 0.833524 0.833524
0.833524 0.833524 0.833524
0.833524 0.833524 0.833524
0.833524 0.833524 0.833524
0.833524 0.833524 0.833524
0.833524 0.833524 0.833524
0.833509 0.833509 0.833509
0.833509 0.833509 0.833509
0.833494 0.833494 0.833494
0.833494 0.833494 0.833494
0.824506 0.824506 0.824506
0.828977 0.828977 0.828977
0.841321 0.841321 0.841321
0.856733 0.856733 0.856733
0.872953 0.872953 0.872953
0.890867 0.890867 0.890867
0.907301 0.907301 0.907301
0.919387 0.919387 0.919387
0.923339 0.923339 0.923339
0.912963 0.912963 0.912963
0.898848 0.898848 0.898848
0.881926 0.881926 0.881926
0.872663 0.872663 0.872663
0.864088 0.864088 0.864088
0.854734 0.854734 0.854734
0.843793 0.843793 0.843793
0.830823 0.830823 0.830823
0.815885 0.815885 0.815885
0.798062 0.798062 0.798062
0.778607 0.778607 0.778607
0.758526 0.758526 0.758526
0.738796 0.738796 0.738796
0.833982 0.833982 0.833982
0.833982 0.833982 0.833982
0.833982 0.833982 0.833982
0.833982 0.833982 0.833982
0.833982 0.833982 0.833982
0.833982 0.833982 0.833982
0.833982 0.833982 0.833982
0.833982 0.833982 0.833982
0.833982 0.833982 0.833982
0.833982 0.833982 0.833982
0.833982 0.833982 0.833982
0.833982 0.833982 0.833982
0.833982 0.833982 0.833982
0.841001 0.841001 0.841001
0.853193 0.853193 0.853193
0.868391 0.868391 0.868391
0.884993 0.884993 0.884993
0.902022 0.902022 0.902022
0.918532 0.918532 0.918532
0.931487 0.931487 0.931487
0.935164 0.935164 0.935164
0.925368 0.925368 0.925368
0.9122 0.9122 0.9122
0.901076 0.901076 0.901076
0.895247 0.895247 0.895247
0.888167 0.888167 0.888167
0.881056 0.881056 0.881056
0.872389 0.872389 0.872389
0.862791 0.862791 0.862791
0.852522 0.852522 0.852522
0.840879 0.840879 0.840879
0.830259 0.830259 0.830259
0.821164 0.821164 0.821164
0.833982 0.833982 0.833982
0.833982 0.833982 0.833982
0.833982 0.833982 0.833982
0.833982 0.833982 0.833982
0.833982 0.833982 0.833982
0.833982 0.833982 0.833982
0.833982 0.833982 0.833982
0.833982 0.833982 0.833982
0.833982 0.833982 0.833982
0.833982 0.833982 0.833982
0.833982 0.833982 0.833982
0.833982 0.833982 0.833982
0.833982 0.833982 0.833982
0.834669 0.834669 0.834669
0.849546 0.849546 0.849546
0.863752 0.863752 0.863752
0.878096 0.878096 0.878096
0.894316 0.894316 0.894316
0.910689 0.910689 0.910689
0.925917 0.925917 0.925917
0.937942 0.937942 0.937942
0.939239 0.939239 0.939239
0.934585 0.934585 0.934585
0.924788 0.924788 0.924788
0.919936 0.919936 0.919936
0.914839 0.914839 0.914839
0.909682 0.909682 0.909682
0.903975 0.903975 0.903975
0.897841 0.897841 0.897841
0.890974 0.890974 0.890974
0.884321 0.884321 0.884321
0.878416 0.878416 0.878416
0.87361 0.87361 0.87361
0.833982 0.833982 0.833982
0.833982 0.833982 0.833982
0.833982 0.833982 0.833982
0.833982 0.833982 0.833982
0.833982 0.833982 0.833982
0.833982 0.833982 0.833982
0.833982 0.833982 0.833982
0.833982 0.833982 0.833982
0.833982 0.833982 0.833982
0.833982 0.833982 0.833982
0.833982 0.833982 0.833982
0.833982 0.833982 0.833982
0.833982 0.833982 0.833982
0.833982 0.833982 0.833982
0.837476 0.837476 0.837476
0.854292 0.854292 0.854292
0.870878 0.870878 0.870878
0.88658 0.88658 0.88658
0.902968 0.902968 0.902968
0.918944 0.918944 0.918944
0.933196 0.933196 0.933196
0.943053 0.943053 0.943053
0.941329 0.941329 0.941329
0.938155 0.938155 0.938155
0.935821 0.935821 0.935821
0.933745 0.933745 0.933745
0.930678 0.930678 0.930678
0.926802 0.926802 0.926802
0.92311 0.92311 0.92311
0.918868 0.918868 0.918868
0.9149 0.9149 0.9149
0.911101 0.911101 0.911101
0.908583 0.908583 0.908583
0.833982 0.833982 0.833982
0.833982 0.833982 0.833982
0.833982 0.833982 0.833982
0.833982 0.833982 0.833982
0.833982 0.833982 0.833982
0.833982 0.833982 0.833982
0.833982 0.833982 0.833982
0.833982 0.833982 0.833982
0.833982 0.833982 0.833982
0.833982 0.833982 0.833982
0.833982 0.833982 0.833982
0.833982 0.833982 0.833982
0.833982 0.833982 0.833982
0.833982 0.833982 0.833982
0.833982 0.833982 0.833982
0.841871 0.841871 0.841871
0.860151 0.860151 0.860151
0.877852 0.877852 0.877852
0.894316 0.894316 0.894316
0.911254 0.911254 0.911254
0.926543 0.926543 0.926543
0.939757 0.939757 0.939757
0.945281 0.945281 0.945281
0.943252 0.943252 0.943252
0.941268 0.941268 0.941268
0.94023 0.94023 0.94023
0.939086 0.939086 0.939086
0.938247 0.938247 0.938247
0.937591 0.937591 0.937591
0.936461 0.936461 0.936461
0.934707 0.934707 0.934707
0.932891 0.932891 0.932891
0.931792 0.931792 0.931792
0.833982 0.833982 0.833982
0.833982 0.833982 0.833982
0.833982 0.833982 0.833982
0.833982 0.833982 0.833982
0.833982 0.833982 0.833982
0.833982 0.833982 0.833982
0.833982 0.833982 0.833982
0.833982 0.833982 0.833982
0.833982 0.833982 0.833982
0.833982 0.833982 0.833982
0.833982 0.833982 0.833982
0.833982 0.833982 0.833982
0.833982 0.833982 0.833982
0.833982 0.833982 0.833982
0.833982 0.833982 0.833982
0.833982 0.833982 0.833982
0.847349 0.847349 0.847349
0.866682 0.866682 0.866682
0.884932 0.884932 0.884932
0.903044 0.903044 0.903044
0.919295 0.919295 0.919295
0.933959 0.933959 0.933959
0.944305 0.944305 0.944305
0.944381 0.944381 0.944381
0.942367 0.942367 0.942367
0.941405 0.941405 0.941405
0.941405 0.941405 0.941405
0.941344 0.941344 0.941344
0.941131 0.941131 0.941131
0.940948 0.940948 0.940948
0.940398 0.940398 0.940398
0.940169 0.940169 0.940169
0.939941 0.939941 0.939941
0.833982 0.833982 0.833982
0.833982 0.833982 0.833982
0.833982 0.833982 0.833982
0.833982 0.833982 0.833982
0.833982 0.833982 0.833982
0.833982 0.833982 0.833982
0.833982 0.833982 0.833982
0.833982 0.833982 0.833982
0.833982 0.833982 0.833982
0.833982 0.833982 0.833982
0.833982 0.833982 0.833982
0.833982 0.833982 0.833982
0.833982 0.833982 0.833982
0.833982 0.833982 0.833982
0.833982 0.833982 0.833982
0.833982 0.833982 0.833982
0.833982 0.833982 0.833982
0.853483 0.853483 0.853483
0.874372 0.874372 0.874372
0.893385 0.893385 0.893385
0.911208 0.911208 0.911208
0.927779 0.927779 0.927779
0.940337 0.940337 0.940337
0.944595 0.944595 0.944595
0.943481 0.943481 0.943481
0.941558 0.941558 0.941558
0.941405 0.941405 0.941405
0.941405 0.941405 0.941405
0.941405 0.941405 0.941405
0.941405 0.941405 0.941405
0.941405 0.941405 0.941405
0.941405 0.941405 0.941405
0.941405 0.941405 0.941405
0.833982 0.833982 0.833982
0.833982 0.833982 0.833982
0.833982 0.833982 0.833982
0.833982 0.833982 0.833982
0.833982 0.833982 0.833982
0.833982 0.833982 0.833982
0.833982 0.833982 0.833982
0.833982 0.833982 0.833982
0.833982 0.833982 0.833982
0.833982 0.833982 0.833982
0.833982 0.833982 0.833982
0.833982 0.833982 0.833982
0.833982 0.833982 0.833982
0.833982 0.833982 0.833982
0.833982 0.833982 0.833982
0.833982 0.833982 0.833982
0.833982 0.833982 0.833982
0.835111 0.835111 0.835111
0.861143 0.861143 0.861143
0.882521 0.882521 0.882521
0.902174 0.902174 0.902174
0.920363 0.920363 0.920363
0.935454 0.935454 0.935454
0.944411 0.944411 0.944411
0.943664 0.943664 0.943664
0.942519 0.942519 0.942519
0.941405 0.941405 0.941405
0.941405 0.941405 0.941405
0.941405 0.941405 0.941405
0.941405 0.941405 0.941405
0.941405 0.941405 0.941405
0.941405 0.941405 0.941405
0.941405 0.941405 0.941405
0.833982 0.833982 0.833982
0.833982 0.833982 0.833982
0.833982 0.833982 0.833982
0.833982 0.833982 0.833982
0.833982 0.833982 0.833982
0.833982 0.833982 0.833982
0.833982 0.833982 0.833982
0.833982 0.833982 0.833982
0.833982 0.833982 0.833982
0.833982 0.833982 0.833982
0.833982 0.833982 0.833982
0.833982 0.833982 0.833982
0.833982 0.833982 0.833982
0.833982 0.833982 0.833982
0.833982 0.833982 0.833982
0.833982 0.833982 0.833982
0.833982 0.833982 0.833982
0.833982 0.833982 0.833982
0.843137 0.843137 0.843137
0.869795 0.869795 0.869795
0.89163 0.89163 0.89163
0.91191 0.91191 0.91191
0.928542 0.928542 0.928542
0.941527 0.941527 0.941527
0.944869 0.944869 0.944869
0.94284 0.94284 0.94284
0.941405 0.941405 0.941405
0.941405 0.941405 0.941405
0.941405 0.941405 0.941405
0.941405 0.941405 0.941405
0.941405 0.941405 0.941405
