Log3G10_RWG_to_PROVIA.cube
TITLE "Generated by Resolve"
LUT_3D_SIZE 33
0 0 0
0 0 0
0 0 0
0.0121614 0.00111391 0.000381476
0.0482948 0.00192264 0.00357061
0.0861982 0.00308232 0.00514229
0.130648 0.00248722 0.0108186
0.192142 0.00299077 0.0157473
0.255848 0.00283818 0.0215457
0.329564 0.00256352 0.027985
0.408042 0.000640879 0.0374151
0.499046 0 0.049897
0.617945 3.0518e-05 0.0671855
0.743282 0.000274662 0.0941329
0.870466 0 0.137362
0.963851 0.000183108 0.210056
0.993454 0.000167849 0.315267
0.999954 0 0.387762
0.999969 0 0.382788
1 0 0.37641
1 0 0.37641
1 0 0.37641
1 0 0.37641
1 0 0.37641
1 0 0.37641
1 0 0.37641
1 0 0.37641
1 0 0.37641
1 0 0.37641
1 0 0.37641
1 0 0.37641
1 0 0.37641
1 0 0.37641
0 0 0
0 0 0
0 0 0
0.0110628 0.00109865 0.000427253
0.0449073 0.00166323 0.00251774
0.0820783 0.00317388 0.00550851
0.126787 0.00273136 0.0105898
0.186023 0.00285344 0.0152438
0.2533 0.00239567 0.0220188
0.328283 0.00228885 0.0284733
0.407767 0.000640879 0.0373846
0.498878 0 0.0498817
0.617731 3.0518e-05 0.0671397
0.743038 0.000274662 0.0940719
0.870466 0 0.137362
0.96376 0.000183108 0.209903
0.993454 0.000167849 0.315053
0.999954 0 0.387762
0.999969 0 0.382788
1 0 0.37641
1 0 0.37641
1 0 0.37641
1 0 0.37641
1 0 0.37641
1 0 0.37641
1 0 0.37641
1 0 0.37641
1 0 0.37641
1 0 0.37641
1 0 0.37641
1 0 0.37641
1 0 0.37641
1 0 0.37641
0 0 0
0 0 0
0 0 0
0.00732433 0.000701915 0
0.0378119 0.00143435 0.00216678
0.0773938 0.00207523 0.00646983
0.119921 0.00277714 0.00979629
0.176913 0.00299077 0.0137484
0.245167 0.00280766 0.0218357
0.323735 0.00180056 0.0271153
0.413184 0.000213626 0.0386053
0.512291 0.000244144 0.0493935
0.617319 3.0518e-05 0.0670481
0.742809 0.000274662 0.0939956
0.870237 0 0.13727
0.96376 0.000183108 0.209903
0.993454 0.000167849 0.315053
0.999954 0 0.387762
0.999969 0 0.382818
1 0 0.37641
1 0 0.37641
1 0 0.37641
1 0 0.37641
1 0 0.37641
1 0 0.37641
1 0 0.37641
1 0 0.37641
1 0 0.37641
1 0 0.37641
1 0 0.37641
1 0 0.37641
1 0 0.37641
1 0 0.37641
0.00062562 0.0131685 0.000106813
0.00062562 0.0129854 0.000106813
0.000640879 0.0126955 9.15541e-05
0.00215152 0.0115358 9.15541e-05
0.0304112 0.0115511 3.0518e-05
0.0695506 0.010193 0.00140383
0.116838 0.0077821 0.00648508
0.177829 0.00779736 0.0112764
0.254261 0.00514229 0.0213931
0.341192 0.00215152 0.0301976
0.440391 0.000335698 0.041474
0.553185 0.000183108 0.0561379
0.663325 0.00015259 0.0772259
0.770123 0.000183108 0.1028
0.870024 0 0.137163
0.963684 0.000183108 0.209751
0.993439 0.000167849 0.314839
0.999954 0 0.387762
0.999969 0 0.382818
1 0 0.37641
1 0 0.37641
1 0 0.37641
1 0 0.37641
1 0 0.37641
1 0 0.37641
1 0 0.37641
1 0 0.37641
1 0 0.37641
1 0 0.37641
1 0 0.37641
1 0 0.37641
1 0 0.37641
1 0 0.37641
0.000122072 0.0379644 0
0.000106813 0.0377508 0
0 0.0355077 0
0.000518807 0.033753 0.000350958
0.0187381 0.0365301 0.000198367
0.060853 0.0360418 0.000274662
0.111086 0.0335851 0.000137331
0.179309 0.0347601 0.00325017
0.264302 0.0315862 0.00979629
0.35874 0.0272374 0.0189364
0.469947 0.0154879 0.0332799
0.593545 0.00337224 0.0551919
0.721645 3.0518e-05 0.0889754
0.843885 0 0.126284
0.930755 0.000137331 0.175509
0.967498 0.000259403 0.2159
0.993439 0.000167849 0.314839
0.999954 0 0.387762
0.999969 0 0.382818
1 0 0.37641
1 0 0.37641
1 0 0.37641
1 0 0.37641
1 0 0.37641
1 0 0.37641
1 0 0.37641
1 0 0.37641
1 0 0.37641
1 0 0.37641
1 0 0.37641
1 0 0.37641
1 0 0.37641
1 0 0.37641
0.0010071 0.066804 0.00030518
0.0010071 0.0666056 0.00030518
0.000640879 0.0681315 6.10361e-05
0.000518807 0.0683146 0
0.00358587 0.0686809 7.62951e-05
0.0476997 0.0701457 0.000518807
0.0995651 0.0698253 9.15541e-05
0.174853 0.0674144 0.000427253
0.264332 0.0646067 0.000534066
0.370367 0.0604257 0.00933852
0.493034 0.0512856 0.0207828
0.628534 0.039765 0.0397498
0.775128 0.0212558 0.0772717
0.90779 0.00132753 0.139376
0.977935 0.000167849 0.234028
0.996323 9.15541e-05 0.321889
0.999146 0.000183108 0.361181
0.999954 0 0.387762
0.999969 0 0.382849
1 0 0.37641
1 0 0.37641
1 0 0.37641
1 0 0.37641
1 0 0.37641
1 0 0.37641
1 0 0.37641
1 0 0.37641
1 0 0.37641
1 0 0.37641
1 0 0.37641
1 0 0.37641
1 0 0.37641
1 0 0.37641
0.0024567 0.110063 1.5259e-05
0.0024567 0.10985 3.0518e-05
0.00259403 0.109819 3.0518e-05
0.00334173 0.11078 0
0.00331121 0.110414 0
0.0209049 0.113787 0
0.0818494 0.11136 0
0.157885 0.112398 0.000350958
0.255772 0.110414 0.00030518
0.370443 0.104143 0
0.49839 0.0977493 0.00408942
0.631159 0.0895552 0.0183413
0.765332 0.0751965 0.0470283
0.892592 0.0596475 0.0927749
0.995163 0.0375219 0.18204
0.999924 0.0131838 0.313039
0.999954 0 0.387762
0.999954 0 0.384146
0.999969 0 0.382879
1 0 0.37641
1 0 0.37641
1 0 0.37641
1 0 0.37641
1 0 0.37641
1 0 0.37641
1 0 0.37641
1 0 0.37641
1 0 0.37641
1 0 0.37641
1 0 0.37641
1 0 0.37641
1 0 0.37641
1 0 0.37641
0.000808728 0.175677 0
0.000808728 0.175402 0
0.000717174 0.175875 3.0518e-05
0.00141909 0.180972 0
0.00141909 0.180423 0
0.00114443 0.180041 0.000213626
0.0443885 0.179385 4.57771e-05
0.124498 0.179583 0.000198367
0.231525 0.175616 4.57771e-05
0.351034 0.167987 6.10361e-05
0.474479 0.161456 0
0.606241 0.154467 0.000198367
0.742733 0.144656 0.0168154
0.870726 0.132387 0.0535286
0.981918 0.113771 0.11931
0.99971 0.0851148 0.225254
0.999634 0.0445716 0.331899
0.999985 0.0117952 0.360601
1 0 0.37641
1 0 0.37641
1 0 0.37641
1 0 0.37641
1 0 0.37641
1 0 0.37641
1 0 0.37641
1 0 0.37641
1 0 0.37641
1 0 0.37641
1 0 0.37641
1 0 0.37641
1 0 0.37641
1 0 0.37641
1 0 0.37641
0.000183108 0.265461 0.000381476
0.000183108 0.265293 0.000381476
0.000183108 0.26537 0.000381476
0.000228885 0.271916 1.5259e-05
0 0.275807 0.000122072
4.57771e-05 0.275868 0.000183108
0.00180056 0.270649 0.000259403
0.0760357 0.265003 0.000793469
0.186038 0.259846 6.10361e-05
0.312123 0.25417 0.000457771
0.443275 0.245457 0
0.579751 0.239185 0.000320439
0.719509 0.228199 1.5259e-05
0.850752 0.219547 0.0102083
0.96849 0.20766 0.0669108
0.99968 0.185595 0.15259
0.999481 0.151537 0.258183
0.999374 0.097612 0.296712
0.999893 0.050721 0.326818
0.999924 0.000808728 0.373159
1 0 0.37641
1 0 0.37641
1 0 0.37641
1 0 0.37641
1 0 0.37641
1 0 0.37641
1 0 0.37641
1 0 0.37641
1 0 0.37641
1 0 0.37641
1 0 0.37641
1 0 0.37641
1 0 0.37641
6.10361e-05 0.388006 0
6.10361e-05 0.387747 0
6.10361e-05 0.387503 0
1.5259e-05 0.391196 7.62951e-05
0.000411994 0.400824 0.000198367
0 0.393179 0
0.000167849 0.378164 0.000610361
0.0136873 0.366629 0.000640879
0.121645 0.361074 0.000808728
0.260853 0.350942 0.000640879
0.404089 0.342702 0.000259403
0.548959 0.334615 1.5259e-05
0.691493 0.326406 0.000350958
0.826001 0.318273 7.62951e-05
0.947524 0.307652 0.0130312
0.998825 0.29131 0.0899825
0.999252 0.271702 0.191623
1 0.214786 0.225162
0.999588 0.158755 0.255329
0.999527 0.0957656 0.298268
0.999893 0.0221256 0.350942
1 0 0.37641
1 0 0.37641
1 0 0.37641
1 0 0.37641
1 0 0.37641
1 0 0.37641
1 0 0.37641
1 0 0.37641
1 0 0.37641
1 0 0.37641
1 0 0.37641
1 0 0.37641
0.000640879 0.545617 0.000106813
0.000640879 0.545617 0.000106813
0.000656138 0.545312 0.000106813
0.000656138 0.545022 0.000106813
0.000137331 0.556481 0.000762951
3.0518e-05 0.533364 0.000701915
0 0.507591 0.000534066
0.000259403 0.49192 7.62951e-05
0.0281071 0.479103 0.00030518
0.1823 0.467185 0.00015259
0.347158 0.456306 0.000137331
0.50457 0.445106 3.0518e-05
0.655863 0.435431 0
0.797848 0.424964 0
0.915908 0.415198 0.000137331
0.997147 0.399771 0.0263828
0.999817 0.381964 0.122026
0.999939 0.338277 0.178134
0.999634 0.281361 0.185504
0.999985 0.224689 0.211032
0.999893 0.156664 0.259052
0.999603 0.0561532 0.323766
1 0 0.37641
1 0 0.37641
1 0 0.37641
1 0 0.37641
1 0 0.37641
1 0 0.37641
1 0 0.37641
1 0 0.37641
1 0 0.37641
1 0 0.37641
1 0 0.37641
0 0.714534 0.000213626
0 0.71429 0.000213626
0 0.71429 0.000213626
0 0.714031 0.000213626
0 0.713329 0.000183108
1.5259e-05 0.686198 0.00047303
9.15541e-05 0.654002 7.62951e-05
0.000259403 0.630854 0.000442512
0 0.614878 3.0518e-05
0.0577249 0.600824 0.000122072
0.256519 0.585794 0.000244144
0.437812 0.571221 0.000854505
0.60621 0.557061 0.00030518
0.75404 0.54139 0.00030518
0.879805 0.528359 0.000183108
0.982254 0.513222 0.000213626
0.999161 0.496056 0.0513008
0.998871 0.46276 0.125628
0.999359 0.410468 0.144381
0.99968 0.351247 0.151736
0.999634 0.293828 0.167514
0.999863 0.220081 0.214588
0.999573 0.112093 0.288624
1 0 0.37641
1 0 0.37641
1 0 0.37641
1 0 0.37641
1 0 0.37641
1 0 0.37641
1 0 0.37641
1 0 0.37641
1 0 0.37641
1 0 0.37641
0 0.841337 0.000534066
0 0.841138 0.000534066
0 0.841138 0.000534066
0 0.84094 0.000534066
0 0.84094 0.000534066
1.5259e-05 0.833997 0.000228885
0.000106813 0.800168 0.00077821
0 0.770871 0.000335698
7.62951e-05 0.752102 0.00047303
0.000274662 0.734722 0.00062562
0.103273 0.717433 0.000137331
0.332921 0.69958 6.10361e-05
0.529458 0.67837 0.000335698
0.698238 0.660914 1.5259e-05
0.834714 0.643565 0
0.949355 0.626917 7.62951e-05
0.999619 0.609201 0.000167849
0.999832 0.586297 0.0694285
0.999374 0.53608 0.102296
0.999405 0.479393 0.116121
0.999359 0.423117 0.128222
0.999268 0.36733 0.144686
0.999268 0.290913 0.170184
0.999908 0.181674 0.241794
0.99968 0.0179904 0.355108
1 0 0.37641
1 0 0.37641
1 0 0.37641
1 0 0.37641
1 0 0.37641
1 0 0.37641
1 0 0.37641
1 0 0.37641
0 0.94815 0.000183108
0 0.947982 0.000183108
0 0.947982 0.000183108
0 0.947982 0.000183108
0 0.947829 0.000183108
0 0.947662 0.000183108
0 0.935744 0
0 0.903502 0
0.000244144 0.877455 0.000732433
0 0.8589 0.000335698
3.0518e-05 0.840574 0.000915541
0.154971 0.82208 0.000198367
0.412604 0.797894 1.5259e-05
0.616892 0.776074 0.000213626
0.778637 0.75613 0.000274662
0.904967 0.738293 0
0.993652 0.71931 0
0.999161 0.699748 0.0115663
0.999313 0.657816 0.0528725
0.999023 0.602838 0.0773175
0.999619 0.541054 0.0938735
0.999603 0.49958 0.107607
0.999039 0.444312 0.121538
0.999588 0.370092 0.143572
0.999786 0.261982 0.185748
0.999741 0.0881819 0.30454
1 0 0.37641
1 0 0.37641
1 0 0.37641
1 0 0.37641
1 0 0.37641
1 0 0.37641
1 0 0.37641
0 1 0.000289921
0 1 0.000289921
0 1 0.000289921
0 1 0.000289921
0 1 0.000289921
0 1 0.000289921
0 1 0.000289921
0 1 0.000289921
0 0.982254 0.000350958
0.000106813 0.96495 0.000717174
0 0.947921 0.000732433
0.000259403 0.932525 0.000442512
0.215 0.904601 0
0.491157 0.870527 1.5259e-05
0.697871 0.845441 0.000701915
0.849867 0.827375 1.5259e-05
0.967468 0.816129 0.000122072
0.999756 0.805295 0.00015259
0.999817 0.769192 0.00442512
0.999557 0.71725 0.0387579
0.99939 0.656428 0.0630961
0.999176 0.615991 0.0755474
0.998947 0.578073 0.0848859
0.999451 0.526329 0.0977646
0.99971 0.457527 0.119875
0.999756 0.356619 0.147646
0.999054 0.1991 0.229206
1 0 0.37641
1 0 0.37641
1 0 0.37641
1 0 0.37641
1 0 0.37641
1 0 0.37641
0 1 0.000289921
0 1 0.000289921
0 1 0.000289921
0 1 0.000289921
0 1 0.000289921
0 1 0.000289921
0 1 0.000289921
0 1 0.000289921
0 1 0.000289921
0 1 0.000289921
0 1 0.000289921
0 1 0.000289921
0 0.995315 0.000244144
0.272251 0.963836 0.000122072
0.568154 0.929412 0.000167849
0.770092 0.906722 0.00062562
0.911711 0.891218 0.000350958
0.996857 0.87866 0.000686656
0.999084 0.86305 1.5259e-05
0.999115 0.818906 0.00158694
0.999481 0.764996 0.0287633
0.999222 0.714931 0.0506905
0.998764 0.686625 0.0595712
0.999191 0.652277 0.0659495
0.999573 0.60763 0.0771191
0.99968 0.546944 0.0929732
0.999954 0.461021 0.11812
0.999222 0.333974 0.15465
0.999527 0.116304 0.284703
1 0 0.37641
1 0 0.37641
1 0 0.37641
1 0 0.37641
0 1 0.000289921
0 1 0.000289921
0 1 0.000289921
0 1 0.000289921
0 1 0.000289921
0 1 0.000289921
0 1 0.000289921
0 1 0.000289921
0 1 0.000289921
0 1 0.000289921
0 1 0.000289921
0 1 0.000289921
0 1 0.000289921
0 1 0.000289921
0.324468 0.996124 0.000396735
0.632074 0.973831 0.000396735
0.822019 0.949264 0
0.949248 0.931914 3.0518e-05
0.998688 0.919112 0.000167849
0.999542 0.896819 0
0.999237 0.856489 0.00251774
0.999008 0.807752 0.0243839
0.999634 0.779004 0.0336461
0.999176 0.75436 0.0389563
0.999298 0.723064 0.0472572
0.999298 0.685222 0.0604257
0.998734 0.636622 0.0686809
0.99971 0.569009 0.0877546
0.999725 0.474968 0.113848
0.999481 0.337621 0.152972
0.999771 0.110796 0.288579
1 0 0.37641
1 0 0.37641
0 1 0.000289921
0 1 0.000289921
0 1 0.000289921
0 1 0.000289921
0 1 0.000289921
0 1 0.000289921
0 1 0.000289921
0 1 0.000289921
0 1 0.000289921
0 1 0.000289921
0 1 0.000289921
0 1 0.000289921
0 1 0.000289921
0 1 0.000289921
0.00529488 0.999985 0.00047303
0.373602 0.999771 1.5259e-05
0.675715 0.995483 0.000366217
0.854505 0.977951 0.000137331
0.974136 0.962158 6.10361e-05
0.999191 0.947021 0.00383001
0.998886 0.925628 0
0.99884 0.889387 0.00344854
0.999252 0.852903 0.0188754
0.998627 0.834775 0.0228122
0.999313 0.814588 0.0249332
0.999283 0.789349 0.0285954
0.998734 0.758358 0.0390478
0.999237 0.71957 0.0495308
0.999054 0.67042 0.0607004
0.999542 0.610544 0.077348
0.999481 0.530419 0.097612
0.999924 0.430335 0.127657
0.999359 0.299474 0.162951
0 1 0.000289921
0 1 0.000289921
0 1 0.000289921
0 1 0.000289921
0 1 0.000289921
0 1 0.000289921
0 1 0.000289921
0 1 0.000289921
0 1 0.000289921
0 1 0.000289921
0 1 0.000289921
0 1 0.000289921
0 1 0.000289921
0 1 0.000289921
0 1 0.000289921
0.0309148 1 0.000335698
0.439719 0.999741 0.000122072
0.709667 0.999817 0.000106813
0.880705 0.997284 0.000259403
0.990646 0.986053 0.0239872
0.998505 0.969726 0.0186923
0.998795 0.947936 0.00387579
0.999161 0.918379 0.00135805
0.99881 0.900114 0.00544747
0.999207 0.885863 0.00895705
0.999008 0.867811 0.0138552
0.999756 0.849012 0.0198672
0.998962 0.824979 0.0248417
0.999924 0.796857 0.029221
0.999725 0.765469 0.03682
0.998993 0.726894 0.0458839
0.999054 0.686259 0.0568399
0.999344 0.645106 0.0670176
0 1 0.000289921
0 1 0.000289921
0 1 0.000289921
0 1 0.000289921
0 1 0.000289921
0 1 0.000289921
0 1 0.000289921
0 1 0.000289921
0 1 0.000289921
0 1 0.000289921
0 1 0.000289921
0 1 0.000289921
0 1 0.000289921
0 1 0.000289921
0 1 0.000289921
0 1 0.000289921
0.166674 0.999847 0.000320439
0.524697 0.999817 0.000915541
0.754391 0.999847 0.000198367
0.902205 0.999664 0.0089723
0.993057 0.998932 0.0372778
0.999496 0.99028 0.0315251
0.999023 0.968734 0.0176699
0.999313 0.951507 0.00538643
0.99939 0.940841 0.00204471
0.99942 0.930205 1.5259e-05
0.999008 0.917021 0.0011902
0.999115 0.90042 0.00396735
0.999344 0.884108 0.00856031
0.999283 0.864042 0.0166171
0.998505 0.84329 0.021088
0.998734 0.824384 0.0245823
0.999161 0.80824 0.0268406
0 1 0.000289921
0 1 0.000289921
0 1 0.000289921
0 1 0.000289921
0 1 0.000289921
0 1 0.000289921
0 1 0.000289921
0 1 0.000289921
0 1 0.000289921
0 1 0.000289921
0 1 0.000289921
0 1 0.000289921
0 1 0.000289921
0 1 0.000289921
0 1 0.000289921
0 1 0.000289921
0 1 0.000289921
0.292073 0.999954 0.000289921
0.5897 0.999573 0.000259403
0.791547 0.999603 7.62951e-05
0.924193 0.999207 0.0263828
0.983932 0.999603 0.0448463
0.994736 0.998886 0.0441596
0.998856 0.990448 0.0329747
0.9991 0.98117 0.0268864
0.99971 0.972717 0.0208896
0.99884 0.964431 0.0143282
0.999054 0.95494 0.00694286
0.999283 0.944533 0.000167849
0.999268 0.934173 7.62951e-05
0.998947 0.922927 0.000427253
0.999313 0.911421 0.00163272
0.999115 0.901823 0.00343328
0 1 0.000289921
0 1 0.000289921
0 1 0.000289921
0 1 0.000289921
0 1 0.000289921
0 1 0.000289921
0 1 0.000289921
0 1 0.000289921
0 1 0.000289921
0 1 0.000289921
0 1 0.000289921
0 1 0.000289921
0 1 0.000289921
0 1 0.000289921
0 1 0.000289921
0 1 0.000289921
0 1 0.000289921
0.0767071 0.999832 0.000854505
0.41445 0.999466 0.000183108
0.657069 0.99968 0.000411994
0.827741 0.999588 0.00619516
0.947021 0.999924 0.0446021
0.982605 0.999863 0.0493477
0.988693 0.999496 0.0494392
0.993973 0.999222 0.0467384
0.996338 0.999069 0.0444495
0.99855 0.99704 0.0403601
0.999207 0.99295 0.0365606
0.999344 0.986816 0.0311437
0.998993 0.9794 0.0269932
0.999573 0.971725 0.0201572
0.999496 0.965438 0.0140383
0.999542 0.961608 0.0115206
0 1 0.000289921
0 1 0.000289921
0 1 0.000289921
0 1 0.000289921
0 1 0.000289921
0 1 0.000289921
0 1 0.000289921
0 1 0.000289921
0 1 0.000289921
0 1 0.000289921
0 1 0.000289921
0 1 0.000289921
0 1 0.000289921
0 1 0.000289921
0 1 0.000289921
0 1 0.000289921
0 1 0.000289921
0 1 0.000289921
0.252659 0.999619 0
0.547036 0.999817 7.62951e-05
0.747509 0.999405 0.000198367
0.882673 0.999786 0.0261845
0.970428 0.999756 0.0618143
0.982315 0.999893 0.0617227
0.982879 0.999603 0.0542458
0.983261 0.999603 0.0539101
0.986969 0.999603 0.0525521
0.989685 0.999634 0.0509651
0.992187 0.999802 0.0482948
0.993713 0.999741 0.0475319
0.997131 0.999786 0.0453956
0.998383 0.999863 0.0446021
0.998795 0.998856 0.0433356
0 1 0.000289921
0 1 0.000289921
0 1 0.000289921
0 1 0.000289921
0 1 0.000289921
0 1 0.000289921
0 1 0.000289921
0 1 0.000289921
0 1 0.000289921
0 1 0.000289921
0 1 0.000289921
0 1 0.000289921
0 1 0.000289921
0 1 0.000289921
0 1 0.000289921
0 1 0.000289921
0 1 0.000289921
0 1 0.000289921
0.0301061 0.999924 0.000732433
0.409689 0.999619 4.57771e-05
0.661585 0.999863 0.00062562
0.826963 0.999664 0.00677501
0.93727 0.999573 0.04477
0.981979 0.999847 0.0624399
0.982605 0.999252 0.0561074
0.982559 0.999557 0.0543679
0.982559 0.999557 0.0543679
0.982559 0.999557 0.0543679
0.982559 0.999557 0.0543679
0.98349 0.999725 0.0540627
0.983841 0.999649 0.0532387
0.984298 0.999298 0.0510567
0.984619 0.999268 0.0504768
0 1 0.000289921
0 1 0.000289921
0 1 0.000289921
0 1 0.000289921
0 1 0.000289921
0 1 0.000289921
0 1 0.000289921
0 1 0.000289921
0 1 0.000289921
0 1 0.000289921
0 1 0.000289921
0 1 0.000289921
0 1 0.000289921
0 1 0.000289921
0 1 0.000289921
0 1 0.000289921
0 1 0.000289921
0 1 0.000289921
0 1 0.000289921
0.223209 0.999313 0.000122072
0.549783 0.999741 7.62951e-05
0.758633 0.999893 0.000167849
0.89305 0.999725 0.0273747
0.975952 0.999664 0.0620279
0.983352 0.999573 0.0607614
0.98291 0.999588 0.0545052
0.982559 0.999557 0.0543679
0.982559 0.999557 0.0543679
0.982559 0.999557 0.0543679
0.982559 0.999557 0.0543679
0.982559 0.999557 0.0543679
0.982559 0.999557 0.0543679
0.982559 0.999557 0.0543679
0 1 0.000289921
0 1 0.000289921
0 1 0.000289921
0 1 0.000289921
0 1 0.000289921
0 1 0.000289921
0 1 0.000289921
0 1 0.000289921
0 1 0.000289921
0 1 0.000289921
0 1 0.000289921
0 1 0.000289921
0 1 0.000289921
0 1 0.000289921
0 1 0.000289921
0 1 0.000289921
0 1 0.000289921
0 1 0.000289921
0 1 0.000289921
0.00967422 0.999954 0.000274662
0.399634 0.999435 0.000106813
0.669322 0.999786 0
0.837659 0.999405 0.00958267
0.945861 0.999847 0.051133
0.982162 0.999786 0.0627298
0.982605 0.999481 0.0549172
0.982559 0.999557 0.0543679
0.982559 0.999557 0.0543679
0.982559 0.999557 0.0543679
0.982559 0.999557 0.0543679
0.982559 0.999557 0.0543679
0.982559 0.999557 0.0543679
0.982559 0.999557 0.0543679
0 1 0.000289921
0 1 0.000289921
0 1 0.000289921
0 1 0.000289921
0 1 0.000289921
0 1 0.000289921
0 1 0.000289921
0 1 0.000289921
0 1 0.000289921
0 1 0.000289921
0 1 0.000289921
0 1 0.000289921
0 1 0.000289921
0 1 0.000289921
0 1 0.000289921
0 1 0.000289921
0 1 0.000289921
0 1 0.000289921
0 1 0.000289921
0 1 0.000289921
0.19176 0.999664 0.000259403
0.55523 0.999588 0.000289921
0.771374 0.999603 0
0.905196 0.999588 0.033814
0.976547 0.999573 0.0624399
0.982681 0.999771 0.059266
0.982559 0.999557 0.0543679
0.982559 0.999557 0.0543679
0.982559 0.999557 0.0543679
0.982559 0.999557 0.0543679
0.982559 0.999557 0.0543679
0.982559 0.999557 0.0543679
0.982559 0.999557 0.0543679
0 1 0.000289921
0 1 0.000289921
0 1 0.000289921
0 1 0.000289921
0 1 0.000289921
0 1 0.000289921
0 1 0.000289921
0 1 0.000289921
0 1 0.000289921
