Log3G10_RWG_to_WDR.cube
TITLE "Generated by Resolve"
LUT_3D_SIZE 9
0 0 0
0.0561379 0.00671397 0.00671397
0.272343 0.0325933 0.0325933
0.577585 0.0572518 0.0572518
0.83415 0.0674144 0.0674144
0.84152 0.0675975 0.0675975
0.84152 0.0675975 0.0675975
0.84152 0.0675975 0.0675975
0.84152 0.0675975 0.0675975
0.0108949 0.0517433 0.0108949
0.0341344 0.0487984 0.0125887
0.263264 0.0349584 0.0321508
0.575189 0.0571145 0.0571145
0.833967 0.0674144 0.0674144
0.84152 0.0675975 0.0675975
0.84152 0.0675975 0.0675975
0.84152 0.0675975 0.0675975
0.84152 0.0675975 0.0675975
0.0500038 0.260044 0.0500038
0.049836 0.258762 0.049836
0.235004 0.263249 0.0601053
0.593927 0.225971 0.068864
0.8177 0.070634 0.0671702
0.84152 0.0675975 0.0675975
0.84152 0.0675975 0.0675975
0.84152 0.0675975 0.0675975
0.84152 0.0675975 0.0675975
0.0703136 0.553582 0.0703136
0.0703136 0.553338 0.0703136
0.0702068 0.546593 0.0702068
0.524971 0.556558 0.0640116
0.873686 0.519646 0.0325628
0.962417 0.429328 0.0446632
0.84152 0.0675975 0.0675975
0.84152 0.0675975 0.0675975
0.84152 0.0675975 0.0675975
0.0642863 0.787503 0.0642863
0.0642863 0.787503 0.0642863
0.0643015 0.787335 0.0643015
0.168444 0.781079 0.0560922
0.772732 0.784833 0
0.999954 0.755154 0
1 0.706462 0
0.997681 0.553384 0.00361639
0.84152 0.0675975 0.0675975
0.0299382 0.958816 0.0299382
0.0299382 0.958816 0.0299382
0.0299382 0.958816 0.0299382
0.0299687 0.958694 0.0299687
0.601999 0.945846 0
0.929641 0.924651 0
1 0.907546 0
1 0.893492 0
1 0.87068 0
0.0236515 0.983352 0.0236515
0.0236515 0.983352 0.0236515
0.0236515 0.983352 0.0236515
0.0236515 0.983352 0.0236515
0.0236515 0.983352 0.0236515
0.842451 1 0
1 1 0
1 0.999619 0
1 0.999069 0
0.0236515 0.983352 0.0236515
0.0236515 0.983352 0.0236515
0.0236515 0.983352 0.0236515
0.0236515 0.983352 0.0236515
0.0236515 0.983352 0.0236515
0.65893 1 0
0.999786 1 0
1 1 0
1 1 0
0.0236515 0.983352 0.0236515
0.0236515 0.983352 0.0236515
0.0236515 0.983352 0.0236515
0.0236515 0.983352 0.0236515
0.0236515 0.983352 0.0236515
0.0236515 0.983352 0.0236515
0.984771 1 0
1 1 0
1 1 0
0.00254826 0.00254826 0.0517433
0.0473182 0.00767529 0.051667
0.269963 0.033402 0.057557
0.576669 0.0571908 0.0571908
0.833967 0.0674144 0.0674144
0.84152 0.0675975 0.0675975
0.84152 0.0675975 0.0675975
0.84152 0.0675975 0.0675975
0.84152 0.0675975 0.0675975
0.00772107 0.0317082 0.0331884
0.0286564 0.0286564 0.0287175
0.262837 0.0315099 0.0328985
0.575616 0.057145 0.057145
0.833768 0.0673991 0.0673991
0.84152 0.0675975 0.0675975
0.84152 0.0675975 0.0675975
0.84152 0.0675975 0.0675975
0.84152 0.0675975 0.0675975
0.0488899 0.251682 0.0488899
0.0487526 0.250568 0.0487526
0.233982 0.254658 0.0593118
0.591821 0.214771 0.0684215
0.817426 0.0669718 0.0669718
0.84152 0.0675975 0.0675975
0.84152 0.0675975 0.0675975
0.84152 0.0675975 0.0675975
0.84152 0.0675975 0.0675975
0.0702678 0.550866 0.0702678
0.0702678 0.550607 0.0702678
0.070161 0.543999 0.070161
0.524697 0.553841 0.0641947
0.873777 0.516579 0.0334325
0.960754 0.424735 0.0460365
0.84152 0.0675975 0.0675975
0.84152 0.0675975 0.0675975
0.84152 0.0675975 0.0675975
0.0643168 0.786984 0.0643168
0.0643168 0.786984 0.0643168
0.064332 0.786816 0.064332
0.164187 0.780072 0.0565347
0.772732 0.784314 0
0.999969 0.754604 0
1 0.705745 0
0.997253 0.551247 0.00428778
0.84152 0.0675975 0.0675975
0.0299535 0.958755 0.0299535
0.0299535 0.958755 0.0299535
0.0299687 0.958694 0.0299687
0.0299992 0.958572 0.0299992
0.601556 0.945754 0
0.929625 0.924544 0
1 0.907485 0
1 0.89337 0
1 0.870481 0
0.0236515 0.983352 0.0236515
0.0236515 0.983352 0.0236515
0.0236515 0.983352 0.0236515
0.0236515 0.983352 0.0236515
0.0236515 0.983352 0.0236515
0.842359 1 0
1 1 0
1 0.999619 0
1 0.999069 0
0.0236515 0.983352 0.0236515
0.0236515 0.983352 0.0236515
0.0236515 0.983352 0.0236515
0.0236515 0.983352 0.0236515
0.0236515 0.983352 0.0236515
0.658625 1 0
0.999786 1 0
1 1 0
1 1 0
0.0236515 0.983352 0.0236515
0.0236515 0.983352 0.0236515
0.0236515 0.983352 0.0236515
0.0236515 0.983352 0.0236515
0.0236515 0.983352 0.0236515
0.0236515 0.983352 0.0236515
0.984771 1 0
1 1 0
1 1 0
0.0112154 0.0112154 0.227741
0.0111238 0.0111238 0.22591
0.261616 0.0403449 0.24831
0.584268 0.0612802 0.255543
0.836423 0.0678874 0.114137
0.84152 0.0675975 0.0675975
0.84152 0.0675975 0.0675975
0.84152 0.0675975 0.0675975
0.84152 0.0675975 0.0675975
0.0108034 0.0108034 0.219165
0.0107118 0.0107118 0.217395
0.258106 0.0396887 0.239368
0.582712 0.0610361 0.245243
0.834363 0.067628 0.0903334
0.84152 0.0675975 0.0675975
0.84152 0.0675975 0.0675975
0.84152 0.0675975 0.0675975
0.84152 0.0675975 0.0675975
0.0500954 0.226886 0.224323
0.0499123 0.225834 0.222049
0.226001 0.22591 0.226001
0.58677 0.16849 0.203906
0.821317 0.0670787 0.0670787
0.84152 0.0675975 0.0675975
0.84152 0.0675975 0.0675975
0.84152 0.0675975 0.0675975
0.84152 0.0675975 0.0675975
0.0700999 0.540963 0.0700999
0.0700999 0.540719 0.0700999
0.0699779 0.534615 0.0699779
0.523857 0.543877 0.0648661
0.873838 0.504814 0.0366827
0.95465 0.407721 0.0511177
0.84152 0.0675975 0.0675975
0.84152 0.0675975 0.0675975
0.84152 0.0675975 0.0675975
0.0644236 0.785168 0.0644236
0.0644388 0.785077 0.0644388
0.0644388 0.784909 0.0644388
0.147707 0.776303 0.0582132
0.772702 0.782452 0
1 0.752468 0
1 0.702739 0
0.995636 0.543267 0.00682078
0.84152 0.0675975 0.0675975
0.030045 0.958373 0.030045
0.030045 0.958373 0.030045
0.0300603 0.958312 0.0300603
0.0300908 0.95819 0.0300908
0.6 0.945525 0
0.929625 0.924208 0
1 0.907057 0
1 0.892866 0
1 0.869871 0
0.0236515 0.983352 0.0236515
0.0236515 0.983352 0.0236515
0.0236515 0.983352 0.0236515
0.0236515 0.983352 0.0236515
0.0236515 0.983352 0.0236515
0.842054 1 0
1 1 0
1 0.999603 0
1 0.999054 0
0.0236515 0.983352 0.0236515
0.0236515 0.983352 0.0236515
0.0236515 0.983352 0.0236515
0.0236515 0.983352 0.0236515
0.0236515 0.983352 0.0236515
0.657664 1 0
0.999771 1 0
1 1 0
1 1 0
0.0236515 0.983352 0.0236515
0.0236515 0.983352 0.0236515
0.0236515 0.983352 0.0236515
0.0236515 0.983352 0.0236515
0.0236515 0.983352 0.0236515
0.0236515 0.983352 0.0236515
0.98471 1 0
1 1 0
1 1 0
0.0221561 0.0221561 0.449592
0.0221256 0.0221256 0.449149
0.201282 0.0424659 0.471473
0.57641 0.0649729 0.525597
0.854978 0.0703899 0.526238
0.863645 0.0698863 0.347463
0.84152 0.0675975 0.0675975
0.84152 0.0675975 0.0675975
0.84152 0.0675975 0.0675975
0.0220493 0.0220493 0.44744
0.0220188 0.0220188 0.447013
0.19707 0.0420081 0.468406
0.575158 0.0648966 0.522835
0.854688 0.0703899 0.522866
0.863035 0.0698405 0.339117
0.84152 0.0675975 0.0675975
0.84152 0.0675975 0.0675975
0.84152 0.0675975 0.0675975
0.0263066 0.0438392 0.44358
0.025803 0.0415198 0.442679
0.174899 0.039704 0.45507
0.570809 0.0646067 0.512428
0.853529 0.0703441 0.510185
0.860578 0.0696574 0.30663
0.84152 0.0675975 0.0675975
0.84152 0.0675975 0.0675975
0.84152 0.0675975 0.0675975
0.0705425 0.516503 0.505104
0.0705425 0.516106 0.50428
0.0705577 0.511498 0.500526
0.508995 0.508965 0.50901
0.882948 0.451514 0.458488
0.928038 0.326848 0.0673533
0.84152 0.0675975 0.0675975
0.84152 0.0675975 0.0675975
0.84152 0.0675975 0.0675975
0.0648661 0.778073 0.0648661
0.0648661 0.778088 0.0648661
0.0648814 0.777844 0.0648814
0.0745861 0.761288 0.0651408
0.772839 0.775509 0
1 0.744244 0
1 0.691798 0
0.987793 0.510948 0.0178073
0.84152 0.0675975 0.0675975
0.0304112 0.95697 0.0304112
0.0304265 0.956909 0.0304265
0.0304265 0.956909 0.0304265
0.030457 0.956786 0.030457
0.594293 0.944625 0
0.92961 0.922911 0
1 0.905638 0
1 0.891173 0
1 0.867674 0
0.0236515 0.983352 0.0236515
0.0236515 0.983352 0.0236515
0.0236515 0.983352 0.0236515
0.0236515 0.983352 0.0236515
0.0236515 0.983352 0.0236515
0.841047 1 0
1 0.999985 0
1 0.999557 0
1 0.999008 0
0.0236515 0.983352 0.0236515
0.0236515 0.983352 0.0236515
0.0236515 0.983352 0.0236515
0.0236515 0.983352 0.0236515
0.0236515 0.983352 0.0236515
0.654047 1 0
0.999756 1 0
1 1 0
1 1 0
0.0236515 0.983352 0.0236515
0.0236515 0.983352 0.0236515
0.0236515 0.983352 0.0236515
0.0236515 0.983352 0.0236515
0.0236515 0.983352 0.0236515
0.0236515 0.983352 0.0236515
0.984451 1 0
1 1 0
1 1 0
0.0300298 0.0300298 0.609445
0.0300298 0.0300298 0.6094
0.0299992 0.0299992 0.609049
0.513268 0.0651255 0.70248
0.848402 0.070573 0.745678
0.890089 0.0704814 0.730098
0.883513 0.0705882 0.629007
0.84152 0.0675975 0.0675975
0.84152 0.0675975 0.0675975
0.0299992 0.0299992 0.609049
0.0299992 0.0299992 0.609003
0.029984 0.029984 0.608713
0.511589 0.0650645 0.701747
0.848188 0.070573 0.745159
0.890059 0.0704814 0.729427
0.883406 0.0705882 0.627466
0.84152 0.0675975 0.0675975
0.84152 0.0675975 0.0675975
0.0299382 0.0299382 0.607645
0.0299382 0.0299382 0.607584
0.0299229 0.0299229 0.607248
0.505547 0.0648051 0.699031
0.847379 0.070573 0.743221
0.889906 0.0704967 0.727077
0.883024 0.0705882 0.621698
0.84152 0.0675975 0.0675975
0.84152 0.0675975 0.0675975
0.061265 0.245823 0.677928
0.0611734 0.244816 0.677455
0.0608682 0.241337 0.675959
0.482216 0.197955 0.725963
0.831434 0.070573 0.731945
0.889342 0.0705119 0.718395
0.881483 0.0705882 0.598703
0.84152 0.0675975 0.0675975
0.84152 0.0675975 0.0675975
0.0411383 0.775296 0.748394
0.0411688 0.775189 0.748211
0.0412757 0.774868 0.74757
0.0449226 0.760845 0.741634
0.744213 0.743755 0.744228
0.999725 0.706996 0.708125
1 0.640955 0.426017
0.921752 0.30396 0.0668193
0.84152 0.0675975 0.0675975
0.0131991 0.965164 0.30724
0.0133822 0.964996 0.304997
0.013962 0.964614 0.296468
0.0162509 0.962966 0.264195
0.567163 0.940673 0.0349584
0.929534 0.918212 0
1 0.900465 0
1 0.884871 0
1 0.859159 0
0.0236515 0.983352 0.0236515
0.0236515 0.983352 0.0236515
0.0236515 0.983352 0.0236515
0.0236515 0.983352 0.0236515
0.0236515 0.983352 0.0236515
0.837476 1 0
1 0.999893 0
1 0.999405 0
1 0.99884 0
0.0236515 0.983352 0.0236515
0.0236515 0.983352 0.0236515
0.0236515 0.983352 0.0236515
0.0236515 0.983352 0.0236515
0.0236515 0.983352 0.0236515
0.640482 1 0
0.99971 1 0
1 1 0
1 1 0
0.0236515 0.983352 0.0236515
0.0236515 0.983352 0.0236515
0.0236515 0.983352 0.0236515
0.0236515 0.983352 0.0236515
0.0236515 0.983352 0.0236515
0.0236515 0.983352 0.0236515
0.983612 1 0
1 1 0
1 1 0
0.0350347 0.0350347 0.711254
0.0350347 0.0350347 0.711254
0.0350347 0.0350347 0.711177
0.0350195 0.0350195 0.710903
0.806546 0.070573 0.867124
0.899092 0.0700389 0.875273
0.89836 0.0700847 0.863066
0.896162 0.070222 0.826917
0.888472 0.0705272 0.704753
0.0350347 0.0350347 0.711177
0.0350347 0.0350347 0.711177
0.0350347 0.0350347 0.711147
0.0350195 0.0350195 0.710842
0.80621 0.070573 0.866987
0.899092 0.0700389 0.875181
0.89836 0.0700847 0.862959
0.896147 0.070222 0.826749
0.888411 0.0705272 0.70396
0.0350195 0.0350195 0.710918
0.0350195 0.0350195 0.710918
0.0350195 0.0350195 0.710842
0.0350042 0.0350042 0.710613
0.80499 0.070573 0.866499
0.899077 0.0700389 0.874815
0.898329 0.0700847 0.862531
0.896101 0.070222 0.826017
0.888228 0.0705272 0.701015
0.0349737 0.0349737 0.709957
0.0349737 0.0349737 0.709957
0.0349737 0.0349737 0.709911
0.0349584 0.0349584 0.709682
0.800656 0.070573 0.864698
0.899001 0.0700389 0.873594
0.898238 0.0700999 0.861021
0.895933 0.0702373 0.823362
0.88751 0.0705425 0.689921
0.0683604 0.548989 0.881559
0.0683757 0.548608 0.881483
0.0684215 0.547463 0.881148
0.0685588 0.543542 0.880095
0.780377 0.484779 0.954879
0.994568 0.358144 0.947753
0.897902 0.0701152 0.85539
0.895323 0.0702678 0.81326
0.884062 0.0705882 0.637308
0 0.952636 0.913161
0 0.952575 0.9131
0 0.952575 0.912978
0 0.952407 0.912566
0.394049 0.923873 0.906889
0.896605 0.896208 0.896559
1 0.875334 0.876188
1 0.855055 0.794919
1 0.821454 0
0 1 0.708186
0 1 0.707988
0 1 0.707179
0 1 0.70428
0 1 0.693111
0.803891 1 0.634852
1 0.999496 0
1 0.998825 0
1 0.997314 0
0.0236515 0.983352 0.0236515
0.0236515 0.983352 0.0236515
0.0236515 0.983352 0.0236515
0.0236515 0.983352 0.0236515
0.0236515 0.983352 0.0236515
0.583215 1 0
0.999512 1 0
1 1 0
1 1 0
0.0236515 0.983352 0.0236515
0.0236515 0.983352 0.0236515
0.0236515 0.983352 0.0236515
0.0236515 0.983352 0.0236515
0.0236515 0.983352 0.0236515
0.0236515 0.983352 0.0236515
0.980499 1 0
1 1 0
1 1 0
0.0356298 0.0356298 0.723125
0.0356298 0.0356298 0.723125
0.0356298 0.0356298 0.723125
0.0356298 0.0356298 0.723125
0.446265 0.0643626 0.821256
0.900618 0.0699168 0.900618
0.900618 0.0699168 0.900618
0.900618 0.0699168 0.900618
0.900618 0.0699168 0.900618
0.0356298 0.0356298 0.723125
0.0356298 0.0356298 0.723125
0.0356298 0.0356298 0.723125
0.0356298 0.0356298 0.723125
0.444068 0.064271 0.820798
0.900618 0.0699168 0.900618
0.900618 0.0699168 0.900618
0.900618 0.0699168 0.900618
0.900618 0.0699168 0.900618
0.0356298 0.0356298 0.723125
0.0356298 0.0356298 0.723125
0.0356298 0.0356298 0.723125
0.0356298 0.0356298 0.723125
0.436133 0.0639506 0.819104
0.900618 0.0699168 0.900618
0.900618 0.0699168 0.900618
0.900618 0.0699168 0.900618
0.900618 0.0699168 0.900618
0.0356298 0.0356298 0.723125
0.0356298 0.0356298 0.723125
0.0356298 0.0356298 0.723125
0.0356298 0.0356298 0.723125
0.405158 0.0626688 0.812467
0.900618 0.0699168 0.900618
0.900618 0.0699168 0.900618
0.900618 0.0699168 0.900618
0.900618 0.0699168 0.900618
0.0356298 0.0356298 0.723125
0.0356298 0.0356298 0.723125
0.0356298 0.0356298 0.723125
0.0356298 0.0356298 0.723125
0.262257 0.054963 0.779339
0.900618 0.0699168 0.900618
0.900618 0.0699168 0.900618
0.900618 0.0699168 0.900618
0.900618 0.0699168 0.900618
0.0140078 0.829679 0.990814
0.0140078 0.829679 0.990814
0.0140688 0.82948 0.990768
0.0142824 0.828733 0.9906
0.0150149 0.826291 0.990051
0.918547 0.763394 1
1 0.713024 1
1 0.576593 1
0.900618 0.0699168 0.900618
0 1 0.999084
0 1 0.999084
0 1 0.999054
0 1 0.999023
0 1 0.998886
0.726925 1 0.995605
0.988861 0.988861 0.989105
1 0.983963 0.980652
1 0.979156 0.965698
0 1 0.939574
0 1 0.939529
0 1 0.939467
0 1 0.939208
0 1 0.938323
0 1 0.932052
0.970153 1 0.914427
1 1 0.877012
1 1 0.769512
0.0236515 0.983352 0.0236515
0.0236515 0.983352 0.0236515
0.0236515 0.983352 0.0236515
0.0236515 0.983352 0.0236515
0.0236515 0.983352 0.0236515
0.0236515 0.983352 0.0236515
0.969863 1 0
1 1 0
1 1 0
0.0356298 0.0356298 0.723125
0.0356298 0.0356298 0.723125
0.0356298 0.0356298 0.723125
0.0356298 0.0356298 0.723125
0.0356298 0.0356298 0.723125
0.897185 0.0699626 0.90013
0.900618 0.0699168 0.900618
0.900618 0.0699168 0.900618
0.900618 0.0699168 0.900618
0.0356298 0.0356298 0.723125
0.0356298 0.0356298 0.723125
0.0356298 0.0356298 0.723125
0.0356298 0.0356298 0.723125
0.0356298 0.0356298 0.723125
0.897063 0.0699626 0.900114
0.900618 0.0699168 0.900618
0.900618 0.0699168 0.900618
0.900618 0.0699168 0.900618
0.0356298 0.0356298 0.723125
0.0356298 0.0356298 0.723125
0.0356298 0.0356298 0.723125
0.0356298 0.0356298 0.723125
0.0356298 0.0356298 0.723125
0.896712 0.0699626 0.900053
0.900618 0.0699168 0.900618
0.900618 0.0699168 0.900618
0.900618 0.0699168 0.900618
0.0356298 0.0356298 0.723125
0.0356298 0.0356298 0.723125
0.0356298 0.0356298 0.723125
0.0356298 0.0356298 0.723125
0.0356298 0.0356298 0.723125
0.895491 0.0699779 0.899886
0.900618 0.0699168 0.900618
0.900618 0.0699168 0.900618
0.900618 0.0699168 0.900618
0.0356298 0.0356298 0.723125
0.0356298 0.0356298 0.723125
0.0356298 0.0356298 0.723125
0.0356298 0.0356298 0.723125
0.0356298 0.0356298 0.723125
0.890837 0.0700236 0.899214
0.900618 0.0699168 0.900618
0.900618 0.0699168 0.900618
0.900618 0.0699168 0.900618
0.0356298 0.0356298 0.723125
0.0356298 0.0356298 0.723125
0.0356298 0.0356298 0.723125
0.0356298 0.0356298 0.723125
0.0356298 0.0356298 0.723125
0.864271 0.0702678 0.895354
0.900618 0.0699168 0.900618
0.900618 0.0699168 0.900618
0.900618 0.0699168 0.900618
0 0.999954 1
0 0.999954 1
0 0.999954 1
0 0.999954 1
0 0.999954 1
0.205158 0.97911 1
0.995682 0.939834 1
1 0.928923 1
1 0.916243 1
0 1 1
0 1 1
0 1 1
0 1 1
0 1 1
0 1 1
0.943435 1 1
1 1 1
1 1 1
0 1 1
0 1 1
0 1 1
0 1 1
0 1 1
0 1 1
0.898711 1 1
1 1 1
1 1 1
0.0356298 0.0356298 0.723125
0.0356298 0.0356298 0.723125
0.0356298 0.0356298 0.723125
0.0356298 0.0356298 0.723125
0.0356298 0.0356298 0.723125
0.0356298 0.0356298 0.723125
0.900618 0.0699168 0.900618
0.900618 0.0699168 0.900618
0.900618 0.0699168 0.900618
0.0356298 0.0356298 0.723125
0.0356298 0.0356298 0.723125
0.0356298 0.0356298 0.723125
0.0356298 0.0356298 0.723125
0.0356298 0.0356298 0.723125
0.0356298 0.0356298 0.723125
0.900618 0.0699168 0.900618
0.900618 0.0699168 0.900618
0.900618 0.0699168 0.900618
0.0356298 0.0356298 0.723125
0.0356298 0.0356298 0.723125
0.0356298 0.0356298 0.723125
0.0356298 0.0356298 0.723125
0.0356298 0.0356298 0.723125
0.0356298 0.0356298 0.723125
0.900618 0.0699168 0.900618
0.900618 0.0699168 0.900618
0.900618 0.0699168 0.900618
0.0356298 0.0356298 0.723125
0.0356298 0.0356298 0.723125
0.0356298 0.0356298 0.723125
0.0356298 0.0356298 0.723125
0.0356298 0.0356298 0.723125
0.0356298 0.0356298 0.723125
0.900618 0.0699168 0.900618
0.900618 0.0699168 0.900618
0.900618 0.0699168 0.900618
0.0356298 0.0356298 0.723125
0.0356298 0.0356298 0.723125
0.0356298 0.0356298 0.723125
0.0356298 0.0356298 0.723125
0.0356298 0.0356298 0.723125
0.0356298 0.0356298 0.723125
0.900618 0.0699168 0.900618
0.900618 0.0699168 0.900618
0.900618 0.0699168 0.900618
0.0356298 0.0356298 0.723125
0.0356298 0.0356298 0.723125
0.0356298 0.0356298 0.723125
0.0356298 0.0356298 0.723125
0.0356298 0.0356298 0.723125
0.0356298 0.0356298 0.723125
0.900618 0.0699168 0.900618
0.900618 0.0699168 0.900618
0.900618 0.0699168 0.900618
0.0356298 0.0356298 0.723125
0.0356298 0.0356298 0.723125
0.0356298 0.0356298 0.723125
0.0356298 0.0356298 0.723125
0.0356298 0.0356298 0.723125
0.0356298 0.0356298 0.723125
0.900618 0.0699168 0.900618
0.900618 0.0699168 0.900618
0.900618 0.0699168 0.900618
0 1 1
0 1 1
0 1 1
0 1 1
0 1 1
0 1 1
0.903273 1 1
1 1 1
1 1 1
0 1 1
0 1 1
0 1 1
0 1 1
0 1 1
0 1 1
0.82536 1 1
1 1 1
1 1 1
