Log3G10_RWG_to_Provia.cube
TITLE "Generated by Resolve"
LUT_3D_SIZE 33
0.0164645 0.0171817 0.0188907
0.0235599 0.0170291 0.0182956
0.0349889 0.0166323 0.0176089
0.0529335 0.0157931 0.0174716
0.0801404 0.0188602 0.0198215
0.141024 0.0264591 0.0283818
0.232425 0.0393835 0.0424659
0.331289 0.0522469 0.0569772
0.428428 0.0677806 0.071397
0.531502 0.0832837 0.0902113
0.640253 0.0987564 0.114473
0.751232 0.113451 0.143572
0.867842 0.132952 0.185595
0.97583 0.150103 0.23534
1 0.169055 0.299336
1 0.186603 0.377234
1 0.20061 0.462531
1 0.210422 0.543145
1 0.211734 0.613321
1 0.170626 0.678599
1 0.0519722 0.750286
1 0.00447089 0.837232
1 0.0441596 0.905241
1 0.280507 0.945174
1 0.396612 0.975464
1 0.393118 0.993133
1 0.35581 1
1 0.325307 1
1 0.326375 1
1 0.337179 1
1 0.363272 1
1 0.384421 1
1 0.389319 1
0.0135653 0.0213931 0.0165866
0.0173953 0.0205997 0.0143587
0.0281987 0.0200198 0.0136263
0.0454566 0.0177615 0.0135805
0.0770733 0.0197604 0.0168002
0.134386 0.0280156 0.0266423
0.229068 0.0413977 0.0417487
0.329686 0.0545205 0.0568246
0.428611 0.0680858 0.0707561
0.526833 0.0829328 0.0879072
0.63476 0.098497 0.111238
0.745357 0.113207 0.139635
0.86125 0.131685 0.180209
0.970123 0.148608 0.228992
1 0.167834 0.292012
1 0.185351 0.3691
1 0.199664 0.454658
1 0.209705 0.536446
1 0.212696 0.609598
1 0.170809 0.678462
1 0.0519875 0.750286
1 0.00447089 0.837217
1 0.0441444 0.905241
1 0.280507 0.945174
1 0.396612 0.975464
1 0.393133 0.993133
1 0.35581 1
1 0.325307 1
1 0.326375 1
1 0.337179 1
1 0.363272 1
1 0.384421 1
1 0.389319 1
0.00975052 0.028275 0.0138705
0.0135805 0.0275731 0.0129091
0.0193027 0.0261082 0.00814832
0.0354314 0.0215915 0.00958267
0.0629587 0.0214084 0.0124514
0.115984 0.0295567 0.0234226
0.213214 0.0421302 0.0387884
0.319799 0.0565194 0.0552529
0.4309 0.0689097 0.070634
0.523522 0.0828412 0.0856031
0.628046 0.0981155 0.107485
0.737514 0.113008 0.134493
0.852262 0.130114 0.172702
0.961975 0.146395 0.21976
1 0.166171 0.281849
1 0.183749 0.357885
1 0.198459 0.443824
1 0.208667 0.52665
1 0.213291 0.601083
1 0.183032 0.669871
1 0.0593423 0.746777
1 0.00448615 0.837217
1 0.0441444 0.905241
1 0.280491 0.945174
1 0.396597 0.975464
1 0.393133 0.993133
1 0.35581 1
1 0.325307 1
1 0.326375 1
1 0.337179 1
1 0.363272 1
1 0.384421 1
1 0.389319 1
0.0033875 0.0391394 0.00927749
0.00585946 0.0387884 0.00881972
0.0135805 0.0369879 0.00947585
0.0251621 0.0344091 0.00384527
0.0544442 0.0274815 0.00680552
0.088426 0.0334936 0.0195773
0.180652 0.0437018 0.032578
0.300206 0.057145 0.0505684
0.421042 0.0712444 0.0683604
0.51812 0.0826123 0.0819562
0.619577 0.0977798 0.101778
0.728527 0.112993 0.127611
0.840452 0.128054 0.160861
0.951278 0.143206 0.205768
0.99968 0.163485 0.267338
1 0.181521 0.342306
1 0.196689 0.428367
1 0.207263 0.512322
1 0.214511 0.589639
1 0.196384 0.658045
1 0.084535 0.734051
1 0.00445563 0.828351
1 0.0441444 0.905226
1 0.280461 0.945174
1 0.396597 0.975464
1 0.393133 0.993133
1 0.355825 1
1 0.325307 1
1 0.326375 1
1 0.337179 1
1 0.363272 1
1 0.384421 1
1 0.389319 1
0.000259403 0.0551766 0.00750744
0.000656138 0.0551156 0.00680552
0.00276188 0.0546273 0.00604257
0.0134127 0.0517281 0.00619516
0.0345006 0.0468757 0.00320439
0.0983597 0.039292 0.00842298
0.151781 0.0505074 0.0271
0.254444 0.0609293 0.0392615
0.385672 0.0725261 0.057145
0.510948 0.085069 0.0772106
0.607996 0.0975204 0.0923934
0.706737 0.112352 0.111757
0.825772 0.127581 0.146319
0.935225 0.141848 0.188266
0.99852 0.158465 0.245167
1 0.178271 0.318914
1 0.193912 0.404822
1 0.205158 0.491142
1 0.213825 0.572519
1 0.208103 0.642466
1 0.119326 0.716747
1 0.0124514 0.808011
1 0.0260319 0.895842
1 0.274342 0.944228
1 0.396582 0.975464
1 0.393133 0.993133
1 0.355825 1
1 0.325307 1
1 0.326375 1
1 0.337179 1
1 0.363272 1
1 0.384421 1
1 0.389319 1
0 0.0882277 0.00390631
0 0.0872663 0.00285344
0 0.0864118 0.00244144
0.000656138 0.0850385 0.00224308
0.0118257 0.0800183 0.00178531
0.0490272 0.0690929 0.000793469
0.151476 0.0603189 0.0121614
0.235386 0.0765698 0.0349737
0.342153 0.0849317 0.0447852
0.464027 0.0907301 0.0593423
0.584573 0.0992294 0.0793927
0.697261 0.112871 0.101137
0.795468 0.127306 0.120684
0.907713 0.140627 0.15906
0.9953 0.152499 0.211322
1 0.173358 0.283101
1 0.189822 0.36762
1 0.201938 0.457969
1 0.21088 0.543206
1 0.211826 0.618631
1 0.156771 0.69221
1 0.0200046 0.778119
1 0.00149538 0.878935
1 0.199756 0.933608
1 0.395514 0.970443
1 0.393133 0.993133
1 0.355825 1
1 0.325307 1
1 0.326375 1
1 0.337179 1
1 0.363272 1
1 0.384405 1
1 0.389319 1
0 0.139773 0.00294499
0 0.138537 0.00144961
0 0.136538 0.00047303
0 0.133959 4.57771e-05
0 0.130617 3.0518e-05
0.0150454 0.120272 1.5259e-05
0.0745403 0.10312 0
0.210163 0.0950027 0.00662242
0.336126 0.11194 0.0421149
0.455665 0.114137 0.0565652
0.553185 0.115557 0.0710613
0.664088 0.118227 0.0910811
0.775372 0.127565 0.114946
0.881025 0.140154 0.137652
0.974929 0.153353 0.16846
1 0.166506 0.23447
1 0.185046 0.319554
1 0.197848 0.412253
1 0.207233 0.502663
1 0.215106 0.583963
1 0.200366 0.657084
1 0.0773327 0.738064
1 0.00122072 0.838987
1 0.0733959 0.915434
1 0.349081 0.956146
1 0.407874 0.988128
1 0.357412 1
1 0.325307 1
1 0.326375 1
1 0.337163 1
1 0.363272 1
1 0.384405 1
1 0.389319 1
0 0.20444 0.00210575
0 0.202945 0.00146487
0 0.20058 0.000534066
0 0.197086 0
0 0.192142 0
0 0.186679 0
0.0292058 0.170306 0
0.107973 0.148363 0
0.282185 0.136584 0.0053254
0.428534 0.152712 0.0533455
0.566033 0.147463 0.0727703
0.656703 0.14464 0.0887312
0.754025 0.139681 0.10341
0.860456 0.143297 0.126116
0.953262 0.151705 0.152483
0.997818 0.163668 0.184695
1 0.179644 0.262089
1 0.193454 0.359258
1 0.203387 0.456931
1 0.211276 0.543755
1 0.211978 0.620691
1 0.146166 0.699092
1 0.0131991 0.788128
1 0.0127871 0.885008
1 0.227695 0.938201
1 0.394827 0.974685
1 0.387243 1
1 0.334981 1
1 0.32578 1
1 0.337163 1
1 0.363256 1
1 0.384405 1
1 0.389319 1
0 0.285084 0.000457771
0 0.283436 0.000350958
0 0.280995 0.000228885
0 0.277028 4.57771e-05
0 0.271351 0
0 0.261738 0
0.00138857 0.254398 0
0.0451972 0.234134 0
0.152071 0.207858 0
0.365332 0.193057 0.00587472
0.514839 0.202655 0.0640116
0.664652 0.193103 0.0924544
0.764126 0.181323 0.106004
0.858381 0.167498 0.118395
0.946334 0.159731 0.137545
0.99498 0.162783 0.166155
1 0.17174 0.201831
1 0.187716 0.286305
1 0.199023 0.398245
1 0.206958 0.493004
1 0.214389 0.577798
1 0.197467 0.65745
1 0.0682994 0.742504
1 0.005066 0.841901
1 0.0694591 0.914977
1 0.316747 0.951888
1 0.416953 0.982574
1 0.373526 1
1 0.333318 1
1 0.324086 1
1 0.353597 1
1 0.384405 1
1 0.389319 1
0 0.375891 0.000885023
0 0.374746 0.000335698
0 0.372412 0.000122072
0 0.368978 0
0 0.363409 0
0 0.354696 0
0 0.340139 0
0.00456245 0.331762 0
0.0717479 0.308385 0
0.210605 0.279118 0
0.444419 0.265293 0.00442512
0.602213 0.258656 0.0617685
0.751461 0.250034 0.112535
0.87245 0.227176 0.124193
0.956024 0.201312 0.133165
0.997635 0.177966 0.146563
1 0.175265 0.176761
1 0.180331 0.215152
1 0.192004 0.301228
1 0.201953 0.424796
1 0.209354 0.519768
1 0.213977 0.610086
1 0.152117 0.696483
1 0.0156863 0.789807
1 0.0144045 0.882322
1 0.198337 0.932998
1 0.373465 0.966079
1 0.411475 0.996521
1 0.368475 0.999924
1 0.338933 1
1 0.330724 1
1 0.333272 1
1 0.34226 1
0 0.467597 0.00233463
0 0.467582 0.00233463
0 0.465476 0.00146487
0 0.462486 0.000534066
0 0.457649 3.0518e-05
0 0.449882 0
0 0.437461 0
0 0.421897 0
0.0102083 0.411795 0
0.11696 0.38555 0
0.279637 0.356405 0
0.5196 0.344762 0.00241093
0.697139 0.318166 0.0428473
0.822904 0.320943 0.134478
0.958434 0.281544 0.13901
1 0.242252 0.145876
1 0.201266 0.15555
1 0.186603 0.181552
1 0.186038 0.23064
1 0.194278 0.3178
1 0.203159 0.437949
1 0.211368 0.542519
1 0.20763 0.639628
1 0.0821393 0.733944
1 0.00794995 0.835447
1 0.0581064 0.908186
1 0.273869 0.945602
1 0.425071 0.971984
1 0.398398 0.992065
1 0.367864 1
1 0.345907 1
1 0.329549 1
1 0.325444 1
0 0.560632 0.00306706
0 0.560632 0.00306706
0 0.560098 0.00257877
0 0.557076 0.00158694
0 0.552926 0.000762951
0 0.545968 1.5259e-05
0 0.536233 0
0 0.521202 0
0 0.504417 0
0.0223545 0.49015 0
0.181003 0.461448 0
0.353048 0.434104 0
0.595926 0.424323 0.000335698
0.794034 0.385611 0.0356909
0.898619 0.388525 0.139239
0.994369 0.34638 0.160342
1 0.287953 0.163317
1 0.225254 0.16965
1 0.194171 0.191333
1 0.188617 0.239368
1 0.194003 0.309255
1 0.203296 0.439261
1 0.212863 0.56231
1 0.177966 0.668315
1 0.0474708 0.77052
1 0.0143282 0.863569
1 0.136416 0.922301
1 0.337606 0.953765
1 0.408606 0.982071
1 0.400153 0.998459
1 0.373861 1
1 0.352499 1
1 0.346395 1
0 0.655924 0.00895705
0 0.655909 0.00895705
0 0.655909 0.00895705
0 0.654337 0.00746166
0 0.649958 0.00300603
0 0.644114 0.000106813
0 0.634409 0
0 0.623194 0
0 0.605951 0
0 0.588174 0
0.0527199 0.567712 0
0.259998 0.538262 0.00239567
0.431601 0.511452 0.000762951
0.669474 0.50367 0
0.88014 0.461952 0.0288548
0.963958 0.453773 0.141955
1 0.414237 0.185138
1 0.340749 0.179492
1 0.252094 0.18114
1 0.202518 0.19649
1 0.189822 0.246479
1 0.19292 0.292134
1 0.202945 0.434089
1 0.211749 0.577646
1 0.15256 0.691188
1 0.0176394 0.796262
1 0.0166781 0.887434
1 0.159899 0.930022
1 0.336202 0.956298
1 0.425406 0.976532
1 0.402716 0.991379
1 0.382895 0.99939
1 0.376654 1
0 0.751415 0.0195315
0 0.751415 0.0195315
0 0.7514 0.0195315
0 0.7514 0.0195315
0 0.748302 0.0158541
0 0.742473 0.00984207
0 0.733516 0.00106813
0 0.722225 0
0 0.708721 0
0 0.689967 0
0.00205997 0.671427 0
0.109865 0.644465 0
0.347601 0.61532 0.0242313
0.511009 0.588083 0.00717174
0.742901 0.581445 0
0.943755 0.54081 0.0191348
0.997757 0.513863 0.135454
1 0.479652 0.208759
1 0.402304 0.196368
1 0.298177 0.190295
1 0.21828 0.195941
1 0.192172 0.246586
1 0.191516 0.269505
1 0.201389 0.413123
1 0.214649 0.577417
1 0.13286 0.69894
1 0.0294347 0.806439
1 0.0305486 0.88838
1 0.191257 0.931212
1 0.349493 0.956893
1 0.399832 0.978256
1 0.410101 0.994141
1 0.411551 0.998337
0 0.840482 0.0386206
0 0.840467 0.0386206
0 0.840467 0.0386206
0 0.840467 0.0386053
0 0.840467 0.0386053
0 0.836133 0.0319982
0 0.828809 0.0191348
0 0.817563 0.00354009
0 0.806851 0
0 0.791669 0
0 0.772091 0
0.00999466 0.753307 0
0.199405 0.719295 0
0.440742 0.690639 0.0567941
0.589242 0.663783 0.0147097
0.808347 0.654719 0
0.979644 0.618936 0.0103304
1 0.559747 0.0950332
1 0.530388 0.203952
1 0.467857 0.216449
1 0.379644 0.201953
1 0.27306 0.195117
1 0.207019 0.228
1 0.191897 0.261326
1 0.199344 0.38294
1 0.209842 0.546731
1 0.128191 0.686015
1 0.0071107 0.793973
1 0.0312505 0.881392
1 0.161227 0.925093
1 0.333303 0.948287
1 0.414496 0.967483
1 0.429145 0.972671
0 0.91046 0.0695964
0 0.91046 0.0695964
0 0.91046 0.0695964
0 0.91046 0.0695964
0 0.91046 0.0695811
0 0.910445 0.0695811
0 0.905806 0.0555123
0 0.897948 0.0332036
0 0.888319 0.00576791
0 0.879713 1.5259e-05
0 0.865293 0
0 0.847486 0
0.027039 0.827817 0
0.309316 0.788998 0.000717174
0.524529 0.76376 0.0710155
0.660838 0.735271 0.0137636
0.866346 0.724453 0
1 0.686946 0.00149538
1 0.609003 0.0519875
1 0.572076 0.170428
1 0.527703 0.217365
1 0.467552 0.218006
1 0.372152 0.203754
1 0.264485 0.212619
1 0.19881 0.240604
1 0.196139 0.333822
1 0.205173 0.492638
1 0.208057 0.656382
1 0.0778821 0.770123
1 0.0452277 0.852735
1 0.161013 0.898726
1 0.257603 0.935531
1 0.291341 0.940093
0 0.955261 0.111971
0 0.955261 0.111971
0 0.955261 0.111971
0 0.955261 0.111971
0 0.955261 0.111955
0 0.955245 0.111955
0 0.955245 0.111955
0 0.951247 0.0869764
0 0.944533 0.0489662
0 0.938766 0.00657664
0 0.932662 0.000137331
0 0.920913 0
0 0.908217 0
0.0834669 0.886244 0
0.419333 0.849958 0.00494392
0.601267 0.828412 0.0847028
0.725368 0.800732 0.00968948
0.915129 0.789303 0
1 0.755962 0.000137331
1 0.685969 0.0264744
1 0.616464 0.0964981
1 0.578256 0.167941
1 0.536095 0.207141
1 0.470848 0.218677
1 0.353017 0.211124
1 0.217716 0.212879
1 0.192798 0.24567
1 0.204471 0.396094
1 0.194903 0.550027
1 0.171817 0.695583
1 0.104601 0.786969
1 0.0480964 0.855573
1 0.0325933 0.874327
0 0.978943 0.163775
0 0.978943 0.163775
0 0.978943 0.163775
0 0.978943 0.163775
0 0.978943 0.163775
0 0.978943 0.16376
0 0.978943 0.16376
0 0.978943 0.16376
0 0.976089 0.124743
0 0.972732 0.0686503
0 0.969543 0.0119936
0 0.965621 4.57771e-05
0 0.958144 0
0 0.948745 0
0.210163 0.924971 0
0.525048 0.896788 0.0354314
0.668833 0.878508 0.080827
0.785489 0.855039 0.00062562
0.958587 0.844587 0
1 0.82237 0.000793469
1 0.770687 0.00706493
1 0.701991 0.0489052
1 0.642557 0.0858625
1 0.589426 0.135988
1 0.546944 0.199451
1 0.47541 0.228031
1 0.306523 0.200198
1 0.253315 0.207324
1 0.20679 0.261448
1 0.214115 0.372564
1 0.201175 0.477745
1 0.177966 0.588815
1 0.171786 0.619058
0 0.988922 0.217945
0 0.988922 0.217945
0 0.988922 0.217945
0 0.988922 0.217945
0 0.988922 0.217945
0 0.988922 0.217945
0 0.988922 0.217945
0 0.988922 0.217945
0 0.988922 0.217929
0 0.987488 0.16202
0 0.986297 0.0889296
0 0.985107 0.0159762
0 0.983459 0
0 0.979187 0
0.00149538 0.971679 0
0.365118 0.946807 0
0.623545 0.927779 0.113512
0.728725 0.914199 0.0652781
0.844511 0.896849 0
0.988144 0.886778 0
1 0.87277 0
1 0.848463 0.00575265
1 0.802029 0.0122225
1 0.745495 0.0345922
1 0.675517 0.0594644
1 0.605615 0.102113
1 0.566125 0.184115
1 0.467048 0.197009
1 0.386542 0.205386
1 0.309575 0.201587
1 0.246967 0.205158
1 0.248203 0.263523
1 0.247974 0.277943
0 0.992264 0.270207
0 0.992264 0.270207
0 0.992264 0.270207
0 0.992264 0.270207
0 0.992264 0.270207
0 0.992264 0.270207
0 0.992264 0.270207
0 0.992264 0.270191
0 0.992264 0.270191
0 0.992264 0.270191
0 0.99205 0.195911
0 0.991989 0.104112
0 0.992081 0.0144656
0 0.99144 0
0 0.989273 0
0.106447 0.978775 0
0.513268 0.957458 0.0229496
0.70544 0.945495 0.153704
0.777127 0.936828 0.0113527
0.90193 0.925261 0
0.997406 0.916121 0
1 0.909026 0
1 0.896056 0
1 0.8757 0.00198367
1 0.846571 0.00814832
1 0.795575 0.0195468
1 0.723018 0.0357061
1 0.669505 0.0929122
1 0.596872 0.131426
1 0.538582 0.161501
1 0.503792 0.223255
1 0.449699 0.225254
1 0.434363 0.223163
0 0.994751 0.312688
0 0.994751 0.312688
0 0.994751 0.312688
0 0.994751 0.312688
0 0.994751 0.312688
0 0.994751 0.312688
0 0.994751 0.312688
0 0.994751 0.312688
0 0.994751 0.312688
0 0.994751 0.312688
0 0.994568 0.309453
0 0.993515 0.224445
0 0.994217 0.108217
0 0.994873 0.0100557
0 0.994766 0
0 0.992447 0
0.315099 0.976822 0
0.639353 0.963012 0.0943313
0.757931 0.953521 0.0704356
0.833005 0.950881 0
0.951797 0.941665 0
0.99884 0.934615 0
1 0.932006 0
1 0.924636 0
1 0.913634 0
1 0.898421 0
1 0.875319 0.00318914
1 0.839261 0.00991836
1 0.804639 0.0163729
1 0.745586 0.0357061
1 0.684855 0.0441138
1 0.648081 0.0751965
1 0.64062 0.0887007
0 0.99527 0.355764
0 0.99527 0.355764
0 0.99527 0.355764
0 0.99527 0.355764
0 0.99527 0.355764
0 0.99527 0.355764
0 0.99527 0.355764
0 0.99527 0.355764
0 0.99527 0.355764
0 0.99527 0.355749
0 0.99527 0.355749
0 0.995651 0.339529
0 0.993973 0.24506
0 0.995132 0.0998093
0 0.996033 0.00387579
0 0.995956 0
0.0732586 0.989746 0
0.507515 0.973098 0.0132296
0.734264 0.963897 0.145785
0.794736 0.95964 0
0.892027 0.957595 0
0.983627 0.950408 0
0.999649 0.945556 0
1 0.944045 0
1 0.940429 0
1 0.934874 0
1 0.927291 0
1 0.917082 0
1 0.906218 0
1 0.887816 0.00187686
1 0.874968 0.0019379
1 0.85066 0.00437934
1 0.83772 0.00613413
0 0.994079 0.399023
0 0.994079 0.399023
0 0.994079 0.399023
0 0.994079 0.399023
0 0.994079 0.399023
0 0.994079 0.399023
0 0.994079 0.399023
0 0.994079 0.399023
0 0.994079 0.399023
0 0.994079 0.399023
0 0.994079 0.399023
0 0.994079 0.399023
0 0.99527 0.359503
0 0.994049 0.252567
0 0.995544 0.0756237
0 0.996429 0.000122072
0 0.995178 0
0.309026 0.98172 0
0.663874 0.970275 0.116915
0.782238 0.96257 0.0152743
0.843641 0.962768 0
0.946715 0.959503 0
0.995804 0.954635 0
1 0.951522 0
1 0.950423 0
1 0.948699 0
1 0.946105 0
1 0.942611 0
1 0.939574 0
1 0.934051 0
1 0.929442 0
1 0.924025 0
1 0.921248 0
0 0.992905 0.438392
0 0.992905 0.438392
0 0.992905 0.438392
0 0.992905 0.438392
0 0.992905 0.438376
0 0.992905 0.438376
0 0.992905 0.438376
0 0.992905 0.438376
0 0.992905 0.438376
0 0.992905 0.438376
0 0.992905 0.438376
0 0.992905 0.438376
0 0.992905 0.438376
0 0.994995 0.370275
0 0.994156 0.242817
0 0.99588 0.0412604
0 0.99649 0
0.122271 0.989319 0
0.556588 0.974426 0.0265812
0.763378 0.96527 0.116976
0.820539 0.964034 0
0.901137 0.963287 0
0.982162 0.959442 0
0.999466 0.956481 0
1 0.954467 0
1 0.953643 0
1 0.952773 0
1 0.951629 0
1 0.950622 0
1 0.949035 0
1 0.948028 0
1 0.946258 0
1 0.945266 0
0 0.992157 0.476997
0 0.992157 0.476997
0 0.992157 0.476997
0 0.992157 0.476997
0 0.992157 0.476997
0 0.992157 0.476997
0 0.992157 0.476997
0 0.992157 0.476997
0 0.992157 0.476997
0 0.992157 0.476997
0 0.992157 0.476997
0 0.992157 0.476982
0 0.992157 0.476982
0 0.992157 0.476982
0 0.994888 0.372732
0 0.994415 0.212711
0 0.996155 0.0136416
0.0163119 0.994827 4.57771e-05
0.405615 0.97879 0
0.72578 0.969116 0.194156
0.800916 0.964172 0
0.865415 0.964385 0
0.952865 0.96231 0
0.996612 0.958831 0
1 0.957336 0
1 0.956069 0
1 0.955428 0
1 0.954925 0
1 0.954467 0
1 0.953857 0
1 0.953521 0
1 0.952956 0
1 0.952712 0
0 0.991775 0.512001
0 0.991775 0.512001
0 0.991775 0.512001
0 0.991775 0.512001
0 0.991775 0.512001
0 0.991775 0.512001
0 0.991775 0.512001
0 0.991775 0.512001
0 0.991775 0.512001
0 0.991775 0.512001
0 0.991775 0.512001
0 0.991775 0.511986
0 0.991775 0.511986
0 0.991775 0.511986
0 0.991775 0.511986
0 0.995193 0.362966
0 0.994904 0.155856
0 0.996002 0.0384985
0.194324 0.987305 0.0068513
0.646464 0.973159 0.158816
0.786145 0.963729 0
0.838956 0.96463 0
0.918166 0.96376 0
0.986572 0.960662 0
0.999924 0.958312 0
1 0.957763 0
1 0.95697 0
1 0.956497 0
1 0.956207 0
1 0.955856 0
1 0.955657 0
1 0.955398 0
1 0.955306 0
0 0.991501 0.544182
0 0.991501 0.544182
0 0.991501 0.544182
0 0.991501 0.544182
0 0.991501 0.544182
0 0.991501 0.544182
0 0.991501 0.544182
0 0.991501 0.544182
0 0.991501 0.544182
0 0.991501 0.544182
0 0.991501 0.544182
0 0.991501 0.544182
0 0.991501 0.544182
0 0.991501 0.544182
0 0.991501 0.544167
0 0.991882 0.499306
0 0.995575 0.33019
0 0.99498 0.148653
0.0290227 0.995407 0.087892
0.515419 0.979263 0.0880751
0.769528 0.965896 0.0836805
0.821057 0.96492 0
0.891981 0.964309 0
0.963531 0.962081 0
0.997864 0.959319 0
1 0.958114 0
1 0.957961 0
1 0.957427 0
1 0.957336 0
1 0.957076 0
1 0.956802 0
1 0.956634 0
1 0.956573 0
0 0.991226 0.57438
0 0.991226 0.57438
0 0.991226 0.57438
0 0.991226 0.57438
0 0.991226 0.57438
0 0.991226 0.57438
0 0.991226 0.57438
0 0.991226 0.57438
0 0.991226 0.57438
