Log3G10_RWG_to_ProNeg_Std.cube
TITLE "Generated by Resolve"
LUT_3D_SIZE 5
0.0216831 0.0213779 0.0215305
0.372244 0.0802625 0.0967575
1 0.209537 0.45359
1 0.250568 0.971572
1 0.407767 1
0.0662394 0.282872 0.0428168
0.173953 0.210773 0.00727855
0.944381 0.203601 0.260075
1 0.245991 0.877806
1 0.407767 1
0.218524 0.928313 0.237339
0.214878 0.916716 0.185016
0.742382 0.78613 0.00265507
0.999191 0.368353 0.258549
1 0.285389 0.829587
0.243915 0.968338 0.52987
0.243915 0.968338 0.52987
0.234806 0.965942 0.159075
0.998657 0.948806 0.0150301
1 0.945068 0.00454719
0.251377 0.969451 0.682216
0.251377 0.969451 0.682216
0.251377 0.969451 0.682216
0.941985 0.962707 0.188663
0.999634 0.958434 0.201968
0.0510414 0.126467 0.422217
0.361105 0.102235 0.381613
1 0.21323 0.52108
1 0.250568 0.971572
1 0.407767 1
0.0421454 0.210742 0.214405
0.194003 0.191745 0.212833
0.965316 0.206607 0.286976
1 0.246143 0.883528
1 0.407767 1
0.218418 0.927886 0.236774
0.214786 0.916289 0.185336
0.742901 0.785092 0.00238041
0.999237 0.364675 0.25893
1 0.285328 0.831434
0.243915 0.968338 0.529824
0.243915 0.968338 0.529824
0.234821 0.965942 0.159289
0.998642 0.948806 0.0150149
1 0.945068 0.00454719
0.251377 0.969451 0.682216
0.251377 0.969451 0.682216
0.251377 0.969451 0.682216
0.942061 0.962692 0.188495
0.999634 0.958434 0.201968
0.0947585 0.361791 1
0.361166 0.25034 1
1 0.245441 1
1 0.253056 1
1 0.407767 1
0.0934768 0.356542 1
0.257038 0.293935 1
1 0.24271 1
1 0.25301 1
1 0.407767 1
0.243381 0.85803 0.901228
0.239307 0.840482 0.884672
0.736477 0.747738 0.780102
1 0.279515 0.509468
1 0.284291 0.851865
0.2439 0.968322 0.529229
0.2439 0.968322 0.529229
0.234821 0.965942 0.159808
0.998718 0.948791 0.0151675
1 0.944991 0.00460822
0.251377 0.969451 0.682216
0.251377 0.969451 0.682216
0.251377 0.969451 0.682216
0.941833 0.962737 0.188907
0.999634 0.958434 0.201968
0.129046 0.472969 1
0.127596 0.46865 1
1 0.29691 1
1 0.271183 1
1 0.271183 1
0.128954 0.472694 1
0.128634 0.471733 1
1 0.297108 1
1 0.271183 1
1 0.271183 1
0.155245 0.732418 1
0.155245 0.732341 1
0.775799 0.494743 1
1 0.271183 1
1 0.271183 1
0.297322 0.991241 1
0.297322 0.991241 1
0.293812 0.989563 1
0.988602 0.991226 0.982956
1 0.978897 0.975296
0.225849 0.967102 0.933959
0.225498 0.967056 0.933639
0.221439 0.966384 0.929915
0.923095 0.987686 0.746853
1 0.956313 0.16173
0.173907 0.611444 1
0.173907 0.611444 1
0.955367 0.373938 1
1 0.271183 1
1 0.271183 1
0.173907 0.611444 1
0.173907 0.611444 1
0.954437 0.374762 1
1 0.271183 1
1 0.271183 1
0.173907 0.611444 1
0.173907 0.611444 1
0.940383 0.387213 1
1 0.271183 1
1 0.271183 1
0.295766 0.991897 1
0.295766 0.991897 1
0.293248 0.990509 1
0.98674 0.984817 0.997131
1 0.949813 1
0.301869 0.992874 1
0.301869 0.992874 1
0.301869 0.992874 1
0.940963 0.997894 0.997299
0.997086 0.999573 0.994141
