Log3G10_RWG_to_ACROS.cube
TITLE "Generated by Resolve"
LUT_3D_SIZE 5
0 0 0
0.0493019 0.0493019 0.0493019
0.318685 0.318685 0.318685
0.395514 0.395514 0.395514
0.395514 0.395514 0.395514
0.147875 0.147875 0.147875
0.191135 0.191135 0.191135
0.452384 0.452384 0.452384
0.395514 0.395514 0.395514
0.395514 0.395514 0.395514
0.806973 0.806973 0.806973
0.806912 0.806912 0.806912
0.85771 0.85771 0.85771
0.776638 0.776638 0.776638
0.395514 0.395514 0.395514
0.833982 0.833982 0.833982
0.833982 0.833982 0.833982
0.833982 0.833982 0.833982
0.943481 0.943481 0.943481
0.941405 0.941405 0.941405
0.833982 0.833982 0.833982
0.833982 0.833982 0.833982
0.833982 0.833982 0.833982
0.930632 0.930632 0.930632
0.941405 0.941405 0.941405
0.017731 0.017731 0.017731
0.0749523 0.0749523 0.0749523
0.346853 0.346853 0.346853
0.395514 0.395514 0.395514
0.395514 0.395514 0.395514
0.195575 0.195575 0.195575
0.194873 0.194873 0.194873
0.415824 0.415824 0.415824
0.395514 0.395514 0.395514
0.395514 0.395514 0.395514
0.806043 0.806043 0.806043
0.805951 0.805951 0.805951
0.855924 0.855924 0.855924
0.774136 0.774136 0.774136
0.395514 0.395514 0.395514
0.833982 0.833982 0.833982
0.833982 0.833982 0.833982
0.833982 0.833982 0.833982
0.943481 0.943481 0.943481
0.941405 0.941405 0.941405
0.833982 0.833982 0.833982
0.833982 0.833982 0.833982
0.833982 0.833982 0.833982
0.930602 0.930602 0.930602
0.941405 0.941405 0.941405
0.11635 0.11635 0.11635
0.116091 0.116091 0.116091
0.557641 0.557641 0.557641
0.476707 0.476707 0.476707
0.395514 0.395514 0.395514
0.115129 0.115129 0.115129
0.11487 0.11487 0.11487
0.555917 0.555917 0.555917
0.474083 0.474083 0.474083
0.395514 0.395514 0.395514
0.670054 0.670054 0.670054
0.670054 0.670054 0.670054
0.842786 0.842786 0.842786
0.731456 0.731456 0.731456
0.395514 0.395514 0.395514
0.833982 0.833982 0.833982
0.833982 0.833982 0.833982
0.833982 0.833982 0.833982
0.943404 0.943404 0.943404
0.941405 0.941405 0.941405
0.833982 0.833982 0.833982
0.833982 0.833982 0.833982
0.833982 0.833982 0.833982
0.93022 0.93022 0.93022
0.941405 0.941405 0.941405
0.348241 0.348241 0.348241
0.348196 0.348196 0.348196
0.584222 0.584222 0.584222
0.689479 0.689479 0.689479
0.659693 0.659693 0.659693
0.348104 0.348104 0.348104
0.348074 0.348074 0.348074
0.579431 0.579431 0.579431
0.689403 0.689403 0.689403
0.659556 0.659556 0.659556
0.346593 0.346593 0.346593
0.346563 0.346563 0.346563
0.483543 0.483543 0.483543
0.688441 0.688441 0.688441
0.657877 0.657877 0.657877
0.760739 0.760739 0.760739
0.760739 0.760739 0.760739
0.760739 0.760739 0.760739
0.993896 0.993896 0.993896
0.972061 0.972061 0.972061
0.833982 0.833982 0.833982
0.833982 0.833982 0.833982
0.833982 0.833982 0.833982
0.925597 0.925597 0.925597
0.941405 0.941405 0.941405
0.411139 0.411139 0.411139
0.411139 0.411139 0.411139
0.411139 0.411139 0.411139
0.710933 0.710933 0.710933
0.710933 0.710933 0.710933
0.411139 0.411139 0.411139
0.411139 0.411139 0.411139
0.411139 0.411139 0.411139
0.710933 0.710933 0.710933
0.710933 0.710933 0.710933
0.411139 0.411139 0.411139
0.411139 0.411139 0.411139
0.411139 0.411139 0.411139
0.710933 0.710933 0.710933
0.710933 0.710933 0.710933
0.411139 0.411139 0.411139
0.411139 0.411139 0.411139
0.411139 0.411139 0.411139
0.710933 0.710933 0.710933
0.710933 0.710933 0.710933
0.760739 0.760739 0.760739
0.760739 0.760739 0.760739
0.760739 0.760739 0.760739
0.884153 0.884153 0.884153
1 1 1
