Log3G10_RWG_to_ProNeg_Hi.cube
TITLE "Generated by Resolve"
LUT_3D_SIZE 5
0 0 0
0.370016 0.0707713 0.0627756
1 0.214038 0.451698
1 0.230701 0.983642
1 0.382635 1
0.0597543 0.267552 0.0134432
0.146334 0.180224 0.0011902
0.958556 0.212726 0.226719
1 0.231922 0.895796
1 0.382635 1
0.256977 0.941314 0.20444
0.250248 0.929198 0.144137
0.782177 0.780819 0
1 0.366949 0.217304
1 0.249775 0.851621
0.284993 0.971771 0.546548
0.284993 0.971771 0.546548
0.261387 0.9738 0.121675
1 0.946166 0.0279393
1 0.945068 0.0184024
0.294499 0.971328 0.701091
0.294499 0.971328 0.701091
0.294499 0.971328 0.701091
0.987854 0.958923 0.206088
1 0.955657 0.202579
0.0395819 0.106661 0.439323
0.339849 0.0884413 0.381399
1 0.215824 0.527031
1 0.230701 0.983627
1 0.382635 1
0.0410773 0.179416 0.193866
0.156542 0.152667 0.181369
0.979568 0.216144 0.258289
1 0.231846 0.90161
1 0.382635 1
0.256825 0.940841 0.203754
0.250141 0.928725 0.144488
0.782788 0.779675 0
1 0.363134 0.217914
1 0.249638 0.853437
0.284993 0.971771 0.546502
0.284993 0.971771 0.546502
0.261387 0.9738 0.121874
1 0.946166 0.027924
1 0.945068 0.0184024
0.294499 0.971328 0.701091
0.294499 0.971328 0.701091
0.294499 0.971328 0.701091
0.9879 0.958907 0.20589
1 0.955657 0.202579
0.129198 0.313619 1
0.349187 0.215183 1
1 0.253498 1
1 0.25275 1
1 0.382635 1
0.12694 0.308507 1
0.240894 0.258061 1
0.998611 0.250431 1
1 0.251133 1
1 0.382635 1
0.140612 0.83595 0.887861
0.136431 0.817304 0.870787
0.737346 0.744045 0.7823
1 0.271595 0.51426
1 0.247944 0.873762
0.284947 0.971771 0.545892
0.284947 0.971771 0.545892
0.261433 0.9738 0.122438
1 0.946197 0.0280766
1 0.945037 0.0184482
0.294499 0.971328 0.701091
0.294499 0.971328 0.701091
0.294499 0.971328 0.701091
0.987793 0.958953 0.206409
1 0.955657 0.202579
0.190478 0.443946 1
0.187839 0.438544 1
1 0.302358 1
1 0.286687 1
1 0.286687 1
0.190326 0.44361 1
0.189731 0.442405 1
1 0.302495 1
1 0.286687 1
1 0.286687 1
0.253056 0.729244 1
0.253071 0.729152 1
0.766476 0.465232 1
1 0.286687 1
1 0.286687 1
0.257694 0.970443 1
0.257694 0.970443 1
0.245655 0.970596 1
0.996445 0.99823 0.984558
0.999985 0.987015 0.978988
0 0.951873 0.889494
0 0.951812 0.889113
0 0.951125 0.884672
0.944839 0.988296 0.737987
1 0.953048 0.159045
0.258671 0.609766 1
0.258671 0.609766 1
0.950378 0.343496 1
1 0.286687 1
1 0.286687 1
0.258671 0.609766 1
0.258671 0.609766 1
0.94934 0.343694 1
1 0.286687 1
1 0.286687 1
0.258671 0.609766 1
0.258671 0.609766 1
0.933715 0.346883 1
1 0.286687 1
1 0.286687 1
0.27245 0.970977 1
0.27245 0.970977 1
0.273579 0.970535 1
0.994003 0.991379 0.998245
1 0.953979 1
0.277485 0.969116 1
0.277485 0.969116 1
0.277485 0.969116 1
0.909407 0.996933 0.975494
1 1 0.994629
