Log3G10_RWG_to_ClassicChrome.cube
TITLE "Generated by Resolve"
LUT_3D_SIZE 33
0 0 0
0 0 0
0 0 0
0.00273136 0.000488289 0
0.021622 0.00326543 0.00157168
0.0509041 0.00674449 0.0049897
0.0860609 0.0106661 0.00947585
0.140627 0.014725 0.0139773
0.206622 0.0127718 0.0130159
0.290379 0.00581369 0.0163882
0.373953 0.00425727 0.0212406
0.465507 0 0.0268406
0.590417 0 0.0386358
0.721004 0 0.0602884
0.867903 0 0.0902419
1 0 0.130312
1 0 0.202167
1 0 0.255268
1 0.00337224 0.25034
1 0.0176547 0.245106
1 0.0176547 0.245106
1 0.0176547 0.245106
1 0.0176547 0.245106
1 0.0176547 0.245106
1 0.0176547 0.245106
1 0.0176547 0.245106
1 0.0176547 0.245106
1 0.0176547 0.245106
1 0.0176547 0.245106
1 0.0176547 0.245106
1 0.0176547 0.245106
1 0.0176547 0.245106
1 0.0176547 0.245106
0 0 0
0 0 0
0 0 0
0.00227359 0.000488289 0
0.0186007 0.00216678 0.00187686
0.0478828 0.00598154 0.00419623
0.0840925 0.011017 0.00947585
0.134249 0.0151064 0.0131075
0.203113 0.0125582 0.0140536
0.288762 0.00596628 0.0158999
0.373617 0.00430304 0.0212253
0.465339 0 0.0268406
0.590173 0 0.0385901
0.720806 0 0.0602731
0.867903 0 0.0902419
1 0 0.13022
1 0 0.201999
1 0 0.255207
1 0.00337224 0.25034
1 0.0176547 0.245106
1 0.0176547 0.245106
1 0.0176547 0.245106
1 0.0176547 0.245106
1 0.0176547 0.245106
1 0.0176547 0.245106
1 0.0176547 0.245106
1 0.0176547 0.245106
1 0.0176547 0.245106
1 0.0176547 0.245106
1 0.0176547 0.245106
1 0.0176547 0.245106
1 0.0176547 0.245106
1 0.0176547 0.245106
0 0 0
0 0 0
0 0 0
0.00180056 0.000350958 0
0.0155032 0.00157168 0.0009308
0.043534 0.00502022 0.00415045
0.0796674 0.010605 0.00950637
0.125444 0.0148623 0.0133669
0.194903 0.0129244 0.0141299
0.285267 0.00582895 0.0162051
0.3776 0.00463874 0.0211948
0.479896 0 0.027451
0.589731 0 0.0385138
0.720531 0 0.0601968
0.867658 0 0.0901808
1 0 0.13022
1 0 0.201999
1 0 0.255207
1 0.00335698 0.250355
1 0.0176547 0.245106
1 0.0176547 0.245106
1 0.0176547 0.245106
1 0.0176547 0.245106
1 0.0176547 0.245106
1 0.0176547 0.245106
1 0.0176547 0.245106
1 0.0176547 0.245106
1 0.0176547 0.245106
1 0.0176547 0.245106
1 0.0176547 0.245106
1 0.0176547 0.245106
1 0.0176547 0.245106
1 0.0176547 0.245106
0.000915541 0.00486763 0.00062562
0.000900282 0.00480659 0.000610361
0.000900282 0.00471504 0.000595102
0.000869764 0.00459297 0.000564584
0.0129702 0.00527962 0.00167849
0.0393683 0.00755322 0.00424201
0.077409 0.0119478 0.00764477
0.127916 0.0163424 0.0115816
0.204959 0.01355 0.0137942
0.302541 0.00582895 0.0173648
0.405081 0.00228885 0.0225376
0.521431 0 0.0315709
0.640696 0 0.0465705
0.748898 0 0.0661173
0.867369 0 0.0901503
1 0 0.130159
1 0 0.201816
1 0 0.255207
1 0.00335698 0.250355
1 0.0176547 0.245106
1 0.0176547 0.245106
1 0.0176547 0.245106
1 0.0176547 0.245106
1 0.0176547 0.245106
1 0.0176547 0.245106
1 0.0176547 0.245106
1 0.0176547 0.245106
1 0.0176547 0.245106
1 0.0176547 0.245106
1 0.0176547 0.245106
1 0.0176547 0.245106
1 0.0176547 0.245106
1 0.0176547 0.245106
0.00280766 0.018555 0.00276188
0.00277714 0.0183261 0.00271611
0.0024567 0.0158541 0.00228885
0.0024567 0.0154116 0.00228885
0.0113069 0.017792 0.00309758
0.0387579 0.0209354 0.00517281
0.0811017 0.0249638 0.0101015
0.141131 0.0272984 0.0108949
0.225238 0.0231632 0.00881971
0.327321 0.0196994 0.0148013
0.437354 0.00953689 0.0206912
0.568276 0 0.0330663
0.699397 0 0.0565194
0.834379 0 0.0816815
0.957107 0 0.108644
1 0 0.134249
1 0 0.201816
1 0 0.255253
1 0.00335698 0.250355
1 0.0176547 0.245106
1 0.0176547 0.245106
1 0.0176547 0.245106
1 0.0176547 0.245106
1 0.0176547 0.245106
1 0.0176547 0.245106
1 0.0176547 0.245106
1 0.0176547 0.245106
1 0.0176547 0.245106
1 0.0176547 0.245106
1 0.0176547 0.245106
1 0.0176547 0.245106
1 0.0176547 0.245106
1 0.0176547 0.245106
0.00675975 0.0406806 0.00636301
0.00672923 0.0404974 0.00634775
0.0071107 0.041001 0.00622568
0.007187 0.0408637 0.00614939
0.00975052 0.0414893 0.00595102
0.037583 0.0471962 0.00605783
0.0857252 0.0508888 0.00642405
0.150561 0.0518502 0.0053254
0.235889 0.0521401 0.00526436
0.345006 0.0480354 0.0118563
0.466896 0.0370336 0.0132906
0.606683 0.024918 0.0254215
0.752209 0.0118715 0.0517281
0.914763 0 0.0893416
1 0 0.145449
1 0 0.207752
1 0 0.2374
1 0 0.255238
1 0.00334173 0.250385
1 0.0176547 0.245106
1 0.0176547 0.245106
1 0.0176547 0.245106
1 0.0176547 0.245106
1 0.0176547 0.245106
1 0.0176547 0.245106
1 0.0176547 0.245106
1 0.0176547 0.245106
1 0.0176547 0.245106
1 0.0176547 0.245106
1 0.0176547 0.245106
1 0.0176547 0.245106
1 0.0176547 0.245106
1 0.0176547 0.245106
0.00523384 0.0872053 0.00427253
0.00523384 0.0869612 0.00428778
0.00515755 0.0871138 0.00418097
0.00468452 0.0889601 0.00354009
0.0047303 0.0884565 0.00358587
0.0252537 0.0919051 0.00259403
0.0832837 0.0937514 0.000610361
0.149111 0.0960098 0.000320439
0.237507 0.0964218 0.00277714
0.354971 0.091249 0.00325017
0.478538 0.0803845 0.00715648
0.607828 0.0701305 0.0152132
0.740719 0.0619364 0.0362554
0.888395 0.050309 0.0632181
1 0.0339208 0.116945
1 0.0216678 0.203479
1 0 0.253529
1 0.00164797 0.251179
1 0.00325017 0.250401
1 0.0176547 0.245106
1 0.0176547 0.245106
1 0.0176547 0.245106
1 0.0176547 0.245106
1 0.0176547 0.245106
1 0.0176547 0.245106
1 0.0176547 0.245106
1 0.0176547 0.245106
1 0.0176547 0.245106
1 0.0176547 0.245106
1 0.0176547 0.245106
1 0.0176547 0.245106
1 0.0176547 0.245106
1 0.0176547 0.245106
0 0.148531 0.000518807
0 0.148287 0.000518807
0 0.148928 0.000442512
0 0.154238 0.000320439
0 0.153704 0.000320439
0.00474556 0.153903 0
0.0594339 0.153429 0
0.133242 0.155413 0
0.231678 0.155764 0
0.346532 0.149584 0
0.460853 0.141802 0
0.58999 0.137285 0.00131228
0.717662 0.136584 0.020798
0.850874 0.133043 0.042298
0.99736 0.12192 0.0792248
1 0.118608 0.149172
1 0.101152 0.221561
1 0.0463417 0.237507
1 0.0176547 0.245106
1 0.0176547 0.245106
1 0.0176547 0.245106
1 0.0176547 0.245106
1 0.0176547 0.245106
1 0.0176547 0.245106
1 0.0176547 0.245106
1 0.0176547 0.245106
1 0.0176547 0.245106
1 0.0176547 0.245106
1 0.0176547 0.245106
1 0.0176547 0.245106
1 0.0176547 0.245106
1 0.0176547 0.245106
1 0.0176547 0.245106
0 0.241733 0
0 0.24155 0
0 0.241428 0
0 0.245518 0
0 0.250568 0
0 0.250233 0
0.0160525 0.245472 0
0.105165 0.239811 0
0.206897 0.234104 0
0.324163 0.231876 0
0.445045 0.226291 0
0.570871 0.224598 0
0.694575 0.222156 0.00172427
0.822828 0.218967 0.0213321
0.967803 0.211139 0.050309
1 0.207355 0.110765
1 0.204761 0.183093
1 0.156741 0.203311
1 0.107378 0.219745
1 0.0223392 0.243748
1 0.0176547 0.245106
1 0.0176547 0.245106
1 0.0176547 0.245106
1 0.0176547 0.245106
1 0.0176547 0.245106
1 0.0176547 0.245106
1 0.0176547 0.245106
1 0.0176547 0.245106
1 0.0176547 0.245106
1 0.0176547 0.245106
1 0.0176547 0.245106
1 0.0176547 0.245106
1 0.0176547 0.245106
0 0.368368 0
0 0.368154 0
0 0.367926 0
0 0.37261 0
0 0.382376 0
0 0.37467 0
0 0.359289 0
0.0520943 0.348455 0
0.174594 0.338323 0
0.298329 0.332021 0
0.422873 0.326543 0
0.54934 0.321874 0
0.67303 0.31989 0
0.797482 0.313817 0.00387579
0.938125 0.304845 0.0260471
1 0.297063 0.0856336
1 0.30164 0.159701
1 0.25919 0.170397
1 0.212497 0.181369
1 0.156252 0.203052
1 0.0659953 0.2318
1 0.0176547 0.245106
1 0.0176547 0.245106
1 0.0176547 0.245106
1 0.0176547 0.245106
1 0.0176547 0.245106
1 0.0176547 0.245106
1 0.0176547 0.245106
1 0.0176547 0.245106
1 0.0176547 0.245106
1 0.0176547 0.245106
1 0.0176547 0.245106
1 0.0176547 0.245106
0 0.517342 0
0 0.517342 0
0 0.517143 0
0 0.516915 0
0 0.525734 0
0 0.505211 0
0 0.482399 0
0 0.468467 0
0.112291 0.452186 0
0.26183 0.439887 0
0.396628 0.431327 0
0.52372 0.425452 0
0.650339 0.421073 0
0.773892 0.412894 0
0.911421 0.402625 0.00680552
1 0.393637 0.0575265
1 0.39176 0.127275
1 0.360906 0.161563
1 0.313802 0.152438
1 0.267506 0.159579
1 0.208988 0.185458
1 0.11577 0.216403
1 0.0176547 0.245106
1 0.0176547 0.245106
1 0.0176547 0.245106
1 0.0176547 0.245106
1 0.0176547 0.245106
1 0.0176547 0.245106
1 0.0176547 0.245106
1 0.0176547 0.245106
1 0.0176547 0.245106
1 0.0176547 0.245106
1 0.0176547 0.245106
0 0.659953 0
0 0.659709 0
0 0.659709 0
0 0.659556 0
0 0.658824 0
0 0.63653 0
0 0.609903 0
0 0.590585 0
0.00962844 0.573983 0
0.196674 0.555673 0
0.35552 0.543114 0
0.493294 0.534966 0
0.62446 0.52874 0
0.747005 0.520134 0
0.879011 0.508675 0
1 0.493614 0.0205386
1 0.486732 0.096025
1 0.466087 0.152361
1 0.420829 0.151537
1 0.370199 0.141497
1 0.322957 0.139559
1 0.263752 0.162036
1 0.170672 0.198779
1 0.0176547 0.245106
1 0.0176547 0.245106
1 0.0176547 0.245106
1 0.0176547 0.245106
1 0.0176547 0.245106
1 0.0176547 0.245106
1 0.0176547 0.245106
1 0.0176547 0.245106
1 0.0176547 0.245106
1 0.0176547 0.245106
0 0.763607 0
0 0.763439 0
0 0.763439 0
0 0.763348 0
0 0.763348 0
0 0.758602 0
0 0.730587 0
0 0.707103 0
0 0.691737 0
0.0668345 0.671412 0
0.287572 0.654917 0
0.44715 0.644266 0
0.58793 0.636652 0
0.715816 0.628916 0
0.845075 0.615137 0
0.979873 0.596353 0
1 0.585107 0.0648203
1 0.57467 0.137102
1 0.530907 0.15407
1 0.47892 0.147127
1 0.429801 0.140093
1 0.384527 0.140551
1 0.32079 0.140322
1 0.230549 0.17615
1 0.0581369 0.234485
1 0.0176547 0.245106
1 0.0176547 0.245106
1 0.0176547 0.245106
1 0.0176547 0.245106
1 0.0176547 0.245106
1 0.0176547 0.245106
1 0.0176547 0.245106
1 0.0176547 0.245106
0 0.860914 0
0 0.860807 0
0 0.860807 0
0 0.860807 0
0 0.860655 0
0 0.86041 0
0 0.847456 0
0 0.816159 0
0 0.796002 0
0 0.777798 0
0.150271 0.755108 0
0.366766 0.744076 0
0.532952 0.736156 0
0.672831 0.726802 0
0.802045 0.714473 0
0.942641 0.695613 0
1 0.681605 0.0247807
1 0.675853 0.117174
1 0.639735 0.148348
1 0.590585 0.153979
1 0.534615 0.14902
1 0.497124 0.142504
1 0.449134 0.140658
1 0.38677 0.138918
1 0.296605 0.148028
1 0.146334 0.206271
1 0.0176547 0.245106
1 0.0176547 0.245106
1 0.0176547 0.245106
1 0.0176547 0.245106
1 0.0176547 0.245106
1 0.0176547 0.245106
1 0.0176547 0.245106
0 0.948882 0
0 0.948882 0
0 0.948882 0
0 0.948882 0
0 0.948745 0
0 0.948745 0
0 0.948714 0
0 0.928023 0
0 0.89839 0
0 0.877745 0
0 0.858351 0
0.215518 0.83856 0
0.434226 0.83064 0
0.607156 0.819638 0
0.745373 0.809018 0
0.888777 0.794278 0
1 0.779126 0
1 0.772686 0.0818036
1 0.741619 0.134264
1 0.693141 0.156207
1 0.637263 0.159426
1 0.601038 0.155047
1 0.566079 0.150668
1 0.52166 0.145892
1 0.459968 0.140352
1 0.375753 0.140215
1 0.245518 0.171328
1 0.0176547 0.245106
1 0.0176547 0.245106
1 0.0176547 0.245106
1 0.0176547 0.245106
1 0.0176547 0.245106
1 0.0176547 0.245106
0 1 0
0 1 0
0 1 0
0 1 0
0 1 0
0 1 0
0 1 0
0 1 0
0 0.991684 0
0 0.96698 0
0 0.950713 0
0 0.932052 0
0.274372 0.919432 0
0.497658 0.913756 0
0.66743 0.906905 0
0.81416 0.898085 0
0.964752 0.882887 0
1 0.87039 0.0224002
1 0.842771 0.103548
1 0.79469 0.14728
1 0.739132 0.166644
1 0.690822 0.168032
1 0.66453 0.16173
1 0.633204 0.15845
1 0.593408 0.153109
1 0.539498 0.149508
1 0.463905 0.142504
1 0.355108 0.139055
1 0.175036 0.198199
1 0.0176547 0.245106
1 0.0176547 0.245106
1 0.0176547 0.245106
1 0.0176547 0.245106
0 1 0
0 1 0
0 1 0
0 1 0
0 1 0
0 1 0
0 1 0
0 1 0
0 1 0
0 1 0
0 1 0
0 1 0
0 0.986282 0
0.338079 0.980499 0
0.56376 0.982391 0
0.73431 0.977066 0
0.892805 0.964797 0
1 0.952575 0
1 0.937072 0.0549172
1 0.893156 0.113664
1 0.840391 0.153811
1 0.783307 0.172747
1 0.753826 0.173327
1 0.728099 0.169757
1 0.698695 0.16762
1 0.662608 0.164202
1 0.619257 0.156817
1 0.559243 0.149798
1 0.476081 0.144045
1 0.359396 0.140261
1 0.170382 0.198474
1 0.0176547 0.245106
1 0.0176547 0.245106
0 1 0
0 1 0
0 1 0
0 1 0
0 1 0
0 1 0
0 1 0
0 1 0
0 1 0
0 1 0
0 1 0
0 1 0
0 1 0
0.046067 1 0
0.39913 1 0
0.618845 1 0
0.788983 1 0
0.947753 1 0
1 1 0
1 0.986297 0.0819104
1 0.940063 0.128954
1 0.884611 0.164202
1 0.839002 0.178454
1 0.817487 0.17702
1 0.793072 0.176318
1 0.765164 0.173907
1 0.733394 0.170184
1 0.695232 0.168444
1 0.650294 0.160754
1 0.595315 0.154681
1 0.5252 0.146136
1 0.436576 0.141924
1 0.326467 0.138811
0 1 0
0 1 0
0 1 0
0 1 0
0 1 0
0 1 0
0 1 0
0 1 0
0 1 0
0 1 0
0 1 0
0 1 0
0 1 0
0 1 0
0.216846 1 0
0.47216 1 0
0.667811 1 0
0.839948 1 0
0.990158 1 0
1 1 0.0230869
1 1 0.0953841
1 0.981399 0.147036
1 0.928908 0.173968
1 0.904112 0.176623
1 0.881819 0.174762
1 0.858076 0.177432
1 0.832715 0.175402
1 0.804669 0.178958
1 0.773632 0.17261
1 0.739025 0.172045
1 0.701183 0.167437
1 0.663615 0.162051
1 0.627054 0.157031
0 1 0
0 1 0
0 1 0
0 1 0
0 1 0
0 1 0
0 1 0
0 1 0
0 1 0
0 1 0
0 1 0
0 1 0
0 1 0
0 1 0
0 1 0
0.317693 1 0
0.539422 1 0
0.722545 1 0
0.888014 1 0
1 1 0
1 1 0.0373999
1 1 0.111131
1 1 0.157656
1 0.982116 0.178759
1 0.966094 0.180682
1 0.946319 0.180835
1 0.926116 0.180423
1 0.903853 0.175952
1 0.879805 0.176226
1 0.85333 0.178485
1 0.827527 0.175021
1 0.804715 0.17641
1 0.785214 0.17467
0 1 0
0 1 0
0 1 0
0 1 0
0 1 0
0 1 0
0 1 0
0 1 0
0 1 0
0 1 0
0 1 0
0 1 0
0 1 0
0 1 0
0 1 0
0.169909 1 0
0.405585 1 0
0.600504 1 0
0.773754 1 0.052079
0.929763 1 0.096788
1 1 0.0966659
1 1 0.0678264
1 1 0.119341
1 1 0.159731
1 1 0.164874
1 1 0.171054
1 1 0.17145
1 0.990112 0.175402
1 0.972366 0.178561
1 0.95349 0.180804
1 0.934737 0.180209
1 0.918746 0.178973
1 0.906523 0.176867
0 1 0
0 1 0
0 1 0
0 1 0
0 1 0
0 1 0
0 1 0
0 1 0
0 1 0
0 1 0
0 1 0
0 1 0
0 1 0
0 1 0
0 1 0
0 1 0
0.275471 1 0
0.492561 1 0.0421759
0.667475 1 0.119463
0.819135 1 0.16318
0.968505 1 0.185458
1 1 0.188968
1 1 0.129061
1 1 0.126635
1 1 0.140856
1 1 0.147738
1 1 0.152178
1 1 0.158312
1 1 0.164096
1 1 0.167941
1 1 0.169451
1 1 0.172076
1 1 0.173037
0 1 0
0 1 0
0 1 0
0 1 0
0 1 0
0 1 0
0 1 0
0 1 0
0 1 0
0 1 0
0 1 0
0 1 0
0 1 0
0 1 0
0 1 0
0 1 0
0.085008 1 0
0.375174 1 0
0.582483 1 0.0813458
0.74432 1 0.151751
0.895552 1 0.196109
1 1 0.217365
1 1 0.220935
1 1 0.180331
1 1 0.132799
1 1 0.132494
1 1 0.133379
1 1 0.134676
1 1 0.136751
1 1 0.141176
1 1 0.143862
1 1 0.147021
1 1 0.148852
0 1 0
0 1 0
0 1 0
0 1 0
0 1 0
0 1 0
0 1 0
0 1 0
0 1 0
0 1 0
0 1 0
0 1 0
0 1 0
0 1 0
0 1 0
0 1 0
0 1 0
0.214878 1 0
0.468894 1 0.027985
0.665858 1 0.117449
0.819852 1 0.175158
0.967575 1 0.212619
1 1 0.229572
1 1 0.202152
1 1 0.154238
1 1 0.132723
1 1 0.132723
1 1 0.132723
1 1 0.132723
1 1 0.131594
1 1 0.131197
1 1 0.130831
1 1 0.13051
0 1 0
0 1 0
0 1 0
0 1 0
0 1 0
0 1 0
0 1 0
0 1 0
0 1 0
0 1 0
0 1 0
0 1 0
0 1 0
0 1 0
0 1 0
0 1 0
0 1 0
0 1 0
0.328206 1 0
0.566781 1 0.0739605
0.746929 1 0.152407
0.906355 1 0.197238
1 1 0.219425
1 1 0.218631
1 1 0.177035
1 1 0.134157
1 1 0.132723
1 1 0.132723
1 1 0.132723
1 1 0.132723
1 1 0.132723
1 1 0.132723
1 1 0.132723
0 1 0
0 1 0
0 1 0
0 1 0
0 1 0
0 1 0
0 1 0
0 1 0
0 1 0
0 1 0
0 1 0
0 1 0
0 1 0
0 1 0
0 1 0
0 1 0
0 1 0
0 1 0
0.101213 1 0
0.438422 1 0.023331
0.661753 1 0.114672
0.829236 1 0.179507
0.977905 1 0.213901
1 1 0.226047
1 1 0.193606
1 1 0.146914
1 1 0.132723
1 1 0.132723
1 1 0.132723
1 1 0.132723
1 1 0.132723
1 1 0.132723
1 1 0.132723
0 1 0
0 1 0
0 1 0
0 1 0
0 1 0
0 1 0
0 1 0
0 1 0
0 1 0
0 1 0
0 1 0
0 1 0
0 1 0
0 1 0
0 1 0
0 1 0
0 1 0
0 1 0
0 1 0
0.263523 1 0
0.551415 1 0.0674449
0.751278 1 0.153292
0.918593 1 0.198947
1 1 0.221683
1 1 0.213657
1 1 0.170779
1 1 0.132723
1 1 0.132723
1 1 0.132723
1 1 0.132723
1 1 0.132723
1 1 0.132723
1 1 0.132723
0 1 0
0 1 0
0 1 0
0 1 0
0 1 0
0 1 0
0 1 0
0 1 0
0 1 0
