Log3G10_RWG_to_ClassicNeg.cube
TITLE "Generated by Resolve"
LUT_3D_SIZE 33
0 0 0
0 0 0
0 0 0
0.00556954 0.0009308 0.000259403
0.034165 0.00296025 7.62951e-05
0.0603037 0.00463874 0.000549325
0.0899519 0.00604257 9.15541e-05
0.12575 0.00831617 0.000762951
0.165728 0.00979629 1.5259e-05
0.223056 0.0145266 0.00047303
0.296483 0.0188144 0
0.400534 0.025391 1.5259e-05
0.56054 0.0350347 0.000411994
0.715892 0.0442054 0
0.824598 0.0510414 0.000350958
0.89012 0.0550698 0.00015259
0.934218 0.0555581 0.0147707
0.937209 0.0555581 0.0484016
0.937209 0.0558938 0.0466773
0.937209 0.0558938 0.0466773
0.937209 0.0558938 0.0466773
0.937209 0.0558938 0.0466773
0.937209 0.0558938 0.0466773
0.937209 0.0558938 0.0466773
0.937209 0.0558938 0.0466773
0.937209 0.0558938 0.0466773
0.937209 0.0558938 0.0466773
0.937209 0.0558938 0.0466773
0.937209 0.0558938 0.0466773
0.937209 0.0558938 0.0466773
0.937209 0.0558938 0.0466773
0.937209 0.0558938 0.0466773
0.937209 0.0558938 0.0466773
0 0 0
0 0 0
0 0 0
0.00488289 0.000900282 0.000228885
0.0300298 0.00299077 0.000350958
0.0579385 0.00419623 4.57771e-05
0.088426 0.00585946 4.57771e-05
0.122454 0.00810254 0.000366217
0.162905 0.0109102 0
0.221592 0.0144961 0.000289921
0.296162 0.0187991 0
0.400336 0.0253758 1.5259e-05
0.56025 0.0350195 0.000411994
0.715648 0.0441901 0
0.824598 0.0510414 0.000350958
0.890028 0.0550698 0.00015259
0.934157 0.0555581 0.0147097
0.937209 0.0555581 0.0484016
0.937209 0.0558938 0.0466773
0.937209 0.0558938 0.0466773
0.937209 0.0558938 0.0466773
0.937209 0.0558938 0.0466773
0.937209 0.0558938 0.0466773
0.937209 0.0558938 0.0466773
0.937209 0.0558938 0.0466773
0.937209 0.0558938 0.0466773
0.937209 0.0558938 0.0466773
0.937209 0.0558938 0.0466773
0.937209 0.0558938 0.0466773
0.937209 0.0558938 0.0466773
0.937209 0.0558938 0.0466773
0.937209 0.0558938 0.0466773
0.937209 0.0558938 0.0466773
0 0 0
0 0 0
0 0 0
0.00204471 0.000534066 0
0.0264897 0.00228885 0.0010071
0.0534066 0.00466926 7.62951e-05
0.0834211 0.00561532 1.5259e-05
0.116716 0.00766003 0.000640879
0.157549 0.00987259 0.000793469
0.218738 0.0138399 0.000274662
0.299641 0.0186007 0
0.419135 0.0267491 0
0.55967 0.0349889 0.000411994
0.715419 0.0441749 0
0.824445 0.0510262 0.000350958
0.890028 0.0550698 0.00015259
0.934157 0.0555581 0.0147097
0.937209 0.0555581 0.0484016
0.937209 0.0558938 0.0466773
0.937209 0.0558938 0.0466773
0.937209 0.0558938 0.0466773
0.937209 0.0558938 0.0466773
0.937209 0.0558938 0.0466773
0.937209 0.0558938 0.0466773
0.937209 0.0558938 0.0466773
0.937209 0.0558938 0.0466773
0.937209 0.0558938 0.0466773
0.937209 0.0558938 0.0466773
0.937209 0.0558938 0.0466773
0.937209 0.0558938 0.0466773
0.937209 0.0558938 0.0466773
0.937209 0.0558938 0.0466773
0.937209 0.0558938 0.0466773
0 0.00601205 0.000396735
0 0.0059205 0.000396735
0 0.00579843 0.000381476
0.000137331 0.00546273 0.000366217
0.0172274 0.00517281 0
0.0488746 0.00610361 0.000198367
0.0814069 0.00712596 3.0518e-05
0.118212 0.00880446 0
0.163134 0.0101625 0
0.232212 0.0150759 9.15541e-05
0.331853 0.0209964 0.000244144
0.471656 0.0294957 0.000228885
0.623957 0.0387121 0
0.741711 0.0457465 0
0.824308 0.0510262 0.000350958
0.889921 0.0550546 0.00015259
0.934096 0.0555581 0.0146487
0.937209 0.0555581 0.0484016
0.937209 0.0558938 0.0466773
0.937209 0.0558938 0.0466773
0.937209 0.0558938 0.0466773
0.937209 0.0558938 0.0466773
0.937209 0.0558938 0.0466773
0.937209 0.0558938 0.0466773
0.937209 0.0558938 0.0466773
0.937209 0.0558938 0.0466773
0.937209 0.0558938 0.0466773
0.937209 0.0558938 0.0466773
0.937209 0.0558938 0.0466773
0.937209 0.0558938 0.0466773
0.937209 0.0558938 0.0466773
0.937209 0.0558938 0.0466773
0.937209 0.0558938 0.0466773
0 0.0268864 0.00357061
0 0.026627 0.00354009
0 0.0243381 0.00337224
0 0.0234226 0.00361639
0.00943008 0.0252995 0.00254826
0.0433356 0.0253452 3.0518e-05
0.0797284 0.0252689 4.57771e-05
0.116915 0.0280613 0.00015259
0.172122 0.0259098 0
0.247303 0.0286259 0.000122072
0.363256 0.028809 0.000167849
0.526375 0.0338293 4.57771e-05
0.692851 0.0429694 0
0.803922 0.049897 6.10361e-05
0.862821 0.0522164 0
0.893599 0.0551003 9.15541e-05
0.934096 0.0555581 0.0146487
0.937209 0.0555581 0.0484016
0.937209 0.0558938 0.0466773
0.937209 0.0558938 0.0466773
0.937209 0.0558938 0.0466773
0.937209 0.0558938 0.0466773
0.937209 0.0558938 0.0466773
0.937209 0.0558938 0.0466773
0.937209 0.0558938 0.0466773
0.937209 0.0558938 0.0466773
0.937209 0.0558938 0.0466773
0.937209 0.0558938 0.0466773
0.937209 0.0558938 0.0466773
0.937209 0.0558938 0.0466773
0.937209 0.0558938 0.0466773
0.937209 0.0558938 0.0466773
0.937209 0.0558938 0.0466773
0.000808728 0.0544137 0.00936904
0.000793469 0.0542458 0.00935378
0.00105287 0.0554971 0.00862135
0.00112917 0.0556344 0.00836194
0.00291447 0.0559396 0.0100099
0.033341 0.0580301 0.00657664
0.0723125 0.0587625 0.00373846
0.116182 0.0588388 0.000656138
0.173556 0.0597696 3.0518e-05
0.257542 0.0616159 9.15541e-05
0.38967 0.0624399 0.000442512
0.569955 0.0638132 0
0.744121 0.0618143 0.000289921
0.845182 0.0538186 0.000198367
0.904311 0.0554818 0.000167849
0.933135 0.0563516 0.0196841
0.936324 0.0563516 0.0360723
0.937209 0.0555581 0.0484016
0.937209 0.0558938 0.0466773
0.937209 0.0558938 0.0466773
0.937209 0.0558938 0.0466773
0.937209 0.0558938 0.0466773
0.937209 0.0558938 0.0466773
0.937209 0.0558938 0.0466773
0.937209 0.0558938 0.0466773
0.937209 0.0558938 0.0466773
0.937209 0.0558938 0.0466773
0.937209 0.0558938 0.0466773
0.937209 0.0558938 0.0466773
0.937209 0.0558938 0.0466773
0.937209 0.0558938 0.0466773
0.937209 0.0558938 0.0466773
0.937209 0.0558938 0.0466773
0.00224308 0.0901045 0.0175479
0.00222782 0.0899519 0.0175021
0.00228885 0.0902266 0.0175021
0.00144961 0.0929122 0.0192721
0.00230411 0.0930343 0.0214084
0.0145876 0.0937514 0.0188296
0.0618448 0.095201 0.0154116
0.108461 0.0970779 0.0104219
0.168154 0.0990005 0.00729381
0.25745 0.100694 0.00122072
0.393957 0.105348 0.000106813
0.57084 0.110582 4.57771e-05
0.734081 0.110277 0
0.837461 0.102846 0
0.899519 0.0838483 3.0518e-05
0.935073 0.0579843 0.0226139
0.937209 0.0555581 0.0484016
0.937209 0.0558938 0.0466773
0.937209 0.0558938 0.0466773
0.937209 0.0558938 0.0466773
0.937209 0.0558938 0.0466773
0.937209 0.0558938 0.0466773
0.937209 0.0558938 0.0466773
0.937209 0.0558938 0.0466773
0.937209 0.0558938 0.0466773
0.937209 0.0558938 0.0466773
0.937209 0.0558938 0.0466773
0.937209 0.0558938 0.0466773
0.937209 0.0558938 0.0466773
0.937209 0.0558938 0.0466773
0.937209 0.0558938 0.0466773
0.937209 0.0558938 0.0466773
0.937209 0.0558938 0.0466773
0.00418097 0.134524 0.0317693
0.00418097 0.134356 0.0317235
0.00407416 0.134752 0.0313878
0.00437934 0.138445 0.0335088
0.00437934 0.138109 0.033402
0.00387579 0.138003 0.0349126
0.0390784 0.139208 0.031281
0.0931563 0.141024 0.0247501
0.154025 0.141649 0.0213321
0.24097 0.14229 0.0127413
0.365148 0.146349 0.00122072
0.538354 0.154238 0.00015259
0.710262 0.160464 0.000259403
0.822751 0.159442 7.62951e-05
0.891264 0.151598 0.000228885
0.932555 0.133623 0.0178378
0.937682 0.0892348 0.0473487
0.937209 0.05626 0.0449683
0.937209 0.0558938 0.0466773
0.937209 0.0558938 0.0466773
0.937209 0.0558938 0.0466773
0.937209 0.0558938 0.0466773
0.937209 0.0558938 0.0466773
0.937209 0.0558938 0.0466773
0.937209 0.0558938 0.0466773
0.937209 0.0558938 0.0466773
0.937209 0.0558938 0.0466773
0.937209 0.0558938 0.0466773
0.937209 0.0558938 0.0466773
0.937209 0.0558938 0.0466773
0.937209 0.0558938 0.0466773
0.937209 0.0558938 0.0466773
0.937209 0.0558938 0.0466773
0.00630198 0.195804 0.0520333
0.00628672 0.195682 0.0519875
0.00627146 0.195666 0.0519112
0.00628672 0.199725 0.0512093
0.00665293 0.201755 0.051545
0.00677501 0.202045 0.0514687
0.00921645 0.199908 0.0519875
0.0695354 0.198184 0.0462043
0.132677 0.196567 0.0399176
0.213825 0.197894 0.0322423
0.335164 0.199939 0.0198062
0.505531 0.207553 0.0059205
0.684291 0.213458 4.57771e-05
0.810636 0.217075 0.000259403
0.882948 0.214649 0.00453193
0.930144 0.203586 0.0245365
0.939666 0.177691 0.0534218
0.93901 0.139986 0.0521859
0.937484 0.0966354 0.0484779
0.937209 0.0560006 0.046128
0.937209 0.0558938 0.0466773
0.937209 0.0558938 0.0466773
0.937209 0.0558938 0.0466773
0.937209 0.0558938 0.0466773
0.937209 0.0558938 0.0466773
0.937209 0.0558938 0.0466773
0.937209 0.0558938 0.0466773
0.937209 0.0558938 0.0466773
0.937209 0.0558938 0.0466773
0.937209 0.0558938 0.0466773
0.937209 0.0558938 0.0466773
0.937209 0.0558938 0.0466773
0.937209 0.0558938 0.0466773
0.00944533 0.294255 0.080827
0.00943008 0.294026 0.080766
0.00941482 0.293782 0.080705
0.0090486 0.297673 0.0798199
0.0108034 0.306065 0.0839857
0.0107271 0.299565 0.0822003
0.00924697 0.285176 0.0784772
0.030457 0.275563 0.0748455
0.10663 0.273777 0.0640421
0.184649 0.272084 0.0581216
0.300954 0.272938 0.0476387
0.46981 0.278462 0.0319982
0.657435 0.285435 0.0163272
0.796506 0.290959 0.0138399
0.874235 0.291661 0.0229953
0.924025 0.284657 0.0424048
0.94345 0.267063 0.0730144
0.940948 0.221973 0.0608377
0.939513 0.182849 0.055314
0.939178 0.139239 0.0520027
0.93608 0.0630045 0.0444953
0.937209 0.0558938 0.0466773
0.937209 0.0558938 0.0466773
0.937209 0.0558938 0.0466773
0.937209 0.0558938 0.0466773
0.937209 0.0558938 0.0466773
0.937209 0.0558938 0.0466773
0.937209 0.0558938 0.0466773
0.937209 0.0558938 0.0466773
0.937209 0.0558938 0.0466773
0.937209 0.0558938 0.0466773
0.937209 0.0558938 0.0466773
0.937209 0.0558938 0.0466773
0.016083 0.449897 0.127871
0.016083 0.449897 0.127871
0.0160678 0.449592 0.127764
0.0160525 0.449271 0.127657
0.0160525 0.460472 0.132189
0.0154116 0.435035 0.122316
0.0140383 0.409033 0.115496
0.0141756 0.393622 0.11458
0.0634165 0.382849 0.105638
0.150362 0.377172 0.0944839
0.262898 0.375677 0.0836042
0.428733 0.37847 0.0684215
0.626551 0.386175 0.051194
0.781582 0.389609 0.0442054
0.866453 0.390631 0.0492866
0.918563 0.385672 0.0670634
0.946532 0.372534 0.0940871
0.944656 0.327184 0.0930037
0.94258 0.274372 0.068864
0.941176 0.22652 0.0577249
0.939895 0.178958 0.0544747
0.937926 0.103288 0.0485695
0.937209 0.0558938 0.0466773
0.937209 0.0558938 0.0466773
0.937209 0.0558938 0.0466773
0.937209 0.0558938 0.0466773
0.937209 0.0558938 0.0466773
0.937209 0.0558938 0.0466773
0.937209 0.0558938 0.0466773
0.937209 0.0558938 0.0466773
0.937209 0.0558938 0.0466773
0.937209 0.0558938 0.0466773
0.937209 0.0558938 0.0466773
0.0236362 0.633341 0.193256
0.023621 0.633066 0.193149
0.023621 0.633066 0.193149
0.023621 0.632792 0.193042
0.0235752 0.631952 0.192782
0.0216983 0.602396 0.181216
0.0204776 0.567041 0.168414
0.0191958 0.542214 0.161151
0.0205234 0.523629 0.157977
0.100893 0.51429 0.147021
0.213779 0.507546 0.133288
0.373434 0.506783 0.116503
0.585031 0.509926 0.0959487
0.757961 0.512596 0.0827802
0.855848 0.511284 0.0850843
0.912917 0.505043 0.0971084
0.948592 0.493629 0.121263
0.950225 0.454963 0.132219
0.948318 0.395972 0.112795
0.945403 0.332494 0.0840467
0.942855 0.280507 0.0640116
0.941131 0.223651 0.0571908
0.939452 0.149676 0.0525521
0.937209 0.0558938 0.0466773
0.937209 0.0558938 0.0466773
0.937209 0.0558938 0.0466773
0.937209 0.0558938 0.0466773
0.937209 0.0558938 0.0466773
0.937209 0.0558938 0.0466773
0.937209 0.0558938 0.0466773
0.937209 0.0558938 0.0466773
0.937209 0.0558938 0.0466773
0.937209 0.0558938 0.0466773
0.0284428 0.757534 0.251148
0.0284428 0.757351 0.251057
0.0284428 0.757351 0.251057
0.0284428 0.757168 0.25095
0.0284428 0.757168 0.25095
0.028809 0.751339 0.247532
0.0269169 0.71986 0.2309
0.025452 0.693049 0.218967
0.0250095 0.673014 0.211872
0.0297246 0.656153 0.209232
0.147692 0.647898 0.193698
0.299413 0.642039 0.174609
0.516381 0.642451 0.14995
0.722255 0.644556 0.130388
0.841108 0.640848 0.126787
0.905303 0.633738 0.134691
0.947494 0.621347 0.153124
0.954589 0.592859 0.171862
0.953048 0.533852 0.158877
0.950545 0.466789 0.132448
0.947555 0.406958 0.108354
0.945739 0.34963 0.0877241
0.942351 0.278569 0.0633249
0.940673 0.197345 0.0559396
0.936919 0.0592355 0.0444953
0.937209 0.0558938 0.0466773
0.937209 0.0558938 0.0466773
0.937209 0.0558938 0.0466773
0.937209 0.0558938 0.0466773
0.937209 0.0558938 0.0466773
0.937209 0.0558938 0.0466773
0.937209 0.0558938 0.0466773
0.937209 0.0558938 0.0466773
0.0342718 0.840497 0.308934
0.0342718 0.840375 0.308827
0.0342718 0.840375 0.308827
0.0342718 0.840375 0.308827
0.0342718 0.840269 0.308705
0.0342718 0.840146 0.308598
0.0321355 0.831998 0.300496
0.030808 0.806439 0.282506
0.029572 0.788098 0.270405
0.0294194 0.772137 0.263691
0.0323339 0.758389 0.260334
0.200122 0.754589 0.239628
0.411139 0.754955 0.213016
0.657206 0.757839 0.184985
0.816205 0.756344 0.172961
0.894011 0.748837 0.178851
0.940414 0.738293 0.191226
0.959777 0.719875 0.21326
0.958892 0.672663 0.20763
0.955993 0.609705 0.187366
0.953017 0.539788 0.158267
0.951659 0.490425 0.140032
0.949783 0.429618 0.116808
0.945525 0.351598 0.0880293
0.942229 0.254856 0.059556
0.938598 0.130938 0.0513161
0.937209 0.0558938 0.0466773
0.937209 0.0558938 0.0466773
0.937209 0.0558938 0.0466773
0.937209 0.0558938 0.0466773
0.937209 0.0558938 0.0466773
0.937209 0.0558938 0.0466773
0.937209 0.0558938 0.0466773
0.0376745 0.90016 0.370962
0.0376745 0.90016 0.370962
0.0376745 0.90016 0.370962
0.0376745 0.90016 0.370962
0.0376593 0.900084 0.37084
0.0376593 0.900084 0.37084
0.0376593 0.900008 0.370718
0.0357366 0.887587 0.355993
0.0354467 0.867796 0.335348
0.0338293 0.852934 0.322225
0.0327459 0.840558 0.315984
0.0627604 0.83064 0.308659
0.260029 0.832364 0.283528
0.530495 0.837552 0.250584
0.762203 0.84181 0.22649
0.871778 0.836942 0.224033
0.928923 0.829007 0.232074
0.962417 0.816907 0.251926
0.963592 0.784268 0.255726
0.962066 0.736248 0.242802
0.958465 0.673335 0.215198
0.957153 0.627741 0.1953
0.955016 0.581353 0.175204
0.952285 0.522286 0.151888
0.949523 0.444282 0.121004
0.945068 0.338643 0.0834516
0.940887 0.207065 0.0569467
0.937209 0.0558938 0.0466773
0.937209 0.0558938 0.0466773
0.937209 0.0558938 0.0466773
0.937209 0.0558938 0.0466773
0.937209 0.0558938 0.0466773
0.937209 0.0558938 0.0466773
0.0406806 0.936904 0.433143
0.0406806 0.936904 0.433143
0.0406806 0.936904 0.433143
0.0406806 0.936904 0.433143
0.0406806 0.936858 0.433051
0.0406806 0.936858 0.433051
0.0406653 0.936812 0.432959
0.0406653 0.936812 0.432959
0.0398413 0.926253 0.412177
0.0382849 0.911849 0.390265
0.0370336 0.901427 0.378729
0.0372778 0.891188 0.372274
0.0911879 0.884703 0.360952
0.332479 0.890776 0.331182
0.640558 0.900252 0.293202
0.830396 0.90251 0.276692
0.909789 0.8963 0.276844
0.95491 0.885252 0.288487
0.967056 0.864973 0.297581
0.966339 0.82974 0.291157
0.964248 0.784985 0.273762
0.962158 0.737591 0.250156
0.960693 0.708888 0.233341
0.959319 0.669139 0.214893
0.956558 0.617456 0.189929
0.95346 0.546197 0.159838
0.949935 0.450019 0.123903
0.943709 0.316548 0.076463
0.939132 0.151614 0.0532235
0.937209 0.0558938 0.0466773
0.937209 0.0558938 0.0466773
0.937209 0.0558938 0.0466773
0.937209 0.0558938 0.0466773
0.0433814 0.943771 0.508812
0.0433814 0.943771 0.508812
0.0433814 0.943771 0.508812
0.0433814 0.943771 0.508812
0.0433814 0.943771 0.508812
0.0433814 0.943771 0.508659
0.0433814 0.943771 0.508659
0.0433814 0.943771 0.508507
0.0433814 0.943771 0.508507
0.0410773 0.94316 0.465003
0.0404822 0.93901 0.438697
0.0395209 0.932952 0.429862
0.0398566 0.925536 0.424338
0.112032 0.923049 0.413138
0.404303 0.932601 0.374517
0.724361 0.942779 0.335729
0.869337 0.941527 0.322133
0.932967 0.933364 0.325658
0.967224 0.920714 0.332952
0.969451 0.8963 0.333791
0.967849 0.863859 0.324559
0.966628 0.824491 0.304204
0.964889 0.799939 0.287602
0.963943 0.776822 0.272511
0.962692 0.747143 0.254063
0.961425 0.706523 0.233997
0.957122 0.651469 0.205509
0.955032 0.572625 0.171237
0.950271 0.464897 0.129427
0.944884 0.320806 0.0772717
0.939544 0.149371 0.052491
0.937209 0.0558938 0.0466773
0.937209 0.0558938 0.0466773
0.0458076 0.942412 0.578515
0.0458076 0.942412 0.578515
0.0458076 0.942412 0.578515
0.0458076 0.942412 0.578515
0.0458076 0.942412 0.578515
0.0458076 0.942412 0.578515
0.0458076 0.942412 0.578408
0.0458076 0.942412 0.578408
0.0457923 0.942412 0.578302
0.0457771 0.942412 0.578195
0.0449378 0.942489 0.53518
0.0431983 0.943282 0.506477
0.0426947 0.943114 0.489891
0.0418402 0.941527 0.475807
0.138018 0.944961 0.453529
0.474327 0.959411 0.409094
0.778027 0.969284 0.37171
0.894682 0.967315 0.362325
0.948257 0.959762 0.365393
0.967086 0.944656 0.370275
0.969757 0.920546 0.368414
0.969787 0.89099 0.356374
0.968505 0.862455 0.337911
0.968109 0.8486 0.325826
0.967254 0.8309 0.311467
0.965789 0.809369 0.295262
0.964401 0.781201 0.274662
0.962371 0.742367 0.253071
0.959915 0.691035 0.22417
0.95668 0.620218 0.19292
0.952529 0.527199 0.153735
0.94847 0.41474 0.11078
0.943969 0.285252 0.0649271
0.0481575 0.942885 0.627207
0.0481575 0.942885 0.627207
0.0481575 0.942885 0.627207
0.0481575 0.942885 0.627207
0.0481575 0.942885 0.627207
0.0481575 0.942885 0.627207
0.0481575 0.942885 0.627207
0.0481575 0.942885 0.627115
0.0481575 0.942885 0.627115
0.0481575 0.94287 0.627039
0.0481575 0.94287 0.627039
0.0461128 0.94258 0.58761
0.0457923 0.942565 0.566033
0.0449683 0.942824 0.548577
0.0454566 0.942 0.53431
0.23389 0.95433 0.49807
0.566049 0.973068 0.442847
0.81445 0.986099 0.405722
0.912032 0.986084 0.39707
0.958129 0.978454 0.399634
0.965164 0.961334 0.400549
0.96907 0.939574 0.397131
0.970657 0.912978 0.3832
0.971069 0.898726 0.371756
0.971023 0.887434 0.360815
0.968872 0.874922 0.348623
0.969238 0.858747 0.335042
0.96791 0.839887 0.318441
0.965179 0.81706 0.299016
0.964614 0.786801 0.279393
0.962554 0.749523 0.256062
0.960845 0.707271 0.233692
0.958862 0.660624 0.211048
0.0481727 0.942946 0.629267
0.0481727 0.942946 0.629267
0.0481727 0.942946 0.629267
0.0481727 0.942946 0.629267
0.0481727 0.942946 0.629267
0.0481727 0.942946 0.629267
0.0481727 0.942946 0.629267
0.0481727 0.942946 0.629267
0.0481727 0.942946 0.629267
0.0481727 0.942946 0.629267
0.0481727 0.942946 0.629267
0.0481727 0.942946 0.629267
0.0481727 0.942946 0.629267
0.047013 0.941711 0.604822
0.0461128 0.94255 0.59266
0.0907454 0.945342 0.574273
0.340169 0.959823 0.531182
0.662348 0.977874 0.480201
0.849256 0.989136 0.447211
0.925246 0.993088 0.43183
0.956374 0.989136 0.424842
0.963684 0.974777 0.427192
0.966949 0.953628 0.420142
0.969543 0.937591 0.408927
0.970031 0.929519 0.401251
0.970947 0.920348 0.391546
0.97145 0.910521 0.383154
0.971832 0.899001 0.371817
0.968887 0.886336 0.359701
0.968856 0.871702 0.3458
0.968719 0.85481 0.33106
0.967803 0.838911 0.317998
0.966918 0.82504 0.306508
0.0481727 0.942946 0.629267
0.0481727 0.942946 0.629267
0.0481727 0.942946 0.629267
0.0481727 0.942946 0.629267
0.0481727 0.942946 0.629267
0.0481727 0.942946 0.629267
0.0481727 0.942946 0.629267
0.0481727 0.942946 0.629267
0.0481727 0.942946 0.629267
0.0481727 0.942946 0.629267
0.0481727 0.942946 0.629267
0.0481727 0.942946 0.629267
0.0481727 0.942946 0.629267
0.0481727 0.942809 0.629908
0.0481727 0.942153 0.633295
0.0473182 0.942077 0.628397
0.184573 0.950744 0.602289
0.437415 0.965103 0.558038
0.72958 0.982895 0.512032
0.87248 0.990555 0.485451
0.936034 0.992798 0.469657
0.956756 0.994156 0.446906
0.960708 0.985397 0.449454
0.965484 0.969635 0.440024
0.966598 0.962036 0.434028
0.967956 0.9552 0.426307
0.968872 0.948592 0.420157
0.969329 0.941085 0.411978
0.969619 0.932723 0.403342
0.971496 0.923796 0.395453
0.971954 0.914504 0.386786
0.97174 0.906783 0.378408
0.971603 0.900465 0.372122
0.0481727 0.942946 0.629267
0.0481727 0.942946 0.629267
0.0481727 0.942946 0.629267
0.0481727 0.942946 0.629267
0.0481727 0.942946 0.629267
0.0481727 0.942946 0.629267
0.0481727 0.942946 0.629267
0.0481727 0.942946 0.629267
0.0481727 0.942946 0.629267
0.0481727 0.942946 0.629267
0.0481727 0.942946 0.629267
0.0481727 0.942946 0.629267
0.0481727 0.942946 0.629267
0.0481727 0.942946 0.629267
0.0481727 0.942611 0.630991
0.0481727 0.942031 0.633921
0.0790265 0.943709 0.631632
0.276661 0.956222 0.608179
0.552377 0.972015 0.573663
0.785824 0.985656 0.540429
0.892958 0.991485 0.519936
0.945129 0.993286 0.50695
0.957794 0.99379 0.472938
0.957656 0.989654 0.461112
0.959701 0.984924 0.459602
0.962493 0.982025 0.455802
0.963134 0.976501 0.448493
0.964248 0.972061 0.444251
0.966247 0.966217 0.438422
0.966445 0.961791 0.433677
0.96762 0.955657 0.427329
0.968017 0.950927 0.423651
0.968307 0.947478 0.420554
0.0481727 0.942946 0.629267
0.0481727 0.942946 0.629267
0.0481727 0.942946 0.629267
0.0481727 0.942946 0.629267
0.0481727 0.942946 0.629267
0.0481727 0.942946 0.629267
0.0481727 0.942946 0.629267
0.0481727 0.942946 0.629267
0.0481727 0.942946 0.629267
0.0481727 0.942946 0.629267
0.0481727 0.942946 0.629267
0.0481727 0.942946 0.629267
0.0481727 0.942946 0.629267
0.0481727 0.942946 0.629267
0.0481727 0.942946 0.629267
0.0481727 0.942489 0.631571
0.0481727 0.941939 0.634455
0.160128 0.94873 0.620661
0.400473 0.962264 0.591928
0.686641 0.980697 0.556405
0.848463 0.988357 0.538994
0.919631 0.991867 0.53106
0.954406 0.993179 0.520348
0.958206 0.99411 0.496513
0.959289 0.993271 0.472007
0.95848 0.992447 0.468864
0.958465 0.990616 0.464149
0.958282 0.989319 0.462882
0.959533 0.988052 0.461006
0.960174 0.985519 0.459709
0.961868 0.982605 0.455985
0.961929 0.979858 0.452537
0.962417 0.97818 0.450767
0.0481727 0.942946 0.629267
0.0481727 0.942946 0.629267
0.0481727 0.942946 0.629267
0.0481727 0.942946 0.629267
0.0481727 0.942946 0.629267
0.0481727 0.942946 0.629267
0.0481727 0.942946 0.629267
0.0481727 0.942946 0.629267
0.0481727 0.942946 0.629267
0.0481727 0.942946 0.629267
0.0481727 0.942946 0.629267
0.0481727 0.942946 0.629267
0.0481727 0.942946 0.629267
0.0481727 0.942946 0.629267
0.0481727 0.942946 0.629267
0.0481727 0.942946 0.629267
0.0481727 0.942275 0.632731
0.051545 0.942046 0.634577
0.252705 0.95407 0.610315
0.54815 0.97174 0.573785
0.788891 0.985458 0.545892
0.892409 0.990738 0.533181
0.944625 0.993561 0.531365
0.959274 0.993439 0.508141
0.957702 0.994079 0.48191
0.957076 0.992798 0.472938
0.957076 0.992798 0.472938
0.957427 0.992844 0.472724
0.957473 0.992691 0.472435
0.958175 0.992645 0.470863
0.958541 0.992416 0.46952
0.958434 0.991745 0.467002
0.958251 0.99144 0.466087
0.0481727 0.942946 0.629267
0.0481727 0.942946 0.629267
0.0481727 0.942946 0.629267
0.0481727 0.942946 0.629267
0.0481727 0.942946 0.629267
0.0481727 0.942946 0.629267
0.0481727 0.942946 0.629267
0.0481727 0.942946 0.629267
0.0481727 0.942946 0.629267
0.0481727 0.942946 0.629267
0.0481727 0.942946 0.629267
0.0481727 0.942946 0.629267
0.0481727 0.942946 0.629267
0.0481727 0.942946 0.629267
0.0481727 0.942946 0.629267
0.0481727 0.942946 0.629267
0.0481727 0.942946 0.629267
0.0481727 0.942031 0.633967
0.118486 0.945815 0.626444
0.379599 0.961349 0.594934
0.688289 0.979873 0.556695
0.855726 0.989136 0.537575
0.923659 0.992523 0.530251
0.957778 0.994507 0.519738
0.957351 0.994171 0.49305
0.957321 0.993194 0.474159
0.957076 0.992798 0.472938
0.957076 0.992798 0.472938
0.957076 0.992798 0.472938
0.957076 0.992798 0.472938
0.957076 0.992798 0.472938
0.957076 0.992798 0.472938
0.957076 0.992798 0.472938
0.0481727 0.942946 0.629267
0.0481727 0.942946 0.629267
0.0481727 0.942946 0.629267
0.0481727 0.942946 0.629267
0.0481727 0.942946 0.629267
0.0481727 0.942946 0.629267
0.0481727 0.942946 0.629267
0.0481727 0.942946 0.629267
0.0481727 0.942946 0.629267
0.0481727 0.942946 0.629267
0.0481727 0.942946 0.629267
0.0481727 0.942946 0.629267
0.0481727 0.942946 0.629267
0.0481727 0.942946 0.629267
0.0481727 0.942946 0.629267
0.0481727 0.942946 0.629267
0.0481727 0.942946 0.629267
0.0481727 0.942748 0.630289
0.0481727 0.941939 0.634455
0.220386 0.95198 0.612436
0.537408 0.971115 0.574929
0.795071 0.986084 0.546197
0.899489 0.991287 0.532601
0.945525 0.99411 0.528008
0.958022 0.993881 0.504433
0.958022 0.993698 0.480568
0.957076 0.992798 0.472938
0.957076 0.992798 0.472938
0.957076 0.992798 0.472938
0.957076 0.992798 0.472938
0.957076 0.992798 0.472938
0.957076 0.992798 0.472938
0.957076 0.992798 0.472938
0.0481727 0.942946 0.629267
0.0481727 0.942946 0.629267
0.0481727 0.942946 0.629267
0.0481727 0.942946 0.629267
0.0481727 0.942946 0.629267
