Log3G10_RWG_to_WDR.cube
TITLE "Generated by Resolve"
LUT_3D_SIZE 33
0 0 0
0 0 0
0 0 0
0.012253 0.00146487 0.00146487
0.0561379 0.00671397 0.00671397
0.109194 0.0130617 0.0130617
0.159518 0.019089 0.019089
0.214099 0.0256199 0.0256199
0.272343 0.0325933 0.0325933
0.337835 0.0400702 0.0400702
0.41619 0.0466011 0.0466011
0.499489 0.0525521 0.0525521
0.577585 0.0572518 0.0572518
0.65005 0.0608988 0.0608988
0.716915 0.0637064 0.0637064
0.778241 0.0658274 0.0658274
0.83415 0.0674144 0.0674144
0.84152 0.0675975 0.0675975
0.84152 0.0675975 0.0675975
0.84152 0.0675975 0.0675975
0.84152 0.0675975 0.0675975
0.84152 0.0675975 0.0675975
0.84152 0.0675975 0.0675975
0.84152 0.0675975 0.0675975
0.84152 0.0675975 0.0675975
0.84152 0.0675975 0.0675975
0.84152 0.0675975 0.0675975
0.84152 0.0675975 0.0675975
0.84152 0.0675975 0.0675975
0.84152 0.0675975 0.0675975
0.84152 0.0675975 0.0675975
0.84152 0.0675975 0.0675975
0.84152 0.0675975 0.0675975
0 0 0
0 0 0
0 0 0
0.0107729 0.00129702 0.00129702
0.0547036 0.00654612 0.00654612
0.108232 0.0129549 0.0129549
0.158846 0.0190127 0.0190127
0.213565 0.0255589 0.0255589
0.271809 0.032517 0.032517
0.337469 0.0400397 0.0400397
0.4159 0.0465858 0.0465858
0.499336 0.0525368 0.0525368
0.577462 0.0572366 0.0572366
0.649927 0.0608835 0.0608835
0.716915 0.0637064 0.0637064
0.778134 0.0658274 0.0658274
0.834058 0.0674144 0.0674144
0.84152 0.0675975 0.0675975
0.84152 0.0675975 0.0675975
0.84152 0.0675975 0.0675975
0.84152 0.0675975 0.0675975
0.84152 0.0675975 0.0675975
0.84152 0.0675975 0.0675975
0.84152 0.0675975 0.0675975
0.84152 0.0675975 0.0675975
0.84152 0.0675975 0.0675975
0.84152 0.0675975 0.0675975
0.84152 0.0675975 0.0675975
0.84152 0.0675975 0.0675975
0.84152 0.0675975 0.0675975
0.84152 0.0675975 0.0675975
0.84152 0.0675975 0.0675975
0.84152 0.0675975 0.0675975
0 0 0
0 0 0
0 0 0
0.00903334 0.00108339 0.00108339
0.0530098 0.00634775 0.00634775
0.106966 0.0128023 0.0128023
0.157839 0.0188907 0.0188907
0.212757 0.025452 0.025452
0.27129 0.0324559 0.0324559
0.336965 0.0399939 0.0399939
0.415457 0.04654 0.04654
0.499046 0.0525216 0.0525216
0.577203 0.0572213 0.0572213
0.649805 0.0608835 0.0608835
0.716793 0.0637064 0.0637064
0.778134 0.0658274 0.0658274
0.834058 0.0674144 0.0674144
0.84152 0.0675975 0.0675975
0.84152 0.0675975 0.0675975
0.84152 0.0675975 0.0675975
0.84152 0.0675975 0.0675975
0.84152 0.0675975 0.0675975
0.84152 0.0675975 0.0675975
0.84152 0.0675975 0.0675975
0.84152 0.0675975 0.0675975
0.84152 0.0675975 0.0675975
0.84152 0.0675975 0.0675975
0.84152 0.0675975 0.0675975
0.84152 0.0675975 0.0675975
0.84152 0.0675975 0.0675975
0.84152 0.0675975 0.0675975
0.84152 0.0675975 0.0675975
0.84152 0.0675975 0.0675975
0.00328069 0.0155642 0.00328069
0.00321965 0.0152895 0.00321965
0.0031281 0.0148623 0.0031281
0.00531014 0.014023 0.00317388
0.0464942 0.0145571 0.00727855
0.10161 0.0158236 0.0128481
0.15378 0.0188754 0.0184939
0.210025 0.0251316 0.0251316
0.269444 0.0322423 0.0322423
0.335958 0.0399023 0.0399023
0.414878 0.0464942 0.0464942
0.498619 0.052491 0.052491
0.576928 0.0572061 0.0572061
0.649561 0.0608682 0.0608682
0.716686 0.0636912 0.0636912
0.778027 0.0658274 0.0658274
0.833967 0.0674144 0.0674144
0.84152 0.0675975 0.0675975
0.84152 0.0675975 0.0675975
0.84152 0.0675975 0.0675975
0.84152 0.0675975 0.0675975
0.84152 0.0675975 0.0675975
0.84152 0.0675975 0.0675975
0.84152 0.0675975 0.0675975
0.84152 0.0675975 0.0675975
0.84152 0.0675975 0.0675975
0.84152 0.0675975 0.0675975
0.84152 0.0675975 0.0675975
0.84152 0.0675975 0.0675975
0.84152 0.0675975 0.0675975
0.84152 0.0675975 0.0675975
0.84152 0.0675975 0.0675975
0.84152 0.0675975 0.0675975
0.0108949 0.0517433 0.0108949
0.0108492 0.0514839 0.0108492
0.0107576 0.0511025 0.0107576
0.010605 0.0503395 0.010605
0.0341344 0.0487984 0.0125887
0.0928664 0.049836 0.0184787
0.148653 0.0484321 0.023621
0.205325 0.0436255 0.0281987
0.263264 0.0349584 0.0321508
0.330236 0.039292 0.039292
0.410315 0.0461433 0.0461433
0.495476 0.0522774 0.0522774
0.575189 0.0571145 0.0571145
0.649165 0.060853 0.060853
0.716457 0.0636912 0.0636912
0.77792 0.0658274 0.0658274
0.833967 0.0674144 0.0674144
0.84152 0.0675975 0.0675975
0.84152 0.0675975 0.0675975
0.84152 0.0675975 0.0675975
0.84152 0.0675975 0.0675975
0.84152 0.0675975 0.0675975
0.84152 0.0675975 0.0675975
0.84152 0.0675975 0.0675975
0.84152 0.0675975 0.0675975
0.84152 0.0675975 0.0675975
0.84152 0.0675975 0.0675975
0.84152 0.0675975 0.0675975
0.84152 0.0675975 0.0675975
0.84152 0.0675975 0.0675975
0.84152 0.0675975 0.0675975
0.84152 0.0675975 0.0675975
0.84152 0.0675975 0.0675975
0.0209049 0.0992447 0.0209049
0.0208591 0.0990463 0.0208591
0.0207828 0.0986954 0.0207828
0.0207065 0.0982834 0.0207065
0.022034 0.0948959 0.0201877
0.0770123 0.0962539 0.0257725
0.141939 0.0967575 0.0321508
0.203433 0.0928359 0.0373236
0.264866 0.0842451 0.0411383
0.331334 0.0696727 0.0438849
0.405158 0.0510719 0.0464485
0.489815 0.0518959 0.0518959
0.570397 0.0568551 0.0568551
0.644953 0.0606546 0.0606546
0.713909 0.0635843 0.0635843
0.777264 0.0657969 0.0657969
0.833768 0.0673991 0.0673991
0.84152 0.0675975 0.0675975
0.84152 0.0675975 0.0675975
0.84152 0.0675975 0.0675975
0.84152 0.0675975 0.0675975
0.84152 0.0675975 0.0675975
0.84152 0.0675975 0.0675975
0.84152 0.0675975 0.0675975
0.84152 0.0675975 0.0675975
0.84152 0.0675975 0.0675975
0.84152 0.0675975 0.0675975
0.84152 0.0675975 0.0675975
0.84152 0.0675975 0.0675975
0.84152 0.0675975 0.0675975
0.84152 0.0675975 0.0675975
0.84152 0.0675975 0.0675975
0.84152 0.0675975 0.0675975
0.0313878 0.148989 0.0313878
0.0313268 0.14876 0.0313268
0.031281 0.148516 0.031281
0.03122 0.148196 0.03122
0.0307164 0.14583 0.0307164
0.0486305 0.144137 0.0321202
0.125719 0.148074 0.0400244
0.197345 0.148669 0.0453498
0.265873 0.144686 0.0493477
0.337957 0.134615 0.052491
0.415351 0.114275 0.0545815
0.492393 0.0824292 0.0553902
0.563638 0.0564736 0.0564736
0.639094 0.0603799 0.0603799
0.708614 0.063386 0.063386
0.772412 0.0656443 0.0656443
0.831128 0.0673381 0.0673381
0.84152 0.0675975 0.0675975
0.84152 0.0675975 0.0675975
0.84152 0.0675975 0.0675975
0.84152 0.0675975 0.0675975
0.84152 0.0675975 0.0675975
0.84152 0.0675975 0.0675975
0.84152 0.0675975 0.0675975
0.84152 0.0675975 0.0675975
0.84152 0.0675975 0.0675975
0.84152 0.0675975 0.0675975
0.84152 0.0675975 0.0675975
0.84152 0.0675975 0.0675975
0.84152 0.0675975 0.0675975
0.84152 0.0675975 0.0675975
0.84152 0.0675975 0.0675975
0.84152 0.0675975 0.0675975
0.0415198 0.200793 0.0415198
0.0414893 0.20061 0.0414893
0.0414588 0.200412 0.0414588
0.041413 0.200122 0.041413
0.0411841 0.198627 0.0411841
0.0406806 0.195438 0.0406806
0.0886397 0.197513 0.0444495
0.179232 0.202487 0.0509957
0.257359 0.202274 0.0554055
0.336828 0.197452 0.0588846
0.421469 0.186206 0.0616159
0.507073 0.166354 0.063386
0.581277 0.13611 0.0638743
0.643046 0.0938888 0.0631266
0.701183 0.0630961 0.0630961
0.765667 0.0654307 0.0654307
0.824918 0.0671702 0.0671702
0.84152 0.0675975 0.0675975
0.84152 0.0675975 0.0675975
0.84152 0.0675975 0.0675975
0.84152 0.0675975 0.0675975
0.84152 0.0675975 0.0675975
0.84152 0.0675975 0.0675975
0.84152 0.0675975 0.0675975
0.84152 0.0675975 0.0675975
0.84152 0.0675975 0.0675975
0.84152 0.0675975 0.0675975
0.84152 0.0675975 0.0675975
0.84152 0.0675975 0.0675975
0.84152 0.0675975 0.0675975
0.84152 0.0675975 0.0675975
0.84152 0.0675975 0.0675975
0.84152 0.0675975 0.0675975
0.0500038 0.260044 0.0500038
0.0499886 0.259953 0.0499886
0.0499733 0.259846 0.0499733
0.0499428 0.259541 0.0499428
0.049836 0.258762 0.049836
0.0495003 0.25626 0.0495003
0.049958 0.252842 0.0491188
0.136965 0.259098 0.0549325
0.235004 0.263249 0.0601053
0.324926 0.262455 0.0636301
0.417563 0.25626 0.0661784
0.510948 0.244022 0.0679026
0.593927 0.225971 0.068864
0.666285 0.201144 0.069276
0.727337 0.165866 0.0690471
0.774914 0.114137 0.0680705
0.8177 0.070634 0.0671702
0.84152 0.0675975 0.0675975
0.84152 0.0675975 0.0675975
0.84152 0.0675975 0.0675975
0.84152 0.0675975 0.0675975
0.84152 0.0675975 0.0675975
0.84152 0.0675975 0.0675975
0.84152 0.0675975 0.0675975
0.84152 0.0675975 0.0675975
0.84152 0.0675975 0.0675975
0.84152 0.0675975 0.0675975
0.84152 0.0675975 0.0675975
0.84152 0.0675975 0.0675975
0.84152 0.0675975 0.0675975
0.84152 0.0675975 0.0675975
0.84152 0.0675975 0.0675975
0.84152 0.0675975 0.0675975
0.0577096 0.327047 0.0577096
0.0577096 0.326909 0.0577096
0.0576944 0.326787 0.0576944
0.0576638 0.326528 0.0576638
0.0576486 0.326284 0.0576486
0.0574502 0.324285 0.0574502
0.057145 0.32134 0.057145
0.0634775 0.31812 0.057145
0.1879 0.327459 0.0632944
0.29836 0.330922 0.0669413
0.402197 0.328649 0.0690318
0.504585 0.321141 0.0701305
0.594766 0.309087 0.0704967
0.673976 0.292531 0.0705119
0.743694 0.270985 0.0704509
0.804074 0.242863 0.0704662
0.853773 0.204013 0.0704509
0.871138 0.144518 0.0701762
0.842374 0.069688 0.0677195
0.84152 0.0675975 0.0675975
0.84152 0.0675975 0.0675975
0.84152 0.0675975 0.0675975
0.84152 0.0675975 0.0675975
0.84152 0.0675975 0.0675975
0.84152 0.0675975 0.0675975
0.84152 0.0675975 0.0675975
0.84152 0.0675975 0.0675975
0.84152 0.0675975 0.0675975
0.84152 0.0675975 0.0675975
0.84152 0.0675975 0.0675975
0.84152 0.0675975 0.0675975
0.84152 0.0675975 0.0675975
0.84152 0.0675975 0.0675975
0.0641947 0.403922 0.0641947
0.0641947 0.403922 0.0641947
0.0641794 0.403784 0.0641794
0.0641794 0.403647 0.0641794
0.0641489 0.403372 0.0641489
0.0640726 0.402289 0.0640726
0.0639048 0.399878 0.0639048
0.0636759 0.396567 0.0636759
0.082826 0.394339 0.0642252
0.242771 0.405631 0.068864
0.368872 0.407889 0.0703899
0.484703 0.404135 0.0704509
0.584115 0.395941 0.0698253
0.67039 0.384146 0.0689403
0.746166 0.368887 0.06804
0.812833 0.349355 0.0673838
0.871229 0.324697 0.067155
0.918196 0.292073 0.0675364
0.904967 0.245533 0.0694743
0.881315 0.172854 0.0705425
0.842771 0.0706798 0.0677653
0.84152 0.0675975 0.0675975
0.84152 0.0675975 0.0675975
0.84152 0.0675975 0.0675975
0.84152 0.0675975 0.0675975
0.84152 0.0675975 0.0675975
0.84152 0.0675975 0.0675975
0.84152 0.0675975 0.0675975
0.84152 0.0675975 0.0675975
0.84152 0.0675975 0.0675975
0.84152 0.0675975 0.0675975
0.84152 0.0675975 0.0675975
0.84152 0.0675975 0.0675975
0.0684062 0.481575 0.0684062
0.0683909 0.481453 0.0683909
0.0683909 0.481453 0.0683909
0.0683909 0.481315 0.0683909
0.0683909 0.481193 0.0683909
0.0683757 0.480919 0.0683757
0.0682994 0.47892 0.0682994
0.0681773 0.476188 0.0681773
0.0680095 0.472343 0.0680095
0.124544 0.473671 0.0690929
0.311299 0.484947 0.0704967
0.448753 0.485451 0.0692607
0.560082 0.480949 0.067277
0.654612 0.472923 0.0651255
0.73695 0.462196 0.0624704
0.810681 0.448386 0.058732
0.876234 0.430793 0.0550698
0.933288 0.408972 0.0533455
0.944488 0.381643 0.0584115
0.932235 0.34226 0.0640726
0.915862 0.282826 0.0679332
0.882338 0.176425 0.0703746
0.84152 0.0675975 0.0675975
0.84152 0.0675975 0.0675975
0.84152 0.0675975 0.0675975
0.84152 0.0675975 0.0675975
0.84152 0.0675975 0.0675975
0.84152 0.0675975 0.0675975
0.84152 0.0675975 0.0675975
0.84152 0.0675975 0.0675975
0.84152 0.0675975 0.0675975
0.84152 0.0675975 0.0675975
0.84152 0.0675975 0.0675975
0.0703136 0.553582 0.0703136
0.0703136 0.55346 0.0703136
0.0703136 0.55346 0.0703136
0.0703136 0.553338 0.0703136
0.0703136 0.553338 0.0703136
0.0702983 0.553079 0.0702983
0.0702831 0.552254 0.0702831
0.0702525 0.549889 0.0702525
0.0702068 0.546593 0.0702068
0.0701305 0.542062 0.0701305
0.214527 0.551186 0.0702983
0.396735 0.55819 0.0675669
0.524971 0.556558 0.0640116
0.630076 0.551736 0.0561074
0.721614 0.543572 0.0468757
0.802121 0.532891 0.0389563
0.873686 0.519646 0.0325628
0.937133 0.503868 0.0278477
0.980316 0.484489 0.0269932
0.973053 0.460914 0.0347906
0.962417 0.429328 0.0446632
0.945541 0.382956 0.0572976
0.921462 0.302602 0.0669718
0.861326 0.118868 0.0693828
0.84152 0.0675975 0.0675975
0.84152 0.0675975 0.0675975
0.84152 0.0675975 0.0675975
0.84152 0.0675975 0.0675975
0.84152 0.0675975 0.0675975
0.84152 0.0675975 0.0675975
0.84152 0.0675975 0.0675975
0.84152 0.0675975 0.0675975
0.84152 0.0675975 0.0675975
0.0704509 0.620249 0.0704509
0.0704509 0.620142 0.0704509
0.0704509 0.620142 0.0704509
0.0704509 0.620142 0.0704509
0.0704509 0.62002 0.0704509
0.0704509 0.619913 0.0704509
0.0704509 0.619806 0.0704509
0.0704662 0.618173 0.0704662
0.0704967 0.615305 0.0704967
0.0705272 0.611322 0.0705272
0.0728923 0.606073 0.0705425
0.320363 0.622415 0.0663005
0.477333 0.625589 0.0570382
0.596124 0.62359 0.042771
0.696529 0.617639 0.0303807
0.78323 0.609155 0.0197299
0.859831 0.598657 0.0106966
0.927138 0.586297 0.00433356
0.985275 0.572 0.000762951
0.998993 0.5552 0.00164797
0.993881 0.534386 0.00935378
0.986831 0.507073 0.0192416
0.975464 0.468132 0.0325322
0.954284 0.407126 0.051194
0.917403 0.288045 0.0677348
0.84152 0.0675975 0.0675975
0.84152 0.0675975 0.0675975
0.84152 0.0675975 0.0675975
0.84152 0.0675975 0.0675975
0.84152 0.0675975 0.0675975
0.84152 0.0675975 0.0675975
0.84152 0.0675975 0.0675975
0.84152 0.0675975 0.0675975
0.0692302 0.681178 0.0692302
0.0692302 0.681178 0.0692302
0.0692302 0.681178 0.0692302
0.0692302 0.681178 0.0692302
0.0692302 0.681071 0.0692302
0.0692302 0.681071 0.0692302
0.0692302 0.68098 0.0692302
0.0692302 0.680781 0.0692302
0.0693065 0.678141 0.0693065
0.0694133 0.674586 0.0694133
0.0695506 0.669581 0.0695506
0.190311 0.675105 0.0668956
0.41323 0.687892 0.0501106
0.550973 0.688899 0.0311894
0.662364 0.685023 0.0153048
0.756207 0.678141 0.00251774
0.835218 0.669184 3.0518e-05
0.902754 0.659419 0
0.961456 0.648585 0
1 0.636301 0
1 0.621851 0
1 0.603571 0
1 0.579446 0
0.996048 0.545937 0.00624094
0.984054 0.497002 0.0227817
0.958297 0.417426 0.0483253
0.898497 0.22472 0.0700236
0.84152 0.0675975 0.0675975
0.84152 0.0675975 0.0675975
0.84152 0.0675975 0.0675975
0.84152 0.0675975 0.0675975
0.84152 0.0675975 0.0675975
0.84152 0.0675975 0.0675975
0.0670634 0.736889 0.0670634
0.0670634 0.736889 0.0670634
0.0670634 0.736889 0.0670634
0.0670634 0.736889 0.0670634
0.0670787 0.736797 0.0670787
0.0670787 0.736797 0.0670787
0.0670787 0.736706 0.0670787
0.0670787 0.736706 0.0670787
0.0671092 0.735943 0.0671092
0.067277 0.732586 0.067277
0.0674754 0.728054 0.0674754
0.0677501 0.721721 0.0677501
0.321141 0.74136 0.0483558
0.493355 0.747875 0.0224613
0.619471 0.745708 0.00337224
0.721141 0.738643 0
0.804791 0.730694 0
0.875578 0.722591 0
0.936309 0.714168 0
0.987869 0.704814 0
1 0.694179 0
1 0.681849 0
1 0.66656 0
1 0.646281 0
1 0.619135 0
1 0.581765 0
0.991104 0.523278 0.0134279
0.958602 0.418235 0.0480964
0.845182 0.0769055 0.0679789
0.84152 0.0675975 0.0675975
0.84152 0.0675975 0.0675975
0.84152 0.0675975 0.0675975
0.84152 0.0675975 0.0675975
0.0642863 0.787503 0.0642863
0.0642863 0.787503 0.0642863
0.0642863 0.787503 0.0642863
0.0642863 0.787503 0.0642863
0.0642863 0.787503 0.0642863
0.0642863 0.787427 0.0642863
0.0642863 0.787427 0.0642863
0.0643015 0.787335 0.0643015
0.0643015 0.787335 0.0643015
0.0643931 0.785733 0.0643931
0.0646525 0.781567 0.0646525
0.0650034 0.775677 0.0650034
0.168444 0.781079 0.0560922
0.41825 0.800031 0.0181735
0.568048 0.799161 0
0.682383 0.791897 0
0.772732 0.784833 0
0.847745 0.777691 0
0.911147 0.770611 0
0.965682 0.76318 0
0.999954 0.755154 0
1 0.746105 0
1 0.73547 0
1 0.722622 0
1 0.706462 0
1 0.687266 0
1 0.65977 0
1 0.618494 0
0.997681 0.553384 0.00361639
0.966567 0.441382 0.0409705
0.856992 0.107622 0.068986
0.84152 0.0675975 0.0675975
0.84152 0.0675975 0.0675975
0.057908 0.835538 0.057908
0.057908 0.835538 0.057908
0.057908 0.835538 0.057908
0.057908 0.835538 0.057908
0.057908 0.835538 0.057908
0.057908 0.835538 0.057908
0.0579232 0.835447 0.0579232
0.0579232 0.835447 0.0579232
0.0579538 0.835355 0.0579538
0.057969 0.835264 0.057969
0.0585031 0.832547 0.0585031
0.059678 0.826505 0.059678
0.0610208 0.818372 0.0610208
0.312673 0.84416 0.02121
0.50605 0.84622 0
0.638086 0.8392 0
0.738659 0.832563 0
0.818952 0.826169 0
0.885908 0.819791 0
0.942733 0.813489 0
0.989731 0.806958 0
1 0.800076 0
1 0.792477 0
1 0.783459 0
1 0.773053 0
1 0.762127 0
1 0.747494 0
1 0.727749 0
1 0.700725 0
1 0.66363 0
1 0.611109 0
0.993942 0.534874 0.00946059
0.958221 0.417273 0.0483711
0.0483101 0.881056 0.0483101
0.0483101 0.881056 0.0483101
0.0483101 0.881056 0.0483101
0.0483101 0.881056 0.0483101
0.0483101 0.881056 0.0483101
0.0483101 0.881056 0.0483101
0.0483101 0.881056 0.0483101
0.0483253 0.88098 0.0483253
0.0483253 0.88098 0.0483253
0.0483558 0.880888 0.0483558
0.0483558 0.880888 0.0483558
0.0493019 0.87657 0.0493019
0.0510414 0.868559 0.0510414
0.107271 0.867857 0.0440223
0.422095 0.88838 0
0.586419 0.881346 0
0.700587 0.874815 0
0.78883 0.868757 0
0.860273 0.862989 0
0.919951 0.857359 0
0.970275 0.85182 0
1 0.846143 0
1 0.840177 0
1 0.833677 0
1 0.826596 0
1 0.81973 0
1 0.811551 0
1 0.800763 0
1 0.787213 0
1 0.770077 0
1 0.74934 0
1 0.724788 0
1 0.69659 0
0.0389105 0.922133 0.0389105
0.0389105 0.922133 0.0389105
0.0389105 0.922133 0.0389105
0.0389105 0.922133 0.0389105
0.0389105 0.922133 0.0389105
0.0389105 0.922133 0.0389105
0.0389258 0.922057 0.0389258
0.0389258 0.922057 0.0389258
0.0389258 0.922057 0.0389258
0.038941 0.921981 0.038941
0.038941 0.921981 0.038941
0.0389563 0.92192 0.0389563
0.0404517 0.915618 0.0404517
0.0429236 0.904997 0.0429236
0.288289 0.926085 0.000854505
0.519371 0.91902 0
0.656748 0.912383 0
0.756268 0.906416 0
0.833799 0.900847 0
0.897139 0.895659 0
0.949935 0.890684 0
0.992554 0.885847 0
1 0.880934 0
1 0.875776 0
1 0.870481 0
1 0.86627 0
1 0.861341 0
1 0.85507 0
1 0.847608 0
1 0.838483 0
1 0.82829 0
1 0.816968 0
1 0.805341 0
0.0299382 0.958816 0.0299382
0.0299382 0.958816 0.0299382
0.0299382 0.958816 0.0299382
0.0299382 0.958816 0.0299382
0.0299382 0.958816 0.0299382
0.0299382 0.958816 0.0299382
0.0299382 0.958816 0.0299382
0.0299382 0.958816 0.0299382
0.0299382 0.958816 0.0299382
0.0299535 0.958755 0.0299535
0.0299535 0.958755 0.0299535
0.0299687 0.958694 0.0299687
0.0299687 0.958694 0.0299687
0.0322881 0.949371 0.0322881
0.0438087 0.938094 0.033814
0.421195 0.952987 0
0.601999 0.945846 0
0.718761 0.939696 0
0.805631 0.934188 0
0.873777 0.929244 0
0.929641 0.924651 0
0.976226 0.920241 0
1 0.915999 0
1 0.911757 0
1 0.907546 0
1 0.904738 0
1 0.901686 0
1 0.898039 0
1 0.893492 0
1 0.888334 0
1 0.882719 0
1 0.876692 0
1 0.87068 0
0.0236515 0.983352 0.0236515
0.0236515 0.983352 0.0236515
0.0236515 0.983352 0.0236515
0.0236515 0.983352 0.0236515
0.0236515 0.983352 0.0236515
0.0236515 0.983352 0.0236515
0.0236515 0.983352 0.0236515
0.0236515 0.983352 0.0236515
0.0236515 0.983352 0.0236515
0.0236515 0.983352 0.0236515
0.0236515 0.983352 0.0236515
0.0236515 0.983352 0.0236515
0.0236515 0.983352 0.0236515
0.0236515 0.983352 0.0236515
0.0254063 0.976593 0.0254063
0.224811 0.983185 0.00180056
0.525582 0.975952 0
0.673655 0.969238 0
0.77377 0.963577 0
0.849409 0.958633 0
0.909239 0.954162 0
0.95845 0.950118 0
0.997497 0.946273 0
1 0.942626 0
1 0.939101 0
1 0.937118 0
1 0.935149 0
1 0.93286 0
1 0.930129 0
1 0.927092 0
1 0.923659 0
1 0.920226 0
1 0.916838 0
0.0236515 0.983352 0.0236515
0.0236515 0.983352 0.0236515
0.0236515 0.983352 0.0236515
0.0236515 0.983352 0.0236515
0.0236515 0.983352 0.0236515
0.0236515 0.983352 0.0236515
0.0236515 0.983352 0.0236515
0.0236515 0.983352 0.0236515
0.0236515 0.983352 0.0236515
0.0236515 0.983352 0.0236515
0.0236515 0.983352 0.0236515
0.0236515 0.983352 0.0236515
0.0236515 0.983352 0.0236515
0.0236515 0.983352 0.0236515
0.0236515 0.983352 0.0236515
0.0236515 0.983352 0.0236515
0.397574 1 0
0.612711 0.994842 0
0.736217 0.98967 0
0.822354 0.984512 0
0.888136 0.980026 0
0.940612 0.976074 0
0.983688 0.972457 0
1 0.969131 0
1 0.966049 0
1 0.964584 0
1 0.963333 0
1 0.961807 0
1 0.960098 0
1 0.958129 0
1 0.95613 0
1 0.954086 0
1 0.952056 0
0.0236515 0.983352 0.0236515
0.0236515 0.983352 0.0236515
0.0236515 0.983352 0.0236515
0.0236515 0.983352 0.0236515
0.0236515 0.983352 0.0236515
0.0236515 0.983352 0.0236515
0.0236515 0.983352 0.0236515
0.0236515 0.983352 0.0236515
0.0236515 0.983352 0.0236515
0.0236515 0.983352 0.0236515
0.0236515 0.983352 0.0236515
0.0236515 0.983352 0.0236515
0.0236515 0.983352 0.0236515
0.0236515 0.983352 0.0236515
0.0236515 0.983352 0.0236515
0.0236515 0.983352 0.0236515
0.0297093 0.984131 0.0225528
0.517052 1 0
0.686793 1 0
0.79089 1 0
0.865492 1 0
0.922484 0.997482 0
0.968246 0.994583 0
0.999603 0.991852 0
1 0.98909 0
1 0.987961 0
1 0.987106 0
1 0.98613 0
1 0.98497 0
1 0.983734 0
1 0.982422 0
1 0.98114 0
1 0.979904 0
0.0236515 0.983352 0.0236515
0.0236515 0.983352 0.0236515
0.0236515 0.983352 0.0236515
0.0236515 0.983352 0.0236515
0.0236515 0.983352 0.0236515
0.0236515 0.983352 0.0236515
0.0236515 0.983352 0.0236515
0.0236515 0.983352 0.0236515
0.0236515 0.983352 0.0236515
0.0236515 0.983352 0.0236515
0.0236515 0.983352 0.0236515
0.0236515 0.983352 0.0236515
0.0236515 0.983352 0.0236515
0.0236515 0.983352 0.0236515
0.0236515 0.983352 0.0236515
0.0236515 0.983352 0.0236515
0.0236515 0.983352 0.0236515
0.318624 1 0
0.619058 1 0
0.754833 1 0
0.842451 1 0
0.906218 1 0
0.955337 1 0
0.994766 1 0
1 1 0
1 0.999939 0
1 0.999863 0
1 0.999756 0
1 0.999619 0
1 0.999481 0
1 0.999344 0
1 0.999207 0
1 0.999069 0
0.0236515 0.983352 0.0236515
0.0236515 0.983352 0.0236515
0.0236515 0.983352 0.0236515
0.0236515 0.983352 0.0236515
0.0236515 0.983352 0.0236515
0.0236515 0.983352 0.0236515
0.0236515 0.983352 0.0236515
0.0236515 0.983352 0.0236515
0.0236515 0.983352 0.0236515
0.0236515 0.983352 0.0236515
0.0236515 0.983352 0.0236515
0.0236515 0.983352 0.0236515
0.0236515 0.983352 0.0236515
0.0236515 0.983352 0.0236515
0.0236515 0.983352 0.0236515
0.0236515 0.983352 0.0236515
0.0236515 0.983352 0.0236515
0.0236515 0.983352 0.0236515
0.507103 1 0
0.713115 1 0
0.82182 1 0
0.894743 1 0
0.94876 1 0
0.990631 1 0
1 1 0
1 1 0
1 1 0
1 1 0
1 1 0
1 1 0
1 1 0
1 1 0
1 1 0
0.0236515 0.983352 0.0236515
0.0236515 0.983352 0.0236515
0.0236515 0.983352 0.0236515
0.0236515 0.983352 0.0236515
0.0236515 0.983352 0.0236515
0.0236515 0.983352 0.0236515
0.0236515 0.983352 0.0236515
0.0236515 0.983352 0.0236515
0.0236515 0.983352 0.0236515
0.0236515 0.983352 0.0236515
0.0236515 0.983352 0.0236515
0.0236515 0.983352 0.0236515
0.0236515 0.983352 0.0236515
0.0236515 0.983352 0.0236515
0.0236515 0.983352 0.0236515
0.0236515 0.983352 0.0236515
0.0236515 0.983352 0.0236515
0.0236515 0.983352 0.0236515
0.101137 0.995254 0.00737011
0.639689 1 0
0.791104 1 0
0.879088 1 0
0.939773 1 0
0.98529 1 0
1 1 0
1 1 0
1 1 0
1 1 0
1 1 0
1 1 0
1 1 0
1 1 0
1 1 0
0.0236515 0.983352 0.0236515
0.0236515 0.983352 0.0236515
0.0236515 0.983352 0.0236515
0.0236515 0.983352 0.0236515
0.0236515 0.983352 0.0236515
0.0236515 0.983352 0.0236515
0.0236515 0.983352 0.0236515
0.0236515 0.983352 0.0236515
0.0236515 0.983352 0.0236515
