Log3G10_RWG_to_WDR.cube
TITLE "Generated by Resolve"
LUT_3D_SIZE 5
0 0 0
0.272343 0.0325933 0.0325933
0.83415 0.0674144 0.0674144
0.84152 0.0675975 0.0675975
0.84152 0.0675975 0.0675975
0.0500038 0.260044 0.0500038
0.235004 0.263249 0.0601053
0.8177 0.070634 0.0671702
0.84152 0.0675975 0.0675975
0.84152 0.0675975 0.0675975
0.0642863 0.787503 0.0642863
0.0643015 0.787335 0.0643015
0.772732 0.784833 0
1 0.706462 0
0.84152 0.0675975 0.0675975
0.0236515 0.983352 0.0236515
0.0236515 0.983352 0.0236515
0.0236515 0.983352 0.0236515
1 1 0
1 0.999069 0
0.0236515 0.983352 0.0236515
0.0236515 0.983352 0.0236515
0.0236515 0.983352 0.0236515
0.984771 1 0
1 1 0
0.0112154 0.0112154 0.227741
0.261616 0.0403449 0.24831
0.836423 0.0678874 0.114137
0.84152 0.0675975 0.0675975
0.84152 0.0675975 0.0675975
0.0500954 0.226886 0.224323
0.226001 0.22591 0.226001
0.821317 0.0670787 0.0670787
0.84152 0.0675975 0.0675975
0.84152 0.0675975 0.0675975
0.0644236 0.785168 0.0644236
0.0644388 0.784909 0.0644388
0.772702 0.782452 0
1 0.702739 0
0.84152 0.0675975 0.0675975
0.0236515 0.983352 0.0236515
0.0236515 0.983352 0.0236515
0.0236515 0.983352 0.0236515
1 1 0
1 0.999054 0
0.0236515 0.983352 0.0236515
0.0236515 0.983352 0.0236515
0.0236515 0.983352 0.0236515
0.98471 1 0
1 1 0
0.0300298 0.0300298 0.609445
0.0299992 0.0299992 0.609049
0.848402 0.070573 0.745678
0.883513 0.0705882 0.629007
0.84152 0.0675975 0.0675975
0.0299382 0.0299382 0.607645
0.0299229 0.0299229 0.607248
0.847379 0.070573 0.743221
0.883024 0.0705882 0.621698
0.84152 0.0675975 0.0675975
0.0411383 0.775296 0.748394
0.0412757 0.774868 0.74757
0.744213 0.743755 0.744228
1 0.640955 0.426017
0.84152 0.0675975 0.0675975
0.0236515 0.983352 0.0236515
0.0236515 0.983352 0.0236515
0.0236515 0.983352 0.0236515
1 0.999893 0
1 0.99884 0
0.0236515 0.983352 0.0236515
0.0236515 0.983352 0.0236515
0.0236515 0.983352 0.0236515
0.983612 1 0
1 1 0
0.0356298 0.0356298 0.723125
0.0356298 0.0356298 0.723125
0.446265 0.0643626 0.821256
0.900618 0.0699168 0.900618
0.900618 0.0699168 0.900618
0.0356298 0.0356298 0.723125
0.0356298 0.0356298 0.723125
0.436133 0.0639506 0.819104
0.900618 0.0699168 0.900618
0.900618 0.0699168 0.900618
0.0356298 0.0356298 0.723125
0.0356298 0.0356298 0.723125
0.262257 0.054963 0.779339
0.900618 0.0699168 0.900618
0.900618 0.0699168 0.900618
0 1 0.999084
0 1 0.999054
0 1 0.998886
0.988861 0.988861 0.989105
1 0.979156 0.965698
0.0236515 0.983352 0.0236515
0.0236515 0.983352 0.0236515
0.0236515 0.983352 0.0236515
0.969863 1 0
1 1 0
0.0356298 0.0356298 0.723125
0.0356298 0.0356298 0.723125
0.0356298 0.0356298 0.723125
0.900618 0.0699168 0.900618
0.900618 0.0699168 0.900618
0.0356298 0.0356298 0.723125
0.0356298 0.0356298 0.723125
0.0356298 0.0356298 0.723125
0.900618 0.0699168 0.900618
0.900618 0.0699168 0.900618
0.0356298 0.0356298 0.723125
0.0356298 0.0356298 0.723125
0.0356298 0.0356298 0.723125
0.900618 0.0699168 0.900618
0.900618 0.0699168 0.900618
0.0356298 0.0356298 0.723125
0.0356298 0.0356298 0.723125
0.0356298 0.0356298 0.723125
0.900618 0.0699168 0.900618
0.900618 0.0699168 0.900618
0 1 1
0 1 1
0 1 1
0.82536 1 1
1 1 1
