Log3G10_RWG_to_PROVIA.cube
TITLE "Generated by Resolve"
LUT_3D_SIZE 5
0 0 0
0.255848 0.00283818 0.0215457
0.993454 0.000167849 0.315267
1 0 0.37641
1 0 0.37641
0.000183108 0.265461 0.000381476
0.186038 0.259846 6.10361e-05
0.999481 0.151537 0.258183
1 0 0.37641
1 0 0.37641
0 1 0.000289921
0 1 0.000289921
0.822019 0.949264 0
0.999298 0.723064 0.0472572
1 0 0.37641
0 1 0.000289921
0 1 0.000289921
0 1 0.000289921
0.983352 0.999573 0.0607614
0.982559 0.999557 0.0543679
0 1 0.000289921
0 1 0.000289921
0 1 0.000289921
0.793439 0.999786 0.00175479
0.982559 0.999557 0.0543679
0.00350958 0.0104219 0.152667
0.304128 0.00750744 0.151827
0.999969 4.57771e-05 0.383963
1 0 0.37641
1 0 0.37641
0.000534066 0.294118 0.340764
0.218875 0.219623 0.219074
0.999451 0.0693523 0.313878
1 0 0.37641
1 0 0.37641
0 1 0.000289921
0 1 0.000289921
0.824537 0.947051 0
0.999298 0.717891 0.0487984
1 0 0.37641
0 1 0.000289921
0 1 0.000289921
0 1 0.000289921
0.983352 0.999573 0.0607614
0.982559 0.999557 0.0543679
0 1 0.000289921
0 1 0.000289921
0 1 0.000289921
0.79321 0.999786 0.00170901
0.982559 0.999557 0.0543679
0.0263676 0.0753338 0.762509
0.0262913 0.0751049 0.761273
0.999741 0.172473 0.91075
0.999878 0.100938 0.638163
1 0 0.37641
0.0260471 0.0743114 0.756832
0.0259709 0.0740826 0.755596
0.999771 0.170077 0.908736
0.999832 0.0991379 0.630045
1 0 0.37641
0.000671397 0.937575 1
0.000671397 0.937621 1
0.833524 0.836194 0.834379
0.999664 0.586831 0.337377
1 0 0.37641
0 1 0.000289921
0 1 0.000289921
0 1 0.000289921
0.983307 0.999634 0.0604868
0.982559 0.999557 0.0543679
0 1 0.000289921
0 1 0.000289921
0 1 0.000289921
0.789441 0.999771 0.000976577
0.982559 0.999557 0.0543679
0.0860456 0.349493 0.999725
0.0860761 0.349447 0.999725
0.708721 0.442573 0.999863
0.99971 0.36173 0.999146
0.999969 0.315511 0.999451
0.0861372 0.349371 0.999725
0.0861677 0.349325 0.99971
0.695705 0.441169 0.999741
0.99971 0.361654 0.99913
0.999969 0.315312 0.999466
0.0873274 0.347845 0.999649
0.0873579 0.347799 0.999649
0.417914 0.407202 1
0.999619 0.360601 0.998962
0.999924 0.312825 0.999588
0.00213626 0.990723 1
0.00213626 0.990723 1
0.00213626 0.990723 1
0.982834 0.991119 0.987488
0.998672 0.95877 0.889693
0 1 0.000289921
0 1 0.000289921
0 1 0.000289921
0.738125 0.999847 0.000381476
0.982559 0.999557 0.0543679
0.00260929 0.420035 0.999878
0.00260929 0.420035 0.999878
0.00260929 0.420035 0.999878
1 0.392309 1
1 0.392309 1
0.00260929 0.420035 0.999878
0.00260929 0.420035 0.999878
0.00260929 0.420035 0.999878
1 0.392309 1
1 0.392309 1
0.00260929 0.420035 0.999878
0.00260929 0.420035 0.999878
0.00260929 0.420035 0.999878
1 0.392309 1
1 0.392309 1
0.00260929 0.420035 0.999878
0.00260929 0.420035 0.999878
0.00260929 0.420035 0.999878
1 0.392309 1
1 0.392309 1
0.00213626 0.990723 1
0.00213626 0.990723 1
0.00213626 0.990723 1
0.00350958 0.990021 1
1 1 1
