Log3G10_RWG_to_ClasssicNeg.cube
TITLE "Generated by Resolve"
LUT_3D_SIZE 5
0.0104677 0.0158694 0.0142367
0.267445 0.061265 0.0144961
0.999237 0.213626 0.158572
1 0.388128 0.679988
1 0.510613 0.814313
0 0.204486 0.110399
0.0896162 0.155627 0.067277
0.951675 0.187259 0.00698863
1 0.359838 0.595087
1 0.510613 0.814313
0 0.84625 0.507012
0 0.835889 0.474266
0.836118 0.826856 0.297704
0.923735 0.334188 0.109453
1 0.36112 0.55436
0.0574044 0.884352 0.744442
0.0573892 0.884352 0.744442
0 0.8327 0.457923
0.976043 0.915877 0.342916
0.972778 0.918379 0.334401
0.147356 0.912627 0.904707
0.147356 0.912627 0.904707
0.147356 0.912627 0.904707
0.972137 0.929931 0.465721
0.973236 0.926452 0.440345
0.102419 0.132128 0.310979
0.280949 0.117998 0.222263
1 0.21297 0.218616
1 0.388128 0.679988
1 0.510613 0.814313
0.0417334 0.160204 0.179858
0.125338 0.145693 0.150393
0.960922 0.191562 0.0193332
1 0.361852 0.600534
1 0.510613 0.814313
0 0.846036 0.506584
0 0.835782 0.474342
0.838148 0.826185 0.29723
0.924758 0.33051 0.10663
1 0.361852 0.555993
0.0573739 0.884352 0.744396
0.0573739 0.884352 0.744381
0 0.832731 0.458061
0.976043 0.915877 0.342901
0.972778 0.918395 0.334401
0.147356 0.912627 0.904707
0.147356 0.912627 0.904707
0.147356 0.912627 0.904707
0.972137 0.929931 0.465721
0.973236 0.926452 0.440345
0.240726 0.397482 0.904631
0.419059 0.383993 0.873396
1 0.412329 0.763668
1 0.41622 0.777111
1 0.510613 0.814313
0.240345 0.394903 0.902037
0.325612 0.379568 0.883101
1 0.409171 0.752605
1 0.416022 0.776562
1 0.510613 0.814313
0.275486 0.877836 0.997253
0.271199 0.863462 0.987854
0.871 0.838331 0.821515
0.981262 0.271565 0.189471
1 0.374014 0.582223
0.0570687 0.884245 0.743786
0.0570687 0.884245 0.743786
0 0.832792 0.458351
0.975998 0.915953 0.343008
0.972717 0.918456 0.334401
0.147356 0.912627 0.904707
0.147356 0.912627 0.904707
0.147356 0.912627 0.904707
0.972137 0.929946 0.465812
0.973236 0.926452 0.440345
0.23505 0.454994 0.923568
0.235279 0.452354 0.922499
1 0.414786 0.774105
1 0.415122 0.775174
1 0.415122 0.775174
0.235065 0.45481 0.923491
0.235111 0.454353 0.923308
1 0.414786 0.774105
1 0.415122 0.775174
1 0.415122 0.775174
0.228199 0.792676 1
0.228183 0.792599 1
0.902495 0.544762 0.837034
1 0.415122 0.775174
1 0.415122 0.775174
0.297856 0.939193 1
0.297856 0.939193 1
0.297398 0.94136 1
1 1 1
0.999969 1 1
0.300313 0.92781 1
0.300313 0.927779 1
0.300359 0.927321 1
0.984604 0.981704 0.852018
0.974166 0.922972 0.413642
0.228504 0.628656 0.994629
0.228504 0.628656 0.994629
1 0.423407 0.77937
1 0.415122 0.775174
1 0.415122 0.775174
0.228504 0.628656 0.994629
0.228504 0.628656 0.994629
1 0.423545 0.779461
1 0.415122 0.775174
1 0.415122 0.775174
0.228504 0.628656 0.994629
0.228504 0.628656 0.994629
1 0.425834 0.780957
1 0.415122 0.775174
1 0.415122 0.775174
0.293736 0.940185 1
0.293736 0.940185 1
0.293141 0.942687 1
0.999466 1 1
0.999954 0.999435 0.999817
0.296254 0.936599 1
0.296254 0.936599 1
0.296254 0.936599 1
0.999252 0.999985 1
1 1 1
