Log3G10_RWG_to_NostalgicNeg.cube
TITLE "Generated by Resolve"
LUT_3D_SIZE 33
0.0379187 0.0324254 0.0303502
0.0440528 0.0329595 0.0288548
0.0537881 0.0337377 0.0267643
0.0692454 0.0344701 0.0242466
0.0948501 0.0370794 0.0216068
0.148394 0.0454414 0.0185397
0.226596 0.0528267 0.0117037
0.306249 0.0565347 0.00315862
0.383017 0.0679637 4.57771e-05
0.467857 0.0791943 0.000198367
0.562264 0.0895857 1.5259e-05
0.663813 0.0995804 0.000122072
0.772351 0.109117 0.000106813
0.869841 0.116258 0.00242618
0.953063 0.120531 0.0122072
0.999146 0.119417 0.0365148
1 0.0994736 0.0818647
1 0.0507668 0.137179
1 0.0525826 0.218692
1 0.0968032 0.305562
1 0.146075 0.388006
1 0.202365 0.478798
1 0.252689 0.563958
1 0.268666 0.628717
1 0.276204 0.678721
1 0.290791 0.722789
1 0.313787 0.762051
1 0.341207 0.795727
1 0.370382 0.818998
1 0.396628 0.837263
1 0.420951 0.84979
1 0.440604 0.859922
1 0.445151 0.862272
0.0351568 0.0376287 0.0294194
0.0422065 0.0371557 0.0276341
0.0514687 0.0375219 0.0255436
0.0673686 0.0362402 0.0222171
0.090837 0.0383307 0.019852
0.142626 0.0477455 0.0180514
0.223453 0.0567941 0.0124056
0.304616 0.0607614 0.00474556
0.383108 0.0682689 1.5259e-05
0.463828 0.078996 9.15541e-05
0.557366 0.0894636 0
0.658488 0.0995041 0
0.766445 0.10901 1.5259e-05
0.864424 0.116258 0.00187686
0.948562 0.120714 0.00981155
0.998627 0.119936 0.03299
1 0.102525 0.0772259
1 0.049073 0.12784
1 0.0497444 0.213519
1 0.0967117 0.305394
1 0.146075 0.387991
1 0.20235 0.478782
1 0.252689 0.563943
1 0.268666 0.628717
1 0.276204 0.678721
1 0.290776 0.722789
1 0.313787 0.762051
1 0.341207 0.795727
1 0.370382 0.818998
1 0.396628 0.837263
1 0.420951 0.84979
1 0.440604 0.859922
1 0.445151 0.862272
0.03122 0.0459144 0.0289158
0.0374304 0.0452888 0.0273289
0.048661 0.0443122 0.0240635
0.0685893 0.0397345 0.0204318
0.0913558 0.0376593 0.0154116
0.133715 0.0472725 0.0136873
0.21117 0.0584421 0.0110781
0.296437 0.0655985 0.00634775
0.384894 0.0692149 1.5259e-05
0.46099 0.0788586 0
0.551431 0.0892653 0
0.651331 0.0993668 0
0.758495 0.108873 1.5259e-05
0.856947 0.116304 0.0012665
0.94229 0.120974 0.00648508
0.998215 0.121294 0.0274052
1 0.106432 0.0700236
1 0.0542306 0.119646
1 0.0447547 0.201114
1 0.0906233 0.295338
1 0.143771 0.384176
1 0.20235 0.478782
1 0.252689 0.563943
1 0.268666 0.628717
1 0.276204 0.678706
1 0.290776 0.722789
1 0.313787 0.762051
1 0.341207 0.795727
1 0.370382 0.818998
1 0.396628 0.837263
1 0.420951 0.84979
1 0.440604 0.859922
1 0.445151 0.862272
0.0255589 0.0578012 0.0284733
0.031281 0.057084 0.0271458
0.039292 0.0545968 0.0235447
0.0573892 0.0538491 0.0186007
0.0923781 0.044831 0.0134737
0.128466 0.0454566 0.00784314
0.190646 0.0593729 0.00654612
0.28098 0.0685435 0.00457771
0.376532 0.0746166 0.000854505
0.456275 0.0786755 0
0.543725 0.0891432 0
0.643061 0.0993668 0
0.74818 0.10898 0
0.84683 0.116533 0.000198367
0.933318 0.121401 0.002533
0.995651 0.122972 0.0201419
1 0.111376 0.0600137
1 0.0647135 0.110079
1 0.0416571 0.187152
1 0.0821088 0.280858
1 0.135271 0.370153
1 0.196384 0.469535
1 0.252674 0.563928
1 0.268666 0.628702
1 0.276204 0.678706
1 0.290776 0.722774
1 0.313787 0.762051
1 0.341207 0.795727
1 0.370367 0.818998
1 0.396628 0.837263
1 0.420951 0.84979
1 0.440604 0.859922
1 0.445151 0.862272
0.0133059 0.0748608 0.0297398
0.0207675 0.0746471 0.0287938
0.0299535 0.0737011 0.0268864
0.0433509 0.0695048 0.0216831
0.0692302 0.0679789 0.0149386
0.125811 0.0541543 0.00686656
0.17966 0.063798 0.00276188
0.247303 0.0767987 0.00239567
0.348028 0.0802777 0.000396735
0.449866 0.0830701 0
0.532891 0.0890211 0
0.622538 0.0990463 0
0.734859 0.10927 0
0.833722 0.116899 0
0.920043 0.12195 0.000839246
0.987793 0.124697 0.0118257
1 0.117693 0.0457313
1 0.0813458 0.0971695
1 0.0407416 0.166323
1 0.0711223 0.260548
1 0.123766 0.351141
1 0.183307 0.448524
1 0.24445 0.548562
1 0.268528 0.626825
1 0.276204 0.678706
1 0.290776 0.722774
1 0.313771 0.762051
1 0.341207 0.795727
1 0.370367 0.818998
1 0.396628 0.837247
1 0.420951 0.84979
1 0.440604 0.859922
1 0.445151 0.862272
0.011841 0.10486 0.0311742
0.0123293 0.103792 0.0287022
0.0146639 0.102998 0.0275731
0.0267796 0.102235 0.0242618
0.0488899 0.0964065 0.0173495
0.0883497 0.0903487 0.00822461
0.173571 0.0767834 0.00172427
0.242908 0.0899977 0.00109865
0.313787 0.101045 0.000396735
0.409857 0.0972 0
0.51162 0.0938888 0
0.613001 0.0998245 0
0.705699 0.109102 0
0.810391 0.117494 0
0.902754 0.123171 3.0518e-05
0.973846 0.126406 0.00294499
1 0.124224 0.0247654
1 0.103319 0.0767376
1 0.0444953 0.132448
1 0.0552529 0.226505
1 0.106661 0.322515
1 0.164279 0.417777
1 0.230579 0.52314
1 0.265232 0.608087
1 0.274891 0.672206
1 0.290776 0.722774
1 0.313771 0.762036
1 0.341207 0.795727
1 0.370367 0.818998
1 0.396612 0.837247
1 0.420935 0.84979
1 0.440604 0.859922
1 0.445151 0.862272
0.0176699 0.14815 0.0407263
0.0185855 0.146746 0.0365454
0.0192111 0.144808 0.0330663
0.0192721 0.14258 0.0312963
0.0275731 0.14023 0.027985
0.0635538 0.130983 0.014847
0.115908 0.121279 0.0016022
0.214786 0.113176 9.15541e-05
0.319097 0.123186 0.000747692
0.401984 0.129442 0
0.48333 0.123629 0
0.58172 0.114046 0
0.686336 0.112749 0
0.786175 0.117266 0
0.874922 0.124529 0
0.961273 0.128771 0
0.999237 0.129686 0.00590524
1 0.118685 0.0458991
1 0.0725567 0.103075
1 0.0416724 0.181079
1 0.0815595 0.280232
1 0.138003 0.374655
1 0.203494 0.48069
1 0.260075 0.579782
1 0.271458 0.650324
1 0.285054 0.707103
1 0.31223 0.760311
1 0.341207 0.795727
1 0.370367 0.818998
1 0.396612 0.837247
1 0.420935 0.84979
1 0.440604 0.859922
1 0.445151 0.862272
0.0239719 0.199985 0.054551
0.0247196 0.198474 0.0509194
0.0257115 0.19617 0.0458381
0.0261387 0.193103 0.042237
0.0256809 0.189227 0.0413519
0.0382391 0.185504 0.036347
0.0897231 0.171756 0.0177615
0.149828 0.160082 0.00177005
0.266133 0.152239 0
0.395712 0.159197 1.5259e-05
0.494942 0.161059 7.62951e-05
0.57496 0.152758 0
0.665095 0.136049 0
0.766461 0.125429 0
0.852567 0.123812 0
0.931807 0.129686 0
0.993637 0.133059 0
1 0.129473 0.0155642
1 0.105409 0.074052
1 0.0442664 0.132647
1 0.0561837 0.229572
1 0.111482 0.330404
1 0.170748 0.428275
1 0.235843 0.533104
1 0.267338 0.616098
1 0.277272 0.677577
1 0.297581 0.732845
1 0.32987 0.783627
1 0.369253 0.818219
1 0.396612 0.837247
1 0.420935 0.84979
1 0.440589 0.859922
1 0.445151 0.862272
0.031693 0.26334 0.071397
0.0321355 0.261814 0.0687572
0.0328985 0.259525 0.0645304
0.0340581 0.255833 0.0579538
0.0339818 0.251209 0.0549935
0.03299 0.243717 0.0532998
0.0559396 0.239033 0.0447089
0.118502 0.222324 0.0224155
0.192233 0.208988 0.00260929
0.328511 0.200183 0
0.468894 0.204959 0.0021973
0.585931 0.204883 0.00411994
0.677073 0.188342 0
0.764004 0.163439 0
0.844495 0.137621 0
0.911284 0.129229 0
0.966567 0.1337 0
1 0.135195 0.00158694
1 0.123247 0.0358892
1 0.0856336 0.0989395
1 0.0350195 0.168872
1 0.0817121 0.280201
1 0.140948 0.379522
1 0.205646 0.483803
1 0.258976 0.577539
1 0.272038 0.642985
1 0.284108 0.696635
1 0.304967 0.746334
1 0.338247 0.788998
1 0.37435 0.822003
1 0.411154 0.844388
1 0.440589 0.859922
1 0.445151 0.862272
0.0404212 0.335683 0.0909438
0.04065 0.3346 0.0893873
0.0410315 0.332494 0.0865644
0.0420233 0.329244 0.0808576
0.0434577 0.323995 0.072221
0.0428931 0.316899 0.0693065
0.0415198 0.305348 0.0667124
0.0800641 0.300542 0.0530709
0.154772 0.281224 0.0270085
0.24564 0.267094 0.00296025
0.394827 0.258289 0
0.541726 0.256855 0.00457771
0.674067 0.257694 0.0132448
0.780835 0.231022 0.000991836
0.852094 0.195911 0
0.915526 0.151324 0
0.96733 0.135698 0
0.995224 0.137484 0
1 0.135195 0.00784314
1 0.116411 0.0516976
1 0.0566415 0.112444
1 0.0517739 0.216449
1 0.109758 0.32781
1 0.171786 0.429908
1 0.234119 0.530663
1 0.264408 0.607553
1 0.277195 0.664454
1 0.290929 0.711131
1 0.313741 0.753552
1 0.339071 0.787533
1 0.365484 0.811688
1 0.390768 0.831891
1 0.404227 0.84097
0.0491035 0.411765 0.113207
0.0491035 0.411749 0.113207
0.049546 0.409705 0.110231
0.0501869 0.406806 0.105974
0.0515297 0.402029 0.0979629
0.0531472 0.394583 0.0871748
0.0519875 0.384207 0.0840314
0.0502937 0.371283 0.081178
0.107408 0.365911 0.0614328
0.201755 0.343877 0.0298009
0.308598 0.331243 0.00309758
0.464332 0.324132 0
0.617166 0.311681 0.00865187
0.753948 0.317678 0.0227817
0.857923 0.279911 0.00479133
0.926253 0.233494 0
0.97583 0.17261 0
0.997375 0.140215 0
1 0.139422 0
1 0.134295 0.00935378
1 0.111192 0.0601663
1 0.0520638 0.136614
1 0.0700847 0.256138
1 0.135012 0.369696
1 0.201419 0.477058
1 0.253437 0.567147
1 0.272389 0.631144
1 0.28304 0.680125
1 0.300526 0.722957
1 0.319158 0.757473
1 0.339849 0.783047
1 0.357351 0.803235
1 0.363867 0.81004
0.0577554 0.493462 0.139483
0.0577554 0.493462 0.139483
0.0578775 0.492927 0.138705
0.0585184 0.489845 0.13431
0.0594644 0.485603 0.128054
0.0611734 0.478477 0.117144
0.063386 0.468589 0.102602
0.0616312 0.45539 0.0995956
0.0652323 0.441001 0.0946517
0.142519 0.433051 0.0677958
0.258762 0.407477 0.0306554
0.377386 0.397818 0.00317388
0.539086 0.392782 0
0.692515 0.370031 0.0128176
0.817823 0.377691 0.0259403
0.914992 0.338628 0.0244144
0.980713 0.275349 0.00149538
0.999847 0.196796 0
1 0.143496 0
1 0.14023 0
1 0.134783 0.00816358
1 0.10837 0.0606241
1 0.0494087 0.158785
1 0.0891737 0.292134
1 0.158999 0.408896
1 0.221775 0.511238
1 0.260838 0.589364
1 0.277012 0.645045
1 0.291829 0.691341
1 0.307195 0.727993
1 0.324102 0.756024
1 0.338369 0.778271
1 0.342824 0.784665
0.0663462 0.582116 0.170748
0.0663462 0.582101 0.170748
0.0663462 0.582101 0.170748
0.0666209 0.580453 0.168643
0.0675669 0.575814 0.162158
0.0690013 0.569558 0.152773
0.0720684 0.558953 0.134722
0.074052 0.54725 0.119677
0.0719158 0.53138 0.116213
0.0834211 0.515694 0.1084
0.190188 0.50338 0.0713664
0.324666 0.474937 0.0305333
0.449882 0.46746 0.00315862
0.616297 0.464317 0
0.76257 0.432181 0.0049897
0.870069 0.438224 0.0447242
0.951278 0.40145 0.0679789
0.995041 0.324926 0.0135195
1 0.226398 0.000320439
1 0.153643 0
1 0.140063 0
1 0.136538 0.00395209
1 0.108949 0.0558175
1 0.0393378 0.168872
1 0.105577 0.320592
1 0.176028 0.436545
1 0.23917 0.536706
1 0.271077 0.604166
1 0.285695 0.653864
1 0.29897 0.694194
1 0.313237 0.726223
1 0.32549 0.751156
1 0.328984 0.757641
0.0741131 0.671077 0.205158
0.0741131 0.671077 0.205158
0.0741131 0.671077 0.205158
0.0741131 0.671061 0.205158
0.0747082 0.667933 0.20087
0.0760357 0.661967 0.192142
0.0784619 0.652644 0.177157
0.0827497 0.640345 0.153719
0.0847944 0.62652 0.137026
0.0824445 0.609232 0.133242
0.114122 0.593759 0.11902
0.251484 0.576043 0.0729381
0.397024 0.547631 0.0310979
0.524773 0.540536 0.00337224
0.694972 0.538643 0
0.822965 0.500786 6.10361e-05
0.914992 0.489662 0.046067
0.960403 0.457465 0.110979
0.991287 0.384222 0.0563363
1 0.277668 0.00828565
1 0.177615 0
1 0.141878 0
1 0.138613 0
1 0.121279 0.0437476
1 0.041062 0.173693
1 0.111513 0.327886
1 0.184344 0.446983
1 0.243717 0.540795
1 0.278309 0.609125
1 0.292805 0.655268
1 0.30544 0.691127
1 0.316152 0.718425
1 0.318746 0.725841
0.0791028 0.74992 0.242252
0.0791028 0.74992 0.242252
0.0791028 0.74992 0.242252
0.0791028 0.74992 0.242237
0.0791028 0.749905 0.242237
0.0801709 0.745617 0.235554
0.0824292 0.738247 0.222583
0.0867933 0.726513 0.199191
0.0919966 0.7149 0.172946
0.0947585 0.700191 0.153124
0.0924544 0.683116 0.149401
0.151415 0.66981 0.127092
0.327382 0.647196 0.0709392
0.475044 0.618479 0.0318761
0.602502 0.615045 0.0037995
0.764431 0.614038 0
0.873625 0.575891 0
0.957427 0.529335 0.0306859
0.960906 0.50309 0.109133
0.972137 0.445228 0.117479
0.991348 0.360922 0.0475013
0.998825 0.247044 0.0111391
1 0.16289 3.0518e-05
1 0.140047 0
1 0.124132 0.0368811
1 0.0779126 0.161807
1 0.102571 0.309651
1 0.182071 0.4365
1 0.250324 0.537148
1 0.284703 0.602106
1 0.301137 0.648325
1 0.311528 0.68014
1 0.31371 0.687816
0.0802319 0.813687 0.282445
0.0802319 0.813687 0.282429
0.0802319 0.813687 0.282429
0.0802319 0.813672 0.282429
0.0802319 0.813672 0.282429
0.0802319 0.813672 0.282429
0.0825513 0.808316 0.270588
0.0865187 0.79939 0.250584
0.0932479 0.7879 0.219104
0.100069 0.777447 0.188022
0.103273 0.763149 0.166888
0.104967 0.748074 0.162402
0.205921 0.737102 0.127123
0.414038 0.710857 0.0632944
0.550973 0.686091 0.0331884
0.676768 0.684291 0.00410468
0.820813 0.686076 0
0.919203 0.64181 0
0.985489 0.57499 0.0068513
0.974563 0.532906 0.0622263
0.961242 0.498833 0.123583
0.975387 0.443091 0.110979
0.987915 0.353216 0.0512245
0.999557 0.231403 0.0131685
1 0.152514 0
1 0.129229 0.025452
1 0.11075 0.114977
1 0.0953536 0.28188
1 0.177508 0.408759
1 0.241093 0.50692
1 0.278721 0.572992
1 0.308659 0.626337
1 0.311498 0.635477
0.0772106 0.858366 0.323903
0.0772106 0.858366 0.323903
0.0772106 0.858366 0.323903
0.0772106 0.858366 0.323903
0.0772106 0.858351 0.323903
0.0772106 0.858351 0.323903
0.0772106 0.858351 0.323888
0.0814527 0.852766 0.30518
0.0883345 0.843503 0.274754
0.0978408 0.834195 0.235035
0.107164 0.824704 0.195972
0.109957 0.812436 0.177676
0.121431 0.801404 0.171099
0.282139 0.792309 0.117235
0.501793 0.762661 0.059144
0.623728 0.746166 0.0346838
0.742458 0.745205 0.00502022
0.866331 0.749462 0
0.950225 0.711818 0
0.992584 0.647929 0
0.989715 0.583902 0.0195926
0.977493 0.535775 0.065156
0.965011 0.506645 0.105699
0.975891 0.444312 0.103883
0.988251 0.32781 0.0641031
1 0.181415 0
1 0.140063 0.00416571
1 0.128679 0.0547341
1 0.137819 0.181659
1 0.15349 0.331838
1 0.214023 0.432868
1 0.265217 0.509728
1 0.278737 0.530632
0.072755 0.883803 0.365454
0.072755 0.883803 0.365454
0.072755 0.883803 0.365454
0.072755 0.883803 0.365454
0.072755 0.883803 0.365454
0.072755 0.883803 0.365454
0.072755 0.883803 0.365454
0.0727703 0.883803 0.365454
0.0786908 0.878416 0.337713
0.0880751 0.871153 0.296574
0.100114 0.863233 0.247303
0.112627 0.854734 0.197665
0.114595 0.846754 0.185183
0.154208 0.840085 0.170687
0.378073 0.833173 0.104768
0.586999 0.800107 0.0570687
0.690455 0.798428 0.0387579
0.797299 0.795895 0.00695811
0.905669 0.802274 0
0.964981 0.776883 0
0.987945 0.73257 0.0009308
0.995575 0.664469 0.00689708
0.99234 0.610376 0.0115969
0.98294 0.551293 0.0466316
0.970321 0.513588 0.0842145
0.965118 0.447303 0.127886
0.995758 0.281849 0.0191196
1 0.214115 0.00563058
1 0.155932 0.0184634
1 0.159518 0.0537728
1 0.172992 0.131701
1 0.19089 0.244099
1 0.195178 0.27422
0.0712749 0.896315 0.40444
0.0712749 0.896315 0.40444
0.0712749 0.896315 0.40444
0.0712749 0.896315 0.40444
0.0712749 0.896315 0.40444
0.0712749 0.896315 0.40444
0.0712749 0.896315 0.40444
0.0712749 0.896315 0.404425
0.0712749 0.896315 0.404425
0.0788739 0.891127 0.36582
0.0900435 0.884764 0.314275
0.104082 0.877455 0.253635
0.116457 0.870344 0.19704
0.119554 0.86598 0.188754
0.210605 0.864668 0.16228
0.486854 0.858274 0.0896773
0.66331 0.829114 0.0502174
0.750469 0.839399 0.0426795
0.844602 0.837171 0.00640879
0.934096 0.842359 0
0.9682 0.830823 0.000167849
0.978683 0.809415 0.002533
0.986053 0.765805 0.0099031
0.992126 0.709163 0.00762951
0.995636 0.642847 0.0059205
0.991119 0.569207 0.0128023
0.969985 0.529442 0.0894636
0.983261 0.438895 0.0504921
0.989197 0.36556 0.0654917
0.992477 0.280018 0.0413672
1 0.21706 0.00259403
1 0.220295 0.0160525
1 0.220386 0.019379
0.0695659 0.902495 0.440391
0.0695659 0.902495 0.440391
0.0695659 0.902495 0.440391
0.0695659 0.902495 0.440391
0.0695659 0.902495 0.440391
0.0695659 0.902495 0.440391
0.0695659 0.902495 0.440391
0.0695659 0.902495 0.440375
0.0695659 0.902495 0.440375
0.0695659 0.902495 0.440375
0.0802625 0.897169 0.389593
0.0948043 0.890501 0.325795
0.11165 0.882979 0.25185
0.122698 0.876768 0.1953
0.135393 0.875532 0.189822
0.317723 0.879118 0.14229
0.595178 0.862181 0.0805066
0.727245 0.856641 0.0444953
0.803738 0.867781 0.032517
0.887449 0.867369 0.00296025
0.948669 0.869718 1.5259e-05
0.965606 0.866468 0
0.970092 0.857633 0.0012665
0.97435 0.838163 0.0033875
0.979889 0.808286 0.00988785
0.98732 0.759014 0.00941482
0.993622 0.6878 0.00563058
0.987762 0.636149 0.0268101
0.987869 0.553872 0.0250248
0.984268 0.503914 0.0632029
0.965515 0.474845 0.130205
0.969238 0.421302 0.106081
0.971267 0.406027 0.0959335
0.0663005 0.906432 0.474952
0.0663005 0.906432 0.474952
0.0663005 0.906432 0.474952
0.0663005 0.906432 0.474952
0.0663005 0.906432 0.474952
0.0663005 0.906432 0.474952
0.0663005 0.906432 0.474952
0.0663005 0.906432 0.474937
0.0663005 0.906432 0.474937
0.0663005 0.906432 0.474937
0.0668803 0.906157 0.472068
0.0810101 0.900023 0.408988
0.100359 0.892271 0.328634
0.120623 0.884031 0.243
0.128405 0.879561 0.198932
0.178866 0.880659 0.185046
0.459113 0.887098 0.113359
0.686641 0.863493 0.0687114
0.778332 0.876402 0.0469062
0.851118 0.885176 0.0224613
0.920241 0.886137 0.00196841
0.954681 0.886625 3.0518e-05
0.96141 0.885359 0
0.963378 0.880995 0.000488289
0.966125 0.87277 0.00030518
0.96965 0.860456 0.00213626
0.974319 0.837888 0.00459297
0.980087 0.803967 0.00488289
0.986099 0.767254 0.00813306
0.98999 0.706401 0.00596628
0.996765 0.652857 0.00158694
0.990814 0.62089 0.029572
0.986847 0.614374 0.0434577
0.0618448 0.909499 0.506462
0.0618448 0.909499 0.506462
0.0618448 0.909499 0.506462
0.0618448 0.909499 0.506462
0.0618448 0.909499 0.506462
0.0618448 0.909499 0.506462
0.0618448 0.909499 0.506462
0.0618448 0.909499 0.506462
0.0618448 0.909499 0.506447
0.0618448 0.909499 0.506447
0.0618448 0.909499 0.506447
0.064332 0.908522 0.496086
0.0815137 0.901564 0.422873
0.106584 0.892073 0.322454
0.12932 0.882963 0.226383
0.13611 0.88072 0.201648
0.279255 0.885222 0.164096
0.595941 0.878019 0.0992142
0.755322 0.876967 0.0581369
0.822538 0.888869 0.0407111
0.892088 0.895155 0.0110018
0.940383 0.896895 0.000717174
0.956329 0.896178 0
0.958099 0.895109 0
0.958984 0.892638 9.15541e-05
0.960601 0.888472 6.10361e-05
0.962631 0.88307 0.00047303
0.965148 0.874479 0.0019379
0.967865 0.867018 0.00137331
0.971557 0.849119 0.0027924
0.974456 0.837064 0.00408942
0.977981 0.815335 0.00341802
0.979492 0.803922 0.00254826
0.0556802 0.912077 0.533562
0.0556802 0.912077 0.533562
0.0556802 0.912077 0.533562
0.0556802 0.912077 0.533562
0.0556802 0.912077 0.533562
0.0556802 0.912077 0.533562
0.0556802 0.912077 0.533562
0.0556802 0.912077 0.533562
0.0556802 0.912077 0.533562
0.0556802 0.912077 0.533562
0.0556802 0.912077 0.533562
0.0556802 0.912077 0.533562
0.0619211 0.909758 0.509056
0.0824445 0.902098 0.427863
0.113695 0.890501 0.305196
0.135897 0.881468 0.209766
0.175341 0.882261 0.194766
0.456016 0.891707 0.124071
0.707042 0.870802 0.0829328
0.805478 0.888304 0.0537118
0.863645 0.89601 0.0280461
0.922591 0.900481 0.00637827
0.950545 0.902525 0.0061799
0.956466 0.901335 0.000976577
0.956298 0.900252 0
0.956497 0.898985 0
0.957229 0.897017 0
0.958251 0.894423 0.000228885
0.959197 0.892058 0.000228885
0.960708 0.88809 0.000183108
0.962051 0.884611 0.000488289
0.963455 0.880034 0.000915541
0.964096 0.87747 0.00114443
0.0491951 0.914519 0.559365
0.0491951 0.914519 0.559365
0.0491951 0.914519 0.559365
0.0491951 0.914519 0.559365
0.0491951 0.914519 0.559365
0.0491951 0.914519 0.559365
0.0491951 0.914519 0.559365
0.0491951 0.914519 0.559365
0.0492103 0.914519 0.559365
0.0492103 0.914519 0.559365
0.0492103 0.914519 0.559365
0.0492103 0.914519 0.55935
0.0492103 0.914519 0.55935
0.0602884 0.910414 0.515862
0.0845655 0.901473 0.421164
0.121721 0.887709 0.275502
0.137423 0.881056 0.205447
0.3093 0.886915 0.162768
0.632731 0.874144 0.104723
0.781811 0.884855 0.0681163
0.845151 0.894636 0.0384222
0.899779 0.900145 0.0170291
0.941756 0.903304 0.00383001
0.955093 0.905318 0.0137789
0.956268 0.903944 0.00376898
0.95555 0.902892 0.000335698
0.955383 0.902098 0
0.955627 0.901213 0
0.955871 0.90042 0
0.956344 0.899199 0
0.956634 0.898482 0
0.957153 0.897169 7.62951e-05
0.957458 0.896406 0.00015259
0.042359 0.917067 0.586404
0.042359 0.917067 0.586404
0.042359 0.917067 0.586404
0.042359 0.917067 0.586404
0.042359 0.917067 0.586404
0.042359 0.917067 0.586404
0.042359 0.917067 0.586404
0.042359 0.917067 0.586404
0.042359 0.917067 0.586404
0.042359 0.917067 0.586404
0.042359 0.917067 0.586404
0.042359 0.917067 0.586404
0.042359 0.917067 0.586404
0.042359 0.917067 0.586389
0.0599374 0.910536 0.517266
0.0899062 0.899535 0.400549
0.128359 0.885222 0.249149
0.191333 0.884184 0.205768
0.52575 0.885374 0.120562
0.747738 0.878172 0.0779278
0.827314 0.892714 0.050721
0.880003 0.898375 0.0199283
0.927108 0.902892 0.0124514
0.951553 0.904799 0.00627146
0.956695 0.906661 0.0211643
0.956161 0.90547 0.0112764
0.955367 0.904524 0.00529488
0.955093 0.903929 0.00230411
0.955062 0.903487 0.000381476
0.955169 0.902968 0
0.9552 0.902678 0
0.955337 0.902266 0
0.955413 0.902083 0
0.0361486 0.919493 0.611978
0.0361486 0.919509 0.611978
0.0361486 0.919509 0.611978
0.0361486 0.919493 0.611978
0.0361486 0.919493 0.611978
0.0361486 0.919493 0.611978
0.0361486 0.919493 0.611978
0.0361486 0.919493 0.611978
0.0361486 0.919493 0.611978
0.0361486 0.919493 0.611978
0.0361486 0.919493 0.611978
0.0361486 0.919493 0.611978
0.0361486 0.919493 0.611978
0.0361486 0.919493 0.611978
0.0361486 0.919493 0.611963
0.0615244 0.909972 0.511269
0.0999466 0.895842 0.361547
0.137011 0.887953 0.271641
0.385153 0.893309 0.18674
0.69453 0.872679 0.107851
0.809674 0.890272 0.0644694
0.863661 0.896788 0.0243839
0.909529 0.901442 0.0173342
0.944427 0.904463 0.00906386
0.955566 0.905669 0.010605
0.956909 0.907271 0.026215
0.956008 0.906371 0.018265
0.955367 0.905608 0.0113832
0.955215 0.905196 0.0080415
0.955169 0.90483 0.00622568
0.955108 0.904601 0.0043946
0.955123 0.904372 0.00425727
0.955139 0.904295 0.00425727
0.0312047 0.921813 0.635889
0.0312047 0.921813 0.635889
0.0312047 0.921813 0.635889
0.0312047 0.921813 0.635889
0.0312047 0.921813 0.635889
0.0312047 0.921813 0.635889
0.0312047 0.921813 0.635889
0.0312047 0.921813 0.635889
0.0312047 0.921813 0.635889
0.0312047 0.921813 0.635889
0.0312047 0.921813 0.635889
0.0312047 0.921813 0.635889
0.0312047 0.921813 0.635889
0.0312047 0.921813 0.635889
0.0312047 0.921813 0.635889
0.0383764 0.918608 0.602579
0.0672923 0.907866 0.488945
0.105623 0.895491 0.355947
0.279179 0.897658 0.300893
0.609064 0.887343 0.188006
0.790433 0.889616 0.108278
0.849332 0.896361 0.0465095
0.895598 0.900191 0.0207218
0.93283 0.903593 0.0131075
0.952117 0.905241 0.00946059
0.956725 0.906493 0.0174716
0.956695 0.907546 0.0292668
0.955901 0.906828 0.0222629
0.955657 0.906783 0.0225376
0.95552 0.906355 0.0187076
0.955398 0.905898 0.0136263
0.955352 0.905699 0.0121614
0.955337 0.905623 0.0115816
0.0272984 0.924025 0.658427
0.0272984 0.924025 0.658427
0.0272984 0.924025 0.658427
0.0272984 0.924025 0.658427
0.0272984 0.924025 0.658427
0.0272984 0.924025 0.658427
0.0272984 0.924025 0.658427
0.0272984 0.924025 0.658427
0.0272984 0.924025 0.658427
