Log3G10_RWG_to_Provia.cube
TITLE "Generated by Resolve"
LUT_3D_SIZE 5
0.0164645 0.0171817 0.0188907
0.428428 0.0677806 0.071397
1 0.20061 0.462531
1 0.396612 0.975464
1 0.389319 1
0 0.285084 0.000457771
0.152071 0.207858 0
1 0.17174 0.201831
1 0.0694591 0.914977
1 0.389319 1
0 0.955261 0.111971
0 0.944533 0.0489662
0.725368 0.800732 0.00968948
1 0.353017 0.211124
1 0.0325933 0.874327
0 0.992157 0.476997
0 0.992157 0.476997
0 0.996155 0.0136416
1 0.957336 0
1 0.952712 0
0 0.990402 0.669184
0 0.990402 0.669184
0 0.990402 0.669184
0.937133 0.975677 0
1 0.967254 0
0.0543069 0.12668 0.487861
0.400519 0.0874495 0.403967
1 0.207431 0.543328
1 0.396597 0.975464
1 0.389319 1
0 0.209476 0.231891
0.180529 0.179721 0.213794
1 0.177218 0.236057
1 0.101549 0.918517
1 0.389319 1
0 0.954833 0.11133
0 0.944106 0.0494545
0.726024 0.799558 0.0087129
1 0.348821 0.210956
1 0.0307317 0.876631
0 0.992157 0.476936
0 0.992157 0.476936
0 0.996155 0.0138857
1 0.957336 0
1 0.952712 0
0 0.990402 0.669184
0 0.990402 0.669184
0 0.990402 0.669184
0.93724 0.975662 0
1 0.967254 0
0.0403296 0.391608 1
0.419837 0.260349 1
1 0.228641 1
1 0.237659 1
1 0.389319 1
0.0413062 0.386694 1
0.281071 0.308888 1
1 0.224826 1
1 0.237598 1
1 0.389319 1
0 0.869947 0.973693
0 0.851728 0.963607
0.723934 0.735805 0.796735
1 0.263401 0.512337
1 0.0451514 0.897444
0 0.992172 0.476158
0 0.992172 0.476143
0 0.996139 0.014725
1 0.95729 0
1 0.952621 0
0 0.990402 0.669184
0 0.990402 0.669184
0 0.990402 0.669184
0.936889 0.975708 0
1 0.967254 0
0.0406043 0.47483 1
0.0389105 0.471824 1
1 0.240772 1
1 0.238758 1
1 0.238758 1
0.0405432 0.474662 1
0.0401617 0.473976 1
1 0.240803 1
1 0.238758 1
1 0.238758 1
0 0.761761 1
0 0.761685 1
0.827756 0.487694 1
1 0.238758 1
1 0.238758 1
0 1 1
0 1 1
0 0.999649 1
0.985626 0.990311 0.973526
1 0.972473 0.962997
0 0.986587 0.957794
0 0.986557 0.957427
0 0.986099 0.95317
0.869902 0.999756 0.567163
1 0.964233 0
0.135729 0.655177 1
0.135729 0.655177 1
1 0.320012 1
1 0.238758 1
1 0.238758 1
0.135729 0.655177 1
0.135729 0.655177 1
1 0.321294 1
1 0.238758 1
1 0.238758 1
0.135729 0.655177 1
0.135729 0.655177 1
1 0.340932 1
1 0.238758 1
1 0.238758 1
0 1 1
0 1 1
0 0.999786 1
0.988495 0.982437 0.999435
1 0.948455 1
0 1 1
0 1 1
0 1 1
0.872389 0.994186 0.982147
0.99765 0.999496 0.988312
