Log3G10_RWG_to_Eterna.cube
TITLE "Generated by Resolve"
LUT_3D_SIZE 33
0.045182 0.0437629 0.0445106
0.0529946 0.0445563 0.0446784
0.0647898 0.0458991 0.0452583
0.0823835 0.0476692 0.0467536
0.109789 0.0504768 0.0500801
0.16112 0.0564584 0.0563211
0.225757 0.0635691 0.0656901
0.294026 0.0697185 0.0741894
0.363394 0.0859388 0.0875105
0.44625 0.106279 0.108629
0.540032 0.129381 0.137407
0.636927 0.153429 0.169482
0.733059 0.177646 0.205325
0.8168 0.200015 0.244114
0.892012 0.221836 0.289387
0.963623 0.244968 0.344442
0.998932 0.265385 0.406577
1 0.280934 0.470283
1 0.293217 0.529976
1 0.303243 0.585718
1 0.312551 0.644297
1 0.322835 0.710994
1 0.332647 0.774563
1 0.340887 0.828061
1 0.350683 0.868833
1 0.370062 0.902174
1 0.396429 0.93022
1 0.42475 0.953414
1 0.449821 0.968124
1 0.471656 0.979065
1 0.490684 0.985458
1 0.506065 0.990616
1 0.509621 0.991806
0.0441596 0.0507515 0.0430304
0.0502632 0.0498665 0.0419318
0.061677 0.0506447 0.042298
0.0802167 0.0508125 0.0425422
0.105547 0.0522011 0.0460212
0.154894 0.0582437 0.0537118
0.222782 0.0669871 0.0643015
0.29163 0.07364 0.0739605
0.363134 0.0860304 0.086183
0.441794 0.105058 0.105196
0.534676 0.127855 0.133028
0.631357 0.151827 0.164889
0.72752 0.175998 0.200855
0.81236 0.198444 0.239536
0.887694 0.220172 0.284184
0.959136 0.243183 0.338735
0.997803 0.263951 0.400809
1 0.279789 0.464546
1 0.292607 0.526741
1 0.303227 0.585595
1 0.312551 0.644297
1 0.322835 0.710994
1 0.332647 0.774563
1 0.340887 0.828061
1 0.350683 0.868833
1 0.370062 0.902159
1 0.396429 0.93022
1 0.42475 0.953414
1 0.449821 0.968124
1 0.471656 0.979065
1 0.490684 0.985458
1 0.506065 0.990616
1 0.509621 0.991806
0.042771 0.0612345 0.0415808
0.0480812 0.0603189 0.0408637
0.0579538 0.0589456 0.0387732
0.0796674 0.0570687 0.0389868
0.103151 0.0564431 0.0393072
0.143191 0.0591592 0.0473335
0.211124 0.0678111 0.0594339
0.283055 0.0778515 0.0721141
0.364477 0.0869764 0.085481
0.4383 0.103944 0.101076
0.528099 0.125994 0.127703
0.623682 0.149584 0.158465
0.719768 0.173709 0.19443
0.80618 0.196246 0.232929
0.881895 0.217868 0.276997
0.954467 0.240833 0.330816
0.996826 0.262074 0.392859
1 0.278157 0.456596
1 0.291173 0.519356
1 0.302113 0.578485
1 0.312108 0.641505
1 0.322835 0.710979
1 0.332631 0.774548
1 0.340887 0.828061
1 0.350683 0.868833
1 0.370062 0.902159
1 0.396429 0.93022
1 0.42475 0.953414
1 0.449821 0.968124
1 0.471656 0.979065
1 0.490684 0.985458
1 0.506065 0.990616
1 0.509621 0.991806
0.0401007 0.0756847 0.0394598
0.0448463 0.0747997 0.0390326
0.0522469 0.0716564 0.0374151
0.0681315 0.0707256 0.0342412
0.103105 0.0669108 0.0347601
0.131121 0.0661021 0.0412451
0.188052 0.0709239 0.0513313
0.268101 0.0796674 0.0655985
0.354498 0.0912032 0.0820478
0.432532 0.102129 0.0947585
0.519036 0.123186 0.118669
0.614313 0.146654 0.149386
0.709331 0.170443 0.184268
0.797864 0.193118 0.222934
0.873793 0.21471 0.266835
0.947768 0.237613 0.319829
0.99498 0.259327 0.381598
1 0.275883 0.445335
1 0.289311 0.509544
1 0.300481 0.568551
1 0.310536 0.631266
1 0.321798 0.704219
1 0.332631 0.774548
1 0.340887 0.828061
1 0.350683 0.868833
1 0.370062 0.902159
1 0.396429 0.93022
1 0.42475 0.953414
1 0.449821 0.968124
1 0.471656 0.979065
1 0.490684 0.985458
1 0.506065 0.990616
1 0.509621 0.991806
0.0327916 0.0949569 0.0380102
0.03888 0.0947127 0.0380102
0.0466926 0.0936446 0.0375525
0.0590066 0.0888533 0.0355077
0.0817121 0.08748 0.031693
0.132753 0.0830243 0.0353399
0.17467 0.0835279 0.0450141
0.234791 0.0882124 0.0523995
0.325185 0.0937972 0.0646677
0.423346 0.104234 0.0851759
0.505241 0.118288 0.101472
0.59086 0.13904 0.125261
0.694728 0.165667 0.167941
0.783673 0.188571 0.207736
0.86183 0.210178 0.251621
0.936996 0.232822 0.303243
0.990234 0.255116 0.364599
1 0.272572 0.428931
1 0.286641 0.495048
1 0.298177 0.555306
1 0.308385 0.617365
1 0.319402 0.688731
1 0.330831 0.762844
1 0.340642 0.82649
1 0.350683 0.868833
1 0.370062 0.902159
1 0.396429 0.93022
1 0.42475 0.953414
1 0.449821 0.968124
1 0.471656 0.979065
1 0.490684 0.985458
1 0.506065 0.990616
1 0.509621 0.991806
0.0354162 0.125063 0.0365911
0.0350958 0.12401 0.0334936
0.0366674 0.123247 0.0324407
0.0482948 0.122179 0.0311589
0.0690623 0.116411 0.0293431
0.102922 0.111788 0.0250706
0.17406 0.10837 0.0349584
0.228443 0.109194 0.0489357
0.291691 0.113481 0.0512245
0.38114 0.11368 0.0562142
0.480308 0.117388 0.0751354
0.5785 0.134585 0.104143
0.662638 0.154681 0.129931
0.757687 0.180117 0.178408
0.844709 0.203571 0.227008
0.921798 0.22591 0.277882
0.982773 0.248646 0.338109
1 0.267445 0.403708
1 0.282002 0.470375
1 0.294286 0.53463
1 0.305165 0.597177
1 0.315923 0.666087
1 0.327855 0.743526
1 0.338231 0.810788
1 0.348821 0.863722
1 0.370047 0.902159
1 0.396429 0.93022
1 0.42475 0.953414
1 0.449821 0.968124
1 0.471641 0.979065
1 0.490684 0.985458
1 0.506065 0.990616
1 0.509621 0.991806
0.0467536 0.165209 0.0450141
0.0463417 0.163882 0.039765
0.0458228 0.162112 0.035462
0.045243 0.160098 0.0334173
0.0538796 0.158068 0.0316472
0.0882582 0.148959 0.0268864
0.130495 0.142184 0.0175784
0.21033 0.141421 0.0252384
0.296544 0.140887 0.049958
0.37467 0.145739 0.0603647
0.452857 0.146822 0.0692912
0.547005 0.144976 0.087953
0.643839 0.155169 0.120668
0.732006 0.171557 0.149111
0.811887 0.192187 0.184115
0.902495 0.217441 0.243137
0.973922 0.240711 0.303899
0.999863 0.260746 0.370428
1 0.276249 0.438361
1 0.288808 0.504891
1 0.300435 0.567864
1 0.31104 0.634516
1 0.323064 0.712383
1 0.334554 0.786877
1 0.343709 0.845945
1 0.362615 0.890486
1 0.394934 0.929015
1 0.424735 0.953414
1 0.449821 0.968124
1 0.471641 0.979065
1 0.490684 0.985458
1 0.506065 0.990616
1 0.509621 0.991806
0.0599374 0.21178 0.0578927
0.0595254 0.210391 0.0533608
0.0588846 0.20827 0.0470588
0.0580758 0.205509 0.0426947
0.0571603 0.202029 0.0419623
0.0702678 0.198856 0.0393225
0.116869 0.18587 0.0331884
0.162478 0.177859 0.0213931
0.255253 0.178439 0.0242313
0.371038 0.177752 0.0580911
0.466728 0.182681 0.0792554
0.541711 0.183413 0.0921035
0.622278 0.174319 0.101015
0.710948 0.173968 0.129412
0.789181 0.185397 0.164263
0.864103 0.204791 0.198779
0.955993 0.231189 0.262074
0.997574 0.253162 0.332586
1 0.270054 0.403433
1 0.282994 0.471107
1 0.294667 0.536416
1 0.306035 0.602838
1 0.317113 0.673793
1 0.32903 0.751141
1 0.339254 0.817395
1 0.351949 0.867628
1 0.37789 0.909178
1 0.414069 0.945113
1 0.448905 0.967651
1 0.471641 0.979065
1 0.490669 0.985458
1 0.506065 0.990616
1 0.509621 0.991806
0.0764782 0.270191 0.0738842
0.076051 0.268772 0.0706188
0.0753948 0.26659 0.0653849
0.0743572 0.263096 0.0572213
0.0731212 0.258793 0.0538338
0.0711528 0.251789 0.0523079
0.0947738 0.247486 0.0481117
0.148409 0.230823 0.0419776
0.201526 0.222232 0.0272831
0.312657 0.224094 0.029633
0.445624 0.224063 0.0784466
0.556313 0.227726 0.105501
0.634409 0.223453 0.112688
0.706615 0.20853 0.117678
0.775982 0.192386 0.137423
0.841581 0.197726 0.176974
0.9122 0.216648 0.214832
0.985199 0.242664 0.280415
1 0.262486 0.360952
1 0.27628 0.4309
1 0.288029 0.499519
1 0.300404 0.568078
1 0.311589 0.638071
1 0.3234 0.714641
1 0.334279 0.785138
1 0.344137 0.839414
1 0.360952 0.882033
1 0.387442 0.918563
1 0.421302 0.948302
1 0.45359 0.969924
1 0.482979 0.982559
1 0.50605 0.990616
1 0.509621 0.991806
0.0971084 0.343114 0.0936904
0.0967727 0.34197 0.0918288
0.0961318 0.339773 0.088365
0.0951247 0.33637 0.0812695
0.0935073 0.330861 0.0704814
0.0914168 0.323537 0.067216
0.0883345 0.311879 0.0647593
0.127169 0.306966 0.0584726
0.186725 0.287648 0.0518196
0.250599 0.277119 0.0338903
0.377844 0.279744 0.034699
0.51873 0.27686 0.093904
0.639002 0.276478 0.127794
0.723995 0.266423 0.133135
0.782284 0.245319 0.133455
0.837858 0.211643 0.140093
0.895979 0.210727 0.184665
0.95671 0.227756 0.226993
0.998245 0.24979 0.292287
1 0.267948 0.380575
1 0.280156 0.452247
1 0.292988 0.527321
1 0.305776 0.600763
1 0.317296 0.674998
1 0.328771 0.749401
1 0.33846 0.810376
1 0.351339 0.856611
1 0.369848 0.892439
1 0.396567 0.922957
1 0.422415 0.946685
1 0.44564 0.962631
1 0.466972 0.975448
1 0.477806 0.980865
0.120455 0.425574 0.117693
0.120439 0.425574 0.117693
0.119799 0.423346 0.114168
0.118898 0.420233 0.109041
0.117372 0.415076 0.0991379
0.115007 0.406989 0.0856947
0.111772 0.39556 0.0821851
0.10782 0.381384 0.0792248
0.163912 0.375494 0.0704814
0.234089 0.352468 0.0640574
0.310765 0.341787 0.0409094
0.450767 0.346258 0.0391394
0.590036 0.336416 0.101518
0.713115 0.330999 0.141009
0.794507 0.31043 0.145129
0.851789 0.28368 0.14493
0.901152 0.238666 0.144869
0.948653 0.221164 0.185092
0.986206 0.236774 0.240055
1 0.254688 0.305135
1 0.270176 0.390433
1 0.283253 0.47068
1 0.297765 0.552895
1 0.310491 0.631052
1 0.322637 0.709682
1 0.333135 0.777203
1 0.344121 0.82919
1 0.359106 0.868559
1 0.381231 0.900114
1 0.402487 0.925002
1 0.422568 0.942794
1 0.439124 0.956741
1 0.444938 0.96141
0.145586 0.51426 0.146258
0.145586 0.51426 0.146258
0.145418 0.513695 0.145388
0.144472 0.51046 0.140246
0.143175 0.506004 0.132815
0.140963 0.498451 0.119615
0.137881 0.487984 0.101534
0.133867 0.473762 0.0984207
0.135409 0.458137 0.0943465
0.207492 0.448981 0.0829938
0.290044 0.42153 0.0798199
0.380713 0.414054 0.0478065
0.52961 0.4215 0.0422675
0.657969 0.405371 0.0965286
0.773388 0.389838 0.150057
0.854475 0.360372 0.169314
0.91696 0.324544 0.168643
0.957916 0.269566 0.165652
0.988464 0.232319 0.196796
0.998611 0.243137 0.249012
1 0.255009 0.299825
1 0.27039 0.391608
1 0.286015 0.487007
1 0.301686 0.576928
1 0.314916 0.659648
1 0.326574 0.735134
1 0.338033 0.795132
1 0.350378 0.84033
1 0.36994 0.875776
1 0.388815 0.902876
1 0.406958 0.922911
1 0.421973 0.938735
1 0.426429 0.943282
0.170825 0.603311 0.178149
0.170825 0.603311 0.178149
0.170825 0.603296 0.178149
0.170367 0.60174 0.175906
0.169085 0.597314 0.168917
0.167315 0.591287 0.158267
0.164279 0.580987 0.136721
0.160967 0.569604 0.118334
0.156451 0.553643 0.115023
0.16643 0.537865 0.109697
0.259098 0.524315 0.0962844
0.354742 0.496101 0.0957809
0.45745 0.491463 0.0549172
0.607904 0.501717 0.0429236
0.720928 0.48481 0.0924544
0.827771 0.452232 0.168261
0.906065 0.41297 0.196429
0.957961 0.367224 0.193439
0.989609 0.300832 0.186496
0.999451 0.246586 0.203372
1 0.247166 0.255863
1 0.253635 0.288243
1 0.26981 0.38793
1 0.288167 0.499565
1 0.304967 0.596109
1 0.318059 0.679881
1 0.331304 0.753552
1 0.343511 0.805859
1 0.361151 0.845396
1 0.378119 0.876646
1 0.39498 0.900069
1 0.408972 0.918166
1 0.412757 0.922896
0.194369 0.686275 0.211307
0.194369 0.686275 0.211307
0.194369 0.686275 0.211307
0.194369 0.686259 0.211307
0.193545 0.683452 0.207095
0.191974 0.678035 0.197971
0.189502 0.669581 0.181888
0.18613 0.658244 0.154253
0.182361 0.645335 0.134081
0.177829 0.629252 0.130724
0.208194 0.615015 0.122957
0.318914 0.59736 0.10959
0.426307 0.572168 0.109178
0.536095 0.568612 0.0619821
0.682261 0.579889 0.043595
0.778393 0.562646 0.0939803
0.87689 0.515862 0.177752
0.937774 0.467018 0.218158
0.97258 0.413275 0.218357
0.995621 0.342962 0.207065
1 0.268849 0.204913
1 0.250248 0.255146
1 0.251316 0.272618
1 0.267338 0.372274
1 0.288151 0.499886
1 0.305913 0.602258
1 0.321569 0.687251
1 0.336507 0.756191
1 0.35436 0.808438
1 0.369558 0.845151
1 0.385122 0.872511
1 0.398169 0.892897
1 0.401358 0.898482
0.215015 0.758862 0.245487
0.215015 0.758862 0.245487
0.215015 0.758846 0.245472
0.215015 0.758846 0.245472
0.215015 0.758846 0.245472
0.213855 0.754879 0.2392
0.211887 0.74815 0.226841
0.208713 0.737438 0.202518
0.205493 0.726726 0.172107
0.201495 0.713039 0.148135
0.19707 0.697398 0.144884
0.2533 0.685664 0.134264
0.388815 0.66424 0.122255
0.502998 0.641718 0.122332
0.613352 0.641794 0.0677653
0.74815 0.651072 0.0418097
0.831769 0.635004 0.0927291
0.917113 0.581537 0.181888
0.954177 0.524697 0.229145
0.973846 0.463722 0.238666
0.991897 0.401999 0.227665
0.998383 0.321614 0.209125
1 0.263722 0.240711
1 0.251392 0.266651
1 0.26421 0.351522
1 0.284871 0.47747
1 0.306401 0.590661
1 0.32636 0.679026
1 0.347478 0.751537
1 0.364385 0.800671
1 0.3794 0.837247
1 0.39144 0.862074
1 0.394202 0.86807
0.232776 0.82118 0.281254
0.232776 0.82118 0.281254
0.232776 0.82118 0.281254
0.232776 0.82118 0.281254
0.232776 0.82118 0.281254
0.232776 0.82118 0.281239
0.231235 0.815946 0.271107
0.228702 0.807355 0.25304
0.225437 0.79646 0.221805
0.222339 0.786297 0.186221
0.21825 0.772305 0.160449
0.218143 0.75787 0.156893
0.309575 0.747951 0.141756
0.467323 0.721859 0.134737
0.577417 0.706706 0.132525
0.682719 0.706477 0.0719005
0.804334 0.714061 0.0408484
0.881483 0.699977 0.0941329
0.946242 0.651057 0.182513
0.968231 0.582208 0.224277
0.972107 0.523461 0.246509
0.980117 0.467033 0.242222
0.991043 0.397742 0.227878
0.998016 0.31104 0.230274
1 0.258122 0.249439
1 0.258915 0.31754
1 0.280873 0.43444
1 0.31043 0.567926
1 0.338552 0.658167
1 0.360235 0.728405
1 0.374853 0.777249
1 0.38677 0.81677
1 0.389502 0.824063
0.246403 0.868833 0.317067
0.246403 0.868833 0.317067
0.246403 0.868833 0.317067
0.246403 0.868833 0.317067
0.246403 0.868833 0.317067
0.246403 0.868833 0.317052
0.246403 0.868818 0.317052
0.244724 0.863233 0.301885
0.242008 0.854124 0.276036
0.2392 0.845029 0.23827
0.236179 0.835264 0.193347
0.232395 0.822385 0.170855
0.242863 0.810697 0.166476
0.378546 0.800961 0.147036
0.54789 0.770962 0.152438
0.645457 0.767117 0.135714
0.742977 0.763104 0.0776379
0.851743 0.768063 0.0420996
0.923964 0.757977 0.0931258
0.966934 0.717586 0.174441
0.979965 0.655894 0.214908
0.978012 0.593423 0.230518
0.973922 0.537789 0.244785
0.980514 0.471611 0.241199
0.989227 0.378454 0.233417
1 0.276524 0.224598
1 0.249378 0.25388
1 0.271427 0.359121
1 0.307179 0.481224
1 0.344457 0.601511
1 0.366369 0.673564
1 0.382391 0.727199
1 0.386282 0.741772
0.256855 0.89836 0.351812
0.256855 0.89836 0.351812
0.256855 0.89836 0.351812
0.256855 0.89836 0.351797
0.256855 0.89836 0.351797
0.256855 0.89836 0.351797
0.256855 0.89836 0.351797
0.25684 0.89836 0.351797
0.254459 0.892958 0.329717
0.25153 0.88603 0.296178
0.248753 0.878584 0.251057
0.245884 0.869718 0.194415
0.243153 0.860502 0.178759
0.282719 0.852857 0.171298
0.459953 0.843458 0.156634
0.626062 0.814084 0.166293
0.705699 0.819303 0.138109
0.794476 0.812146 0.0858015
0.894224 0.814832 0.0442969
0.95552 0.809369 0.0860456
0.981826 0.782742 0.161044
0.989517 0.733181 0.199207
0.985656 0.681376 0.214542
0.980331 0.617609 0.225666
0.975921 0.55314 0.240757
0.976394 0.471168 0.245335
0.996765 0.348424 0.216098
0.99939 0.296666 0.224201
1 0.264546 0.256977
1 0.287205 0.339513
1 0.313893 0.425406
1 0.344808 0.51754
1 0.352865 0.542519
0.267369 0.914717 0.384222
0.267369 0.914702 0.384222
0.267369 0.914702 0.384222
0.267369 0.914702 0.384222
0.267353 0.914702 0.384222
0.267353 0.914702 0.384207
0.267353 0.914702 0.384207
0.267353 0.914702 0.384207
0.267353 0.914702 0.384207
0.263813 0.909606 0.353521
0.260136 0.904036 0.312383
0.256504 0.897658 0.258366
0.252094 0.890181 0.193652
0.252445 0.884443 0.183536
0.337606 0.882002 0.174762
0.55375 0.869596 0.173556
0.692912 0.851118 0.167834
0.759106 0.862287 0.139437
0.840894 0.854795 0.0941176
0.929183 0.854734 0.0473487
0.977615 0.85362 0.0772564
0.992355 0.837919 0.135454
0.995132 0.806806 0.175387
0.992752 0.76614 0.192523
0.988785 0.714427 0.20705
0.982895 0.648066 0.218219
0.97615 0.574716 0.236774
0.985855 0.486244 0.231037
0.989624 0.404273 0.23125
0.993271 0.343252 0.218982
1 0.301839 0.215656
1 0.313344 0.261952
1 0.315648 0.27332
0.276005 0.923934 0.41442
0.276005 0.923934 0.41442
0.276005 0.923934 0.41442
0.276005 0.923934 0.41442
0.276005 0.923934 0.41442
0.276005 0.923934 0.41442
0.276005 0.923934 0.41442
0.27599 0.923934 0.41442
0.27599 0.923934 0.41442
0.27599 0.923934 0.414405
0.272129 0.918975 0.373571
0.268452 0.913787 0.32314
0.264073 0.907729 0.257877
0.25893 0.901167 0.192615
0.271595 0.898634 0.188785
0.423377 0.900313 0.180316
0.645579 0.88043 0.191516
0.747173 0.884047 0.157794
0.807324 0.893599 0.13193
0.884733 0.887953 0.0996719
0.952834 0.88571 0.0563058
0.988815 0.886671 0.0763867
0.998688 0.87924 0.112047
0.998047 0.861601 0.135134
0.996612 0.836835 0.158679
0.994842 0.801785 0.180285
0.991562 0.75111 0.19501
0.986526 0.69482 0.213397
0.981277 0.627787 0.220584
0.981003 0.557229 0.229358
0.975036 0.496712 0.247517
0.979675 0.454444 0.240314
0.981384 0.443824 0.237369
0.282475 0.929717 0.444389
0.282475 0.929717 0.444389
0.282475 0.929717 0.444389
0.282475 0.929717 0.444389
0.282475 0.929717 0.444389
0.282475 0.929717 0.444389
0.282475 0.929717 0.444389
0.282475 0.929717 0.444389
0.282475 0.929717 0.444389
0.282475 0.929717 0.444389
0.282231 0.929458 0.441917
0.278309 0.924376 0.389944
0.274693 0.918914 0.326589
0.270344 0.912596 0.249882
0.266011 0.907759 0.198856
0.314 0.90779 0.194614
0.538216 0.909514 0.188037
0.719844 0.89073 0.194781
0.789487 0.90721 0.15288
0.851652 0.914122 0.122927
0.921218 0.910018 0.106081
0.968383 0.90721 0.0690166
0.993286 0.908583 0.0806592
0.999756 0.904479 0.101381
0.999557 0.895033 0.109529
0.999329 0.881834 0.119432
0.998444 0.861753 0.136278
0.99678 0.834821 0.154421
0.995346 0.807599 0.176333
0.992096 0.761517 0.187991
0.989746 0.724788 0.201221
0.986191 0.685023 0.21413
0.984878 0.672099 0.217975
0.286687 0.933227 0.472587
0.286687 0.933227 0.472587
0.286687 0.933227 0.472587
0.286687 0.933227 0.472587
0.286687 0.933227 0.472587
0.286687 0.933227 0.472587
0.286687 0.933227 0.472587
0.286687 0.933227 0.472587
0.286687 0.933227 0.472587
0.286687 0.933227 0.472587
0.286687 0.933227 0.472587
0.286213 0.932509 0.463233
0.282536 0.927413 0.401709
0.278904 0.921309 0.322499
0.274311 0.914366 0.232715
0.274861 0.911742 0.204532
0.395361 0.915007 0.196979
0.651331 0.903197 0.212772
0.774151 0.911421 0.173312
0.826841 0.923018 0.146807
0.892103 0.926696 0.11989
0.947478 0.924056 0.115892
0.978775 0.921553 0.0839246
0.995422 0.922087 0.0858015
0.998932 0.91931 0.0965744
0.999695 0.913893 0.100481
0.999924 0.907073 0.103349
0.999542 0.897551 0.109789
0.999634 0.888457 0.11426
0.998947 0.872953 0.126329
0.998154 0.860624 0.137087
0.99707 0.843656 0.146502
0.996582 0.835828 0.149523
0.288228 0.935195 0.497307
0.288228 0.935195 0.497307
0.288228 0.935195 0.497307
0.288228 0.935195 0.497307
0.288228 0.935195 0.497307
0.288228 0.935195 0.497307
0.288228 0.935195 0.497307
0.288228 0.935195 0.497307
0.288228 0.935195 0.497307
0.288228 0.935195 0.497307
0.288228 0.935195 0.497292
0.288228 0.935195 0.497292
0.287388 0.933547 0.474983
0.284581 0.928435 0.406058
0.280781 0.92134 0.309209
0.276387 0.914382 0.21474
0.311421 0.915007 0.206531
0.53872 0.919249 0.202579
0.738155 0.90631 0.209949
0.814328 0.925338 0.159228
0.864286 0.932845 0.132433
0.925872 0.934203 0.119081
0.964736 0.932799 0.126665
0.985687 0.930877 0.0998856
0.996201 0.930632 0.0928664
0.998505 0.928832 0.0947127
0.999039 0.925795 0.0961166
0.999313 0.922118 0.0972915
0.999329 0.918669 0.0985275
0.999466 0.913542 0.10074
0.999802 0.909056 0.102617
0.999817 0.903807 0.10602
0.999649 0.901137 0.108293
0.289204 0.93698 0.521828
0.289204 0.93698 0.521828
0.289204 0.93698 0.521828
0.289204 0.93698 0.521828
0.289204 0.93698 0.521828
0.289204 0.93698 0.521828
0.289204 0.93698 0.521828
0.289204 0.93698 0.521828
0.289204 0.93698 0.521828
0.289204 0.93698 0.521828
0.289204 0.93698 0.521828
0.289204 0.93698 0.521828
0.289204 0.93698 0.521828
0.287694 0.934005 0.481132
0.284718 0.92813 0.400687
0.280156 0.919509 0.282551
0.276738 0.914183 0.209873
0.420294 0.919554 0.203693
0.681758 0.905104 0.228458
0.79617 0.923354 0.178653
0.847807 0.933944 0.143191
0.900099 0.938293 0.128466
0.950957 0.938811 0.124697
0.975998 0.938216 0.137758
0.990066 0.93669 0.114931
0.997086 0.936019 0.10312
0.998962 0.934798 0.0992294
0.9991 0.933089 0.0975509
0.999115 0.931579 0.0957351
0.999054 0.929595 0.0955978
0.998856 0.928145 0.095552
0.99884 0.926162 0.0960098
0.998917 0.92517 0.0964218
0.290211 0.938903 0.548089
0.290211 0.938903 0.548089
0.290211 0.938903 0.548089
0.290211 0.938903 0.548089
0.290211 0.938903 0.548089
0.290211 0.938903 0.548089
0.290211 0.938903 0.548089
0.290211 0.938903 0.548089
0.290211 0.938903 0.548089
0.290211 0.938903 0.548089
0.290211 0.938903 0.548089
0.290211 0.938903 0.548089
0.290211 0.938903 0.548089
0.290211 0.938903 0.548089
0.287755 0.934112 0.482429
0.284153 0.92694 0.384512
0.279164 0.917693 0.257771
0.32575 0.917128 0.223178
0.595254 0.914809 0.216434
0.769726 0.916854 0.199298
0.832319 0.932448 0.157137
0.879881 0.938613 0.130404
0.930587 0.94136 0.132479
0.967895 0.941695 0.129473
0.983597 0.941665 0.145251
0.993088 0.940551 0.127733
0.997879 0.939788 0.115846
0.999527 0.938888 0.109728
0.999573 0.93785 0.105562
0.999557 0.936797 0.103349
0.999435 0.936141 0.101442
0.999298 0.935271 0.100664
0.999237 0.93492 0.100618
0.291371 0.940734 0.573236
0.291371 0.940734 0.573236
0.291371 0.940734 0.573236
0.291371 0.940734 0.573236
0.291371 0.940734 0.573236
0.291371 0.940734 0.573236
0.291371 0.940734 0.573236
0.291371 0.940734 0.573236
0.291371 0.940734 0.573236
0.291371 0.940734 0.573236
0.291371 0.940734 0.573236
0.291371 0.940734 0.573236
0.291371 0.940734 0.573236
0.291371 0.940734 0.573236
0.291371 0.940734 0.57322
0.287587 0.933715 0.476997
0.283024 0.924712 0.353841
0.291157 0.919738 0.280049
0.481376 0.923506 0.243412
0.728084 0.909133 0.236713
0.818143 0.929534 0.168399
0.863783 0.937423 0.135531
0.910231 0.941176 0.130617
0.95378 0.942779 0.134249
0.978698 0.943374 0.134142
0.988556 0.94374 0.14963
0.995087 0.943038 0.137224
0.998535 0.942412 0.127352
0.999435 0.941863 0.121874
0.999496 0.941039 0.118303
0.999588 0.940505 0.115404
0.999512 0.939986 0.113802
0.999481 0.939803 0.113252
0.293111 0.942458 0.596948
0.293111 0.942458 0.596948
0.293111 0.942458 0.596948
0.293111 0.942458 0.596948
0.293111 0.942458 0.596948
0.293111 0.942458 0.596948
0.293111 0.942458 0.596948
0.293111 0.942458 0.596948
0.293111 0.942458 0.596948
0.293111 0.942458 0.596948
0.293111 0.942458 0.596948
0.293111 0.942458 0.596948
0.293111 0.942458 0.596948
0.293111 0.942458 0.596948
0.293111 0.942458 0.596948
0.290913 0.940063 0.563943
0.2869 0.93225 0.457115
0.286 0.924529 0.349783
0.396201 0.92668 0.321218
0.659556 0.916823 0.290303
0.801236 0.926787 0.216129
0.849744 0.936645 0.160372
0.895476 0.940429 0.128054
0.937789 0.942473 0.135363
0.968826 0.943435 0.134615
0.985016 0.94435 0.141512
0.991806 0.944854 0.152117
0.996414 0.944442 0.142733
0.998398 0.944488 0.141543
0.999023 0.943999 0.136217
0.999176 0.943435 0.130617
0.999252 0.943008 0.128313
0.999283 0.94284 0.127398
0.295323 0.944076 0.619379
0.295323 0.944076 0.619379
0.295323 0.944076 0.619379
0.295323 0.944076 0.619379
0.295323 0.944076 0.619379
0.295323 0.944076 0.619379
0.295323 0.944076 0.619379
0.295323 0.944076 0.619379
0.295323 0.944076 0.619379
