Log3G10_RWG_to_Astia.cube
TITLE "Generated by Resolve"
LUT_3D_SIZE 9
0 0 0
0.0381476 0.00241093 0.000656138
0.230808 0.00486763 0.000350958
0.60766 0.000167849 0.00511177
0.999908 3.0518e-05 0.283742
1 0.00030518 0.372946
1 0.00030518 0.372946
1 0.00030518 0.372946
1 0.00030518 0.372946
0.000457771 0.0355383 0
0.0205234 0.0335851 0.000167849
0.244556 0.0220951 0
0.701518 0.000106813 0.019852
0.999893 3.0518e-05 0.283192
1 0.00030518 0.372946
1 0.00030518 0.372946
1 0.00030518 0.372946
1 0.00030518 0.372946
0.000122072 0.277699 0.000259403
0.000198367 0.288228 0.000228885
0.207782 0.261128 0.000274662
0.702434 0.197696 0.000122072
0.999374 0.00408942 0.316182
1 0.00030518 0.372946
1 0.00030518 0.372946
1 0.00030518 0.372946
1 0.00030518 0.372946
0.000457771 0.848188 0.000900282
0.000457771 0.847822 0.000900282
0.00404364 0.770397 9.15541e-05
0.59411 0.701488 0.000366217
0.996597 0.603769 0.00263981
0.999344 0.343908 0.169726
0.999664 0.000183108 0.365972
1 0.00030518 0.372946
1 0.00030518 0.372946
0 1 0.000289921
0 1 0.000289921
0 1 0.000289921
0.248051 0.999588 0.000198367
0.852842 0.961593 9.15541e-05
0.999222 0.845838 0.0355993
0.999268 0.708385 0.0816968
1 0.414908 0.153048
1 0.00030518 0.372946
0.0460822 0.999649 0.000106813
0.0460822 0.999649 0.000106813
0.0460822 0.999649 0.000106813
0.0460822 0.999649 0.000106813
0.529717 0.999786 7.62951e-05
0.958419 0.999908 0.0554208
0.991547 0.994476 0.0249027
0.995651 0.943481 0.0345159
0.998322 0.89456 0.0479744
0.0460822 0.999649 0.000106813
0.0460822 0.999649 0.000106813
0.0460822 0.999649 0.000106813
0.0460822 0.999649 0.000106813
0.0460822 0.999649 0.000106813
0.744442 0.999527 0.000534066
0.986068 0.999969 0.0854505
0.986465 0.99942 0.0790417
0.986465 0.99942 0.0790417
0.0460822 0.999649 0.000106813
0.0460822 0.999649 0.000106813
0.0460822 0.999649 0.000106813
0.0460822 0.999649 0.000106813
0.0460822 0.999649 0.000106813
0.408484 0.999985 0.000442512
0.956924 0.999405 0.0750591
0.986465 0.99942 0.0790417
0.986465 0.99942 0.0790417
0.0460822 0.999649 0.000106813
0.0460822 0.999649 0.000106813
0.0460822 0.999649 0.000106813
0.0460822 0.999649 0.000106813
0.0460822 0.999649 0.000106813
0.0460822 0.999649 0.000106813
0.86067 0.999496 0.0252232
0.986465 0.99942 0.0790417
0.986465 0.99942 0.0790417
0.000122072 0.000396735 0.0262913
0.036408 0.000656138 0.0168002
0.244572 0.00450141 3.0518e-05
0.61355 0.00030518 0.00576791
0.999893 3.0518e-05 0.283192
1 0.00030518 0.372946
1 0.00030518 0.372946
1 0.00030518 0.372946
1 0.00030518 0.372946
6.10361e-05 0.0250095 0.030808
0.0196994 0.0200809 0.019852
0.25388 0.00749218 9.15541e-05
0.672435 4.57771e-05 0.0137179
0.999893 3.0518e-05 0.282643
1 0.00030518 0.372946
1 0.00030518 0.372946
1 0.00030518 0.372946
1 0.00030518 0.372946
6.10361e-05 0.261265 0.00015259
0.000442512 0.269627 0.000518807
0.206531 0.246235 0.000289921
0.70396 0.182788 9.15541e-05
0.999527 6.10361e-05 0.325261
1 0.00030518 0.372946
1 0.00030518 0.372946
1 0.00030518 0.372946
1 0.00030518 0.372946
0.00047303 0.844205 0.000808728
0.00047303 0.843854 0.000793469
0.00395209 0.766934 0.00015259
0.593637 0.697643 0.000335698
0.996811 0.599298 0.00294499
0.999344 0.337423 0.171359
0.999542 0.000320439 0.368368
1 0.00030518 0.372946
1 0.00030518 0.372946
0 1 0.000289921
0 1 0.000289921
0 1 0.000289921
0.246052 0.999588 0.000244144
0.853132 0.961028 9.15541e-05
0.999237 0.84506 0.0358434
0.999268 0.707393 0.0819715
1 0.411521 0.153964
1 0.00030518 0.372946
0.0460822 0.999649 0.000106813
0.0460822 0.999649 0.000106813
0.0460822 0.999649 0.000106813
0.0460822 0.999649 0.000106813
0.529305 0.999771 6.10361e-05
0.95845 0.999908 0.0554208
0.991547 0.994415 0.0248417
0.995651 0.943282 0.0345617
0.998337 0.894255 0.0480201
0.0460822 0.999649 0.000106813
0.0460822 0.999649 0.000106813
0.0460822 0.999649 0.000106813
0.0460822 0.999649 0.000106813
0.0460822 0.999649 0.000106813
0.744289 0.999527 0.000534066
0.986068 0.999969 0.0854505
0.986465 0.99942 0.0790417
0.986465 0.99942 0.0790417
0.0460822 0.999649 0.000106813
0.0460822 0.999649 0.000106813
0.0460822 0.999649 0.000106813
0.0460822 0.999649 0.000106813
0.0460822 0.999649 0.000106813
0.408164 0.999985 0.000442512
0.956924 0.999405 0.0750591
0.986465 0.99942 0.0790417
0.986465 0.99942 0.0790417
0.0460822 0.999649 0.000106813
0.0460822 0.999649 0.000106813
0.0460822 0.999649 0.000106813
0.0460822 0.999649 0.000106813
0.0460822 0.999649 0.000106813
0.0460822 0.999649 0.000106813
0.86067 0.999496 0.0252232
0.986465 0.99942 0.0790417
0.986465 0.99942 0.0790417
0.000228885 0.0059205 0.147326
0.00721752 0.00642405 0.132036
0.273289 0.000228885 0.125231
0.745266 0 0.163317
0.999969 0.000579843 0.375662
1 0.00030518 0.372946
1 0.00030518 0.372946
1 0.00030518 0.372946
1 0.00030518 0.372946
0.000228885 0.00643931 0.140887
0.000640879 0.00578317 0.126329
0.265949 0.000198367 0.116884
0.738964 1.5259e-05 0.150271
0.999969 0.000518807 0.373159
1 0.00030518 0.372946
1 0.00030518 0.372946
1 0.00030518 0.372946
1 0.00030518 0.372946
0.000442512 0.30161 0.373007
0.000274662 0.295735 0.351766
0.206394 0.206821 0.206027
0.750149 0.113176 0.13959
1 0.000213626 0.346624
1 0.00030518 0.372946
1 0.00030518 0.372946
1 0.00030518 0.372946
1 0.00030518 0.372946
0 0.8271 0.000335698
0 0.827527 0.000274662
0.000198367 0.754513 0.000427253
0.591775 0.683589 0.000198367
0.997497 0.581643 0.00683604
0.999344 0.31339 0.177401
1 0.00030518 0.372946
1 0.00030518 0.372946
1 0.00030518 0.372946
0 1 0.000289921
0 1 0.000289921
0 1 0.000289921
0.238682 0.999588 0.000366217
0.854078 0.958984 9.15541e-05
0.999268 0.841886 0.0368811
0.999252 0.703365 0.0831617
1 0.398779 0.157397
1 0.00030518 0.372946
0.0460822 0.999649 0.000106813
0.0460822 0.999649 0.000106813
0.0460822 0.999649 0.000106813
0.0460822 0.999649 0.000106813
0.527886 0.999756 4.57771e-05
0.958694 0.999893 0.0555276
0.991562 0.993988 0.0244602
0.995697 0.942504 0.0347906
0.998352 0.893339 0.048188
0.0460822 0.999649 0.000106813
0.0460822 0.999649 0.000106813
0.0460822 0.999649 0.000106813
0.0460822 0.999649 0.000106813
0.0460822 0.999649 0.000106813
0.743984 0.999527 0.000549325
0.986068 0.999969 0.0854353
0.986465 0.99942 0.0790417
0.986465 0.99942 0.0790417
0.0460822 0.999649 0.000106813
0.0460822 0.999649 0.000106813
0.0460822 0.999649 0.000106813
0.0460822 0.999649 0.000106813
0.0460822 0.999649 0.000106813
0.407233 0.999985 0.000427253
0.956786 0.999405 0.0749676
0.986465 0.99942 0.0790417
0.986465 0.99942 0.0790417
0.0460822 0.999649 0.000106813
0.0460822 0.999649 0.000106813
0.0460822 0.999649 0.000106813
0.0460822 0.999649 0.000106813
0.0460822 0.999649 0.000106813
0.0460822 0.999649 0.000106813
0.860517 0.999496 0.0251621
0.986465 0.99942 0.0790417
0.986465 0.99942 0.0790417
0.0039826 0.011368 0.438224
0.00396735 0.011368 0.437461
0.249668 0.0018616 0.414816
0.833341 0.00015259 0.575784
0.999817 0.000396735 0.685252
0.99968 0 0.457206
1 0.00030518 0.372946
1 0.00030518 0.372946
1 0.00030518 0.372946
0.00390631 0.0113375 0.434363
0.00389105 0.0113375 0.4336
0.241535 0.00172427 0.409339
0.83061 0.00015259 0.569665
0.999802 0.000366217 0.681895
0.99968 6.10361e-05 0.448096
1 0.00030518 0.372946
1 0.00030518 0.372946
1 0.00030518 0.372946
0.00300603 0.0593576 0.599802
0.00254826 0.0561227 0.591669
0.203555 0.0245212 0.658061
0.891997 0.000167849 0.707256
0.999802 0.000198367 0.669337
0.999527 0.000381476 0.413642
1 0.00030518 0.372946
1 0.00030518 0.372946
1 0.00030518 0.372946
0.000488289 0.774411 0.955016
0.000503548 0.773907 0.95378
0.000122072 0.698863 0.810941
0.588129 0.588357 0.588251
0.999725 0.43682 0.537057
0.999863 0.149615 0.224537
1 0.00030518 0.372946
1 0.00030518 0.372946
1 0.00030518 0.372946
4.57771e-05 0.99971 0.14284
3.0518e-05 0.99968 0.129686
0 0.99971 0.078706
0.221424 1 0.000167849
0.857969 0.951232 0.000122072
0.999313 0.829709 0.0406958
0.999161 0.688579 0.0875257
0.999619 0.347021 0.16994
1 0.00030518 0.372946
0.0460822 0.999649 0.000106813
0.0460822 0.999649 0.000106813
0.0460822 0.999649 0.000106813
0.0460822 0.999649 0.000106813
0.522637 0.999695 0
0.959579 0.999847 0.0558633
0.991669 0.992538 0.0231632
0.99585 0.939849 0.0355688
0.998398 0.889998 0.0487526
0.0460822 0.999649 0.000106813
0.0460822 0.999649 0.000106813
0.0460822 0.999649 0.000106813
0.0460822 0.999649 0.000106813
0.0460822 0.999649 0.000106813
0.742992 0.999542 0.000610361
0.986068 0.999969 0.0854353
0.986465 0.99942 0.0790417
0.986465 0.99942 0.0790417
0.0460822 0.999649 0.000106813
0.0460822 0.999649 0.000106813
0.0460822 0.999649 0.000106813
0.0460822 0.999649 0.000106813
0.0460822 0.999649 0.000106813
0.40354 0.999985 0.000381476
0.956542 0.999405 0.0748302
0.986465 0.99942 0.0790417
0.986465 0.99942 0.0790417
0.0460822 0.999649 0.000106813
0.0460822 0.999649 0.000106813
0.0460822 0.999649 0.000106813
0.0460822 0.999649 0.000106813
0.0460822 0.999649 0.000106813
0.0460822 0.999649 0.000106813
0.859892 0.999496 0.024918
0.986465 0.99942 0.0790417
0.986465 0.99942 0.0790417
0.00495918 0.0428168 0.848981
0.00495918 0.0427863 0.848798
0.00492866 0.0425727 0.847745
0.830045 0.000122072 0.960235
0.999985 0.00169375 0.936706
0.999878 3.0518e-05 0.858854
0.999695 0.000244144 0.693355
1 0.00030518 0.372946
1 0.00030518 0.372946
0.00492866 0.0425727 0.847745
0.00492866 0.0425422 0.847562
0.00491341 0.042359 0.846677
0.827771 0.000122072 0.958556
0.999985 0.00161746 0.936324
0.999878 3.0518e-05 0.85803
0.999695 0.000259403 0.691554
1 0.00030518 0.372946
1 0.00030518 0.372946
0.00482185 0.0417029 0.843305
0.00482185 0.0416724 0.843137
0.00479133 0.0414588 0.842069
0.819577 0 0.952361
0.999969 0.00131228 0.934997
0.999847 4.57771e-05 0.855146
0.99971 0.000289921 0.684901
1 0.00030518 0.372946
1 0.00030518 0.372946
0.000198367 0.574578 0.999954
0.000213626 0.573526 0.999954
0.000228885 0.569863 0.999969
0.600656 0.367712 0.999771
0.999878 0.0883955 0.999786
0.999741 0.000106813 0.844419
0.999863 0.00030518 0.658625
1 0.00030518 0.372946
1 0.00030518 0.372946
0.00047303 0.925978 0.999908
0.00047303 0.925963 0.999908
0.000488289 0.925933 0.999924
0.000518807 0.901839 0.999985
0.820264 0.822278 0.8206
0.99968 0.701137 0.702495
0.999756 0.555306 0.367742
1 0.0624094 0.271672
1 0.00030518 0.372946
0 0.999924 0.609339
0 0.999908 0.607813
0 0.999878 0.602075
1.5259e-05 0.999817 0.579797
0.50631 0.999863 0.0648051
0.963043 0.999725 0.0569162
0.992004 0.98735 0.0183871
0.996384 0.929946 0.038468
0.998703 0.876692 0.0519722
0.0460822 0.999649 0.000106813
0.0460822 0.999649 0.000106813
0.0460822 0.999649 0.000106813
0.0460822 0.999649 0.000106813
0.0460822 0.999649 0.000106813
0.739269 0.999557 0.00077821
0.986068 0.999954 0.0854963
0.986465 0.99942 0.0790417
0.986465 0.99942 0.0790417
0.0460822 0.999649 0.000106813
0.0460822 0.999649 0.000106813
0.0460822 0.999649 0.000106813
0.0460822 0.999649 0.000106813
0.0460822 0.999649 0.000106813
0.389883 0.999969 0.000198367
0.955673 0.99942 0.074342
0.986465 0.99942 0.0790417
0.986465 0.99942 0.0790417
0.0460822 0.999649 0.000106813
0.0460822 0.999649 0.000106813
0.0460822 0.999649 0.000106813
0.0460822 0.999649 0.000106813
0.0460822 0.999649 0.000106813
0.0460822 0.999649 0.000106813
0.857877 0.999481 0.0241398
0.986465 0.99942 0.0790417
0.986465 0.99942 0.0790417
6.10361e-05 0.177569 0.999908
6.10361e-05 0.177569 0.999908
7.62951e-05 0.177371 0.999893
0.000442512 0.175723 0.999466
0.999863 0.156329 0.999619
0.999985 0.129366 0.999512
0.999924 0.0796521 0.999069
0.999527 0.00999466 0.924102
1 0.000259403 0.721874
7.62951e-05 0.177371 0.999893
7.62951e-05 0.177371 0.999893
7.62951e-05 0.177279 0.999893
0.000534066 0.172183 0.999512
0.999863 0.155978 0.999603
0.999985 0.129213 0.999527
0.999924 0.0794995 0.999069
0.999527 0.00985733 0.923766
1 0.000244144 0.720699
7.62951e-05 0.176684 0.999893
7.62951e-05 0.176684 0.999893
7.62951e-05 0.176486 0.999878
0.00115969 0.158572 0.999969
0.999847 0.154665 0.999573
0.999985 0.128679 0.999573
0.999924 0.0788128 0.9991
0.999542 0.00921645 0.922347
1 0.000183108 0.716381
0.000106813 0.174151 0.999847
0.000106813 0.174151 0.999847
0.000106813 0.174044 0.999847
0.000122072 0.173465 0.999832
0.999847 0.149767 0.999466
0.999969 0.126833 0.99971
0.999939 0.0764172 0.999176
0.999573 0.00694286 0.91722
1 1.5259e-05 0.700252
0.000564584 0.74052 0.999756
0.000564584 0.740276 0.999756
0.000564584 0.739544 0.999725
0.000549325 0.737026 0.999649
0.744823 0.617624 0.999329
0.999725 0.432425 0.999451
0.999985 0.0678264 0.998215
0.999725 6.10361e-05 0.898665
0.999512 0.000106813 0.634195
0 0.973785 1
0 0.973785 1
0 0.973785 1
0 0.973785 1
6.10361e-05 0.959976 0.999893
0.914748 0.916487 0.915084
0.999802 0.842313 0.812848
0.999741 0.795438 0.660334
0.999359 0.818936 0.0618601
0.00030518 0.98114 0.999985
0.00030518 0.98117 0.999985
0.000320439 0.981262 1
0.000366217 0.981598 1
0.000244144 0.982986 0.997284
0.70576 0.999756 0.506569
0.986542 0.999741 0.087602
0.986465 0.99942 0.0790417
0.986465 0.99942 0.0790417
0.0460822 0.999649 0.000106813
0.0460822 0.999649 0.000106813
0.0460822 0.999649 0.000106813
0.0460822 0.999649 0.000106813
0.0460822 0.999649 0.000106813
0.339147 0.999786 0.000259403
0.952514 0.999481 0.0724804
0.986465 0.99942 0.0790417
0.986465 0.99942 0.0790417
0.0460822 0.999649 0.000106813
0.0460822 0.999649 0.000106813
0.0460822 0.999649 0.000106813
0.0460822 0.999649 0.000106813
0.0460822 0.999649 0.000106813
0.0460822 0.999649 0.000106813
0.850813 0.999466 0.021561
0.986465 0.99942 0.0790417
0.986465 0.99942 0.0790417
0.000320439 0.358801 0.999466
0.000320439 0.358801 0.999466
0.000320439 0.358755 0.999481
0.000320439 0.358709 0.999481
0.534066 0.434974 0.999359
0.999771 0.277928 0.999542
0.999985 0.256886 0.99968
1 0.224109 0.999847
1 0.191073 0.999802
0.000320439 0.358755 0.999481
0.000320439 0.358755 0.999481
0.000320439 0.358755 0.999481
0.000320439 0.358648 0.999481
0.529564 0.434775 0.99939
0.999756 0.277897 0.999542
0.999985 0.25684 0.99968
1 0.224109 0.999847
1 0.190997 0.999802
0.000320439 0.358648 0.999481
0.000320439 0.358648 0.999481
0.000320439 0.358602 0.999481
0.000320439 0.358557 0.999481
0.512978 0.434134 0.999512
0.999756 0.277852 0.999557
0.999985 0.256733 0.99968
1 0.223896 0.999847
1 0.190768 0.999802
0.000320439 0.358282 0.999496
0.000320439 0.358282 0.999496
0.000320439 0.358236 0.999512
0.000320439 0.35819 0.999512
0.446754 0.430716 0.999878
0.999725 0.277653 0.999557
0.999985 0.256352 0.99971
1 0.223194 0.999847
1 0.189929 0.999817
0.000320439 0.35697 0.999573
0.000320439 0.356924 0.999573
0.000320439 0.356924 0.999573
0.000320439 0.356832 0.999588
0.0386664 0.415763 0.999649
0.999649 0.276829 0.999603
0.999969 0.254917 0.999771
1 0.220661 0.999863
1 0.186999 0.999847
0.000228885 0.92929 0.999512
0.000228885 0.92929 0.999512
0.000228885 0.929152 0.999512
0.000213626 0.928634 0.999527
0.000213626 0.926909 0.999557
0.891035 0.751629 0.999374
0.999863 0.641459 0.999802
0.999573 0.519188 0.999237
1 0.17641 0.999985
0 0.973785 1
0 0.973785 1
0 0.973785 1
0 0.973785 1
0 0.973785 1
0.053254 0.994812 0.999832
0.983276 0.990188 0.987152
0.995712 0.967361 0.926818
0.996262 0.95436 0.868513
0 0.973785 1
0 0.973785 1
0 0.973785 1
0 0.973785 1
0 0.973785 1
0 0.973785 1
0.869703 0.999374 0.831495
0.992508 0.999985 0.667674
0.989654 0.999741 0.463752
0.0460822 0.999649 0.000106813
0.0460822 0.999649 0.000106813
0.0460822 0.999649 0.000106813
0.0460822 0.999649 0.000106813
0.0460822 0.999649 0.000106813
0.0460822 0.999649 0.000106813
0.828199 0.999374 0.0138705
0.986465 0.99942 0.0790417
0.986465 0.99942 0.0790417
0.000366217 0.417762 0.999313
0.000366217 0.417762 0.999313
0.000366217 0.417731 0.999313
0.000366217 0.417731 0.999313
0.000350958 0.417655 0.999313
1 0.297993 0.999741
1 0.297993 0.999741
1 0.297993 0.999741
1 0.297993 0.999741
0.000366217 0.417731 0.999313
0.000366217 0.417731 0.999313
0.000366217 0.417731 0.999313
0.000366217 0.417731 0.999313
0.000350958 0.417624 0.999313
1 0.297993 0.999741
1 0.297993 0.999741
1 0.297993 0.999741
1 0.297993 0.999741
0.000366217 0.417731 0.999313
0.000366217 0.417685 0.999313
0.000366217 0.417685 0.999313
0.000366217 0.417685 0.999313
0.000350958 0.417594 0.999313
1 0.297993 0.999741
1 0.297993 0.999741
1 0.297993 0.999741
1 0.297993 0.999741
0.000350958 0.417624 0.999313
0.000350958 0.417594 0.999313
0.000350958 0.417594 0.999313
0.000350958 0.417594 0.999313
0.000335698 0.417502 0.999313
1 0.297993 0.999741
1 0.297993 0.999741
1 0.297993 0.999741
1 0.297993 0.999741
0.000320439 0.417288 0.999329
0.000320439 0.417288 0.999329
0.000320439 0.417288 0.999329
0.000320439 0.417258 0.999329
0.00030518 0.417197 0.999329
1 0.297993 0.999741
1 0.297993 0.999741
1 0.297993 0.999741
1 0.297993 0.999741
0.000213626 0.416098 0.999374
0.000213626 0.416098 0.999374
0.000213626 0.416098 0.999374
0.000198367 0.416068 0.999374
0.000198367 0.416007 0.999374
1 0.297993 0.999741
1 0.297993 0.999741
1 0.297993 0.999741
1 0.297993 0.999741
0 0.973785 1
0 0.973785 1
0 0.973785 1
0 0.973785 1
0 0.973785 1
0.000579843 0.973358 1
0.999603 0.89337 0.999435
0.999939 0.845899 0.999695
0.999435 0.813458 0.999115
0 0.973785 1
0 0.973785 1
0 0.973785 1
0 0.973785 1
0 0.973785 1
0 0.973785 1
0.734325 0.998306 1
1 1 1
1 1 1
0 0.973785 1
0 0.973785 1
0 0.973785 1
0 0.973785 1
0 0.973785 1
0 0.973785 1
0.415869 0.999878 0.999893
1 1 1
0.999664 0.999969 0.99649
0.000656138 0.429419 0.999557
0.000656138 0.429419 0.999557
0.000656138 0.429419 0.999557
0.000656138 0.429419 0.999557
0.000656138 0.429419 0.999557
0.000656138 0.429419 0.999557
1 0.297993 0.999741
1 0.297993 0.999741
1 0.297993 0.999741
0.000656138 0.429419 0.999557
0.000656138 0.429419 0.999557
0.000656138 0.429419 0.999557
0.000656138 0.429419 0.999557
0.000656138 0.429419 0.999557
0.000656138 0.429419 0.999557
1 0.297993 0.999741
1 0.297993 0.999741
1 0.297993 0.999741
0.000656138 0.429419 0.999557
0.000656138 0.429419 0.999557
0.000656138 0.429419 0.999557
0.000656138 0.429419 0.999557
0.000656138 0.429419 0.999557
0.000656138 0.429419 0.999557
1 0.297993 0.999741
1 0.297993 0.999741
1 0.297993 0.999741
0.000656138 0.429419 0.999557
0.000656138 0.429419 0.999557
0.000656138 0.429419 0.999557
0.000656138 0.429419 0.999557
0.000656138 0.429419 0.999557
0.000656138 0.429419 0.999557
1 0.297993 0.999741
1 0.297993 0.999741
1 0.297993 0.999741
0.000656138 0.429419 0.999557
0.000656138 0.429419 0.999557
0.000656138 0.429419 0.999557
0.000656138 0.429419 0.999557
0.000656138 0.429419 0.999557
0.000656138 0.429419 0.999557
1 0.297993 0.999741
1 0.297993 0.999741
1 0.297993 0.999741
0.000656138 0.429419 0.999557
0.000656138 0.429419 0.999557
0.000656138 0.429419 0.999557
0.000656138 0.429419 0.999557
0.000656138 0.429419 0.999557
0.000656138 0.429419 0.999557
1 0.297993 0.999741
1 0.297993 0.999741
1 0.297993 0.999741
0.000656138 0.429419 0.999557
0.000656138 0.429419 0.999557
0.000656138 0.429419 0.999557
0.000656138 0.429419 0.999557
0.000656138 0.429419 0.999557
0.000656138 0.429419 0.999557
1 0.297993 0.999741
1 0.297993 0.999741
1 0.297993 0.999741
0 0.973785 1
0 0.973785 1
0 0.973785 1
0 0.973785 1
0 0.973785 1
0 0.973785 1
0.648112 0.999939 0.999924
1 1 1
1 1 1
0 0.973785 1
0 0.973785 1
0 0.973785 1
0 0.973785 1
0 0.973785 1
0 0.973785 1
0.0273594 0.984314 0.999725
0.998398 0.999969 0.999435
1 1 1
