Log3G10_RWG_to_NostalgicNeg.cube
TITLE "Generated by Resolve"
LUT_3D_SIZE 9
0.0379187 0.0324254 0.0303502
0.0948501 0.0370794 0.0216068
0.383017 0.0679637 4.57771e-05
0.772351 0.109117 0.000106813
1 0.0994736 0.0818647
1 0.146075 0.388006
1 0.276204 0.678721
1 0.370382 0.818998
1 0.445151 0.862272
0.0133059 0.0748608 0.0297398
0.0692302 0.0679789 0.0149386
0.348028 0.0802777 0.000396735
0.734859 0.10927 0
1 0.117693 0.0457313
1 0.123766 0.351141
1 0.276204 0.678706
1 0.370367 0.818998
1 0.445151 0.862272
0.031693 0.26334 0.071397
0.0339818 0.251209 0.0549935
0.192233 0.208988 0.00260929
0.677073 0.188342 0
0.966567 0.1337 0
1 0.0350195 0.168872
1 0.258976 0.577539
1 0.338247 0.788998
1 0.445151 0.862272
0.0663462 0.582116 0.170748
0.0675669 0.575814 0.162158
0.0719158 0.53138 0.116213
0.449882 0.46746 0.00315862
0.951278 0.40145 0.0679789
1 0.140063 0
1 0.105577 0.320592
1 0.285695 0.653864
1 0.328984 0.757641
0.0772106 0.858366 0.323903
0.0772106 0.858351 0.323903
0.0883345 0.843503 0.274754
0.121431 0.801404 0.171099
0.742458 0.745205 0.00502022
0.989715 0.583902 0.0195926
0.988251 0.32781 0.0641031
1 0.137819 0.181659
1 0.278737 0.530632
0.0663005 0.906432 0.474952
0.0663005 0.906432 0.474952
0.0663005 0.906432 0.474937
0.100359 0.892271 0.328634
0.459113 0.887098 0.113359
0.920241 0.886137 0.00196841
0.966125 0.87277 0.00030518
0.986099 0.767254 0.00813306
0.986847 0.614374 0.0434577
0.042359 0.917067 0.586404
0.042359 0.917067 0.586404
0.042359 0.917067 0.586404
0.042359 0.917067 0.586404
0.128359 0.885222 0.249149
0.827314 0.892714 0.050721
0.956695 0.906661 0.0211643
0.955062 0.903487 0.000381476
0.955413 0.902083 0
0.0240024 0.925948 0.677882
0.0240024 0.925948 0.677882
0.0240024 0.925948 0.677882
0.0240024 0.925948 0.677867
0.0257267 0.924926 0.667613
0.708583 0.888319 0.300465
0.943084 0.906615 0.0360418
0.956985 0.910399 0.0632334
0.957015 0.911833 0.0785992
0.0153658 0.931044 0.729992
0.0153658 0.931044 0.729992
0.0153658 0.931044 0.729992
0.0153658 0.931044 0.729992
0.0153658 0.931044 0.729992
0.565713 0.934325 0.53225
0.935088 0.922515 0.21944
0.959503 0.917723 0.140093
0.959426 0.921813 0.184787
0.0226291 0.0425422 0.102724
0.10602 0.037232 0.087068
0.367941 0.0594186 0.0213474
0.771313 0.107424 0.00270085
1 0.0966659 0.0832532
1 0.146075 0.387991
1 0.276204 0.678721
1 0.370382 0.818998
1 0.445151 0.862272
0.00445563 0.0649577 0.070161
0.072282 0.063447 0.0614023
0.378332 0.0856947 0.0172122
0.736171 0.108705 0
1 0.11696 0.0477913
1 0.125551 0.35407
1 0.276204 0.678706
1 0.370367 0.818998
1 0.445151 0.862272
0.0307012 0.259846 0.0724041
0.0335851 0.248188 0.0543221
0.19321 0.206714 0.00190738
0.676127 0.186114 0
0.96788 0.133791 0
1 0.0357977 0.171298
1 0.259159 0.578988
1 0.339773 0.790494
1 0.445151 0.862272
0.0662699 0.581216 0.170428
0.0674601 0.574975 0.161959
0.0717937 0.530526 0.11603
0.450141 0.466789 0.00294499
0.951873 0.400076 0.0666209
1 0.140047 0
1 0.106096 0.321447
1 0.285801 0.654398
1 0.329091 0.75787
0.0772259 0.858259 0.323781
0.0772259 0.858259 0.323781
0.088304 0.843427 0.274784
0.121431 0.801221 0.171038
0.742535 0.745037 0.00494392
0.989654 0.583612 0.0197452
0.988327 0.327565 0.0638895
1 0.13785 0.18349
1 0.279118 0.531334
0.0663005 0.906416 0.474922
0.0663005 0.906416 0.474922
0.0663005 0.906416 0.474907
0.100343 0.892271 0.328649
0.459236 0.887083 0.113329
0.920272 0.886122 0.00196841
0.96614 0.87274 0.00030518
0.98616 0.766918 0.00813306
0.986786 0.614176 0.0436408
0.042359 0.917067 0.586389
0.042359 0.917067 0.586389
0.042359 0.917067 0.586389
0.042359 0.917067 0.586389
0.128283 0.885252 0.249454
0.827512 0.892729 0.0505379
0.956695 0.906661 0.0211337
0.955062 0.903471 0.000366217
0.955413 0.902083 0
0.0240024 0.925948 0.677867
0.0240024 0.925948 0.677867
0.0240024 0.925948 0.677867
0.0240024 0.925948 0.677867
0.0256962 0.924941 0.667781
0.708568 0.888319 0.30045
0.943069 0.906615 0.0360876
0.956985 0.910384 0.0631266
0.957015 0.911833 0.0785687
0.0153658 0.931044 0.729992
0.0153658 0.931044 0.729992
0.0153658 0.931044 0.729992
0.0153658 0.931044 0.729992
0.0153658 0.931044 0.729992
0.565942 0.934325 0.532143
0.935012 0.922545 0.219837
0.959503 0.917723 0.140093
0.959426 0.921813 0.184787
0 0.130602 0.468818
0.0400244 0.126467 0.435386
0.380179 0.101762 0.300511
0.794858 0.0738994 0.20911
1 0.0477302 0.142519
1 0.146059 0.387961
1 0.276204 0.678706
1 0.370367 0.818998
1 0.445151 0.862272
0 0.132418 0.431418
0.0033875 0.119753 0.416907
0.363928 0.0987716 0.288533
0.74931 0.0501259 0.141558
1 0.0753338 0.0992599
1 0.13167 0.364187
1 0.276204 0.678691
1 0.370367 0.818998
1 0.445151 0.862272
0.00047303 0.216144 0.240223
0.00109865 0.207263 0.231281
0.217563 0.205432 0.214893
0.718166 0.185946 0.0811475
0.984497 0.133516 0
1 0.0386969 0.180499
1 0.259449 0.583413
1 0.344549 0.795834
1 0.445151 0.862272
0.0614786 0.571084 0.180133
0.0626841 0.564874 0.171618
0.0710765 0.525261 0.11487
0.451072 0.464393 0.00221256
0.953613 0.395575 0.0622263
1 0.139971 0
1 0.108156 0.324849
1 0.286046 0.655863
1 0.329564 0.758892
0.0772717 0.857923 0.323354
0.0772717 0.857923 0.323354
0.0881819 0.843153 0.275029
0.121263 0.800717 0.170962
0.74313 0.744366 0.00454719
0.989364 0.582513 0.020325
0.988754 0.323323 0.0618601
1 0.137743 0.185672
1 0.280079 0.533135
0.0663157 0.906416 0.474815
0.0663157 0.906416 0.4748
0.0663157 0.906416 0.4748
0.100267 0.892287 0.328908
0.458793 0.887068 0.11342
0.920424 0.886061 0.00192264
0.966171 0.872663 0.00030518
0.986206 0.766583 0.00813306
0.986664 0.613718 0.0440681
0.0423743 0.917067 0.586358
0.0423743 0.917067 0.586358
0.0423743 0.917067 0.586358
0.0423743 0.917067 0.586358
0.128298 0.885237 0.249363
0.827283 0.892699 0.0507515
0.956695 0.906661 0.021149
0.955062 0.903471 0.000350958
0.955413 0.902083 0
0.0240024 0.925933 0.677852
0.0240024 0.925933 0.677852
0.0240024 0.925933 0.677852
0.0240024 0.925933 0.677852
0.0256504 0.924987 0.668116
0.709026 0.888182 0.300023
0.943038 0.906615 0.0361334
0.956985 0.910384 0.0631723
0.957015 0.911818 0.0784772
0.0153658 0.931044 0.729992
0.0153658 0.931044 0.729992
0.0153658 0.931044 0.729992
0.0153658 0.931044 0.729992
0.0153658 0.931044 0.729992
0.565698 0.934325 0.532235
0.935134 0.922499 0.219257
0.959503 0.917723 0.140078
0.959426 0.921813 0.184787
0 0.271122 0.896361
0 0.263386 0.880064
0.351598 0.224857 0.741665
0.78323 0.205386 0.588693
1 0.257771 0.580728
1 0.266285 0.603189
1 0.276204 0.678676
1 0.370367 0.818998
1 0.445151 0.862272
0 0.267826 0.888426
0 0.263493 0.876875
0.34023 0.224384 0.740536
0.774624 0.202823 0.580545
1 0.256977 0.575113
1 0.265812 0.598398
1 0.276204 0.678676
1 0.370352 0.818982
1 0.445151 0.862272
0 0.29015 0.74966
0 0.28603 0.763851
0.0361486 0.239109 0.750301
0.717998 0.190326 0.552712
0.996612 0.177829 0.423087
1 0.156039 0.404364
1 0.263905 0.6038
1 0.361089 0.811734
1 0.445151 0.862272
0.00187686 0.509148 0.564706
0.00190738 0.5037 0.558907
0.00190738 0.466575 0.52665
0.483345 0.471855 0.485878
0.967132 0.393271 0.307713
1 0.130877 0.0131838
1 0.115679 0.337285
1 0.286641 0.661158
1 0.331319 0.762615
0.0534981 0.853895 0.403708
0.0539254 0.853864 0.402152
0.0675822 0.836286 0.34229
0.108309 0.792569 0.172992
0.744274 0.741573 0.00320439
0.988312 0.578531 0.0224308
0.990127 0.311925 0.0560311
1 0.13753 0.197559
1 0.28426 0.540902
0.0663462 0.906371 0.474418
0.0663462 0.906371 0.474418
0.0663462 0.906371 0.474418
0.0999313 0.892378 0.329915
0.45861 0.886915 0.113466
0.920653 0.885878 0.00181582
0.966278 0.872297 0.000289921
0.986526 0.764446 0.00814832
0.986099 0.611704 0.0459602
0.0424048 0.917052 0.586236
0.0424048 0.917052 0.586236
0.0424048 0.917052 0.586236
0.0424048 0.917052 0.586236
0.128267 0.885252 0.2495
0.82739 0.892714 0.0506752
0.95671 0.906661 0.02121
0.955062 0.903471 0.000350958
0.955428 0.902068 0
0.0240177 0.925933 0.677806
0.0240177 0.925933 0.677791
0.0240177 0.925933 0.677791
0.0240177 0.925933 0.677791
0.0254215 0.925109 0.669429
0.708415 0.888304 0.300221
0.943099 0.9066 0.035874
0.956985 0.910384 0.0631266
0.957 0.911803 0.0783398
0.0153658 0.931044 0.729992
0.0153658 0.931044 0.729992
0.0153658 0.931044 0.729992
0.0153658 0.931044 0.729992
0.0153658 0.931044 0.729992
0.565209 0.93431 0.532433
0.935012 0.922545 0.219806
0.959503 0.917723 0.140093
0.959426 0.921813 0.184787
0 0.383169 1
0 0.382284 1
0.222614 0.316365 1
0.80827 0.289723 0.910231
1 0.28423 0.816312
1 0.290608 0.842878
1 0.290929 0.845319
1 0.370321 0.818967
1 0.445151 0.862272
0 0.382971 1
0 0.38262 1
0.216876 0.316625 1
0.807248 0.289601 0.909941
1 0.284184 0.815854
1 0.290562 0.842573
1 0.290867 0.844877
1 0.370321 0.818952
1 0.445151 0.862272
0 0.377111 1
0 0.377218 1
0.0348211 0.332219 1
0.77261 0.290227 0.916976
1 0.279942 0.799069
1 0.289006 0.831434
1 0.290654 0.843336
1 0.370306 0.818952
1 0.445151 0.862272
0 0.554681 0.977386
0 0.553903 0.97731
0 0.516258 0.989822
0.328725 0.407462 0.950637
0.993393 0.280415 0.778241
1 0.275349 0.70602
1 0.275929 0.71519
1 0.290166 0.680552
1 0.338399 0.776928
0.00128176 0.823545 0.901106
0.00128176 0.823514 0.900908
0.00105287 0.806088 0.883421
0.000808728 0.761135 0.845335
0.768246 0.750042 0.746212
0.991577 0.66685 0.616144
1 0.180804 0.182956
1 0.136873 0.238605
1 0.291814 0.559091
0.0157931 0.925368 0.679301
0.0158999 0.925307 0.678706
0.0162966 0.925109 0.676539
0.0362402 0.912764 0.558099
0.374884 0.889387 0.192096
0.916411 0.882048 0.00158694
0.966674 0.871015 0.000274662
0.987442 0.758404 0.0081178
0.984024 0.604288 0.0528878
0.0425116 0.917006 0.585809
0.0425116 0.917006 0.585809
0.0425116 0.917006 0.585809
0.0425116 0.917006 0.585794
0.128161 0.885283 0.249866
0.827253 0.892714 0.0508888
0.956741 0.906676 0.0213474
0.955062 0.903426 0.00030518
0.955444 0.902007 0
0.0240482 0.925917 0.677592
0.0240482 0.925917 0.677592
0.0240482 0.925917 0.677592
0.0240482 0.925917 0.677592
0.0247044 0.925536 0.673655
0.707393 0.888441 0.299977
0.943023 0.906584 0.0357824
0.95697 0.910369 0.0629129
0.957 0.911757 0.0777752
0.0153658 0.931044 0.729992
0.0153658 0.931044 0.729992
0.0153658 0.931044 0.729992
0.0153658 0.931044 0.729992
0.0153658 0.931044 0.729992
0.564691 0.934295 0.532448
0.935012 0.922545 0.219776
0.959503 0.917723 0.140063
0.959426 0.921813 0.184787
0 0.414496 1
0 0.414496 1
0 0.409537 1
0.761349 0.312795 0.990051
1 0.296818 0.902449
1 0.29691 0.894697
1 0.297353 0.898085
1 0.297307 0.897765
1 0.367132 0.906432
0 0.414496 1
0 0.414496 1
0 0.409903 1
0.75993 0.31284 0.990204
1 0.296803 0.902419
1 0.296895 0.894667
1 0.297353 0.898085
1 0.297307 0.897749
1 0.367361 0.906447
0 0.414481 1
0 0.414481 1
0 0.410986 1
0.755505 0.313085 0.990707
1 0.296773 0.902358
1 0.296895 0.894606
1 0.297337 0.898054
1 0.297307 0.897704
1 0.368154 0.906462
0 0.435966 1
0 0.43595 1
0 0.410315 1
0.396658 0.322652 1
1 0.298451 0.912337
1 0.295415 0.883085
1 0.29659 0.892348
1 0.29691 0.894789
1 0.367956 0.905898
0 0.82858 1
0 0.82858 1
0 0.822568 1
0 0.773785 1
0.675837 0.681987 0.986435
1 0.509087 0.90692
1 0.292668 0.858946
1 0.293202 0.86334
1 0.3075 0.85304
0 0.946319 1
0 0.946303 1
0 0.946303 1
0 0.938079 1
0.16701 0.923186 0.987076
0.950851 0.93666 0.911849
0.989944 0.894438 0.861875
0.997131 0.7523 0.739971
0.971801 0.445731 0.44448
0.136645 0.914153 0.895918
0.136599 0.914153 0.895857
0.1364 0.914199 0.895567
0.135546 0.914382 0.894453
0.00756847 0.936843 0.800183
0.799115 0.936843 0.632914
0.962982 0.932692 0.305455
0.955077 0.903319 0.000167849
0.955505 0.901823 0
0.0241703 0.925841 0.676905
0.0241703 0.925841 0.676905
0.0241703 0.925841 0.676905
0.0241703 0.925841 0.676905
0.0241703 0.925841 0.67689
0.705867 0.88835 0.297841
0.943084 0.906493 0.0345617
0.956954 0.910292 0.0621195
0.956939 0.911589 0.0758068
0.0153658 0.931044 0.729992
0.0153658 0.931044 0.729992
0.0153658 0.931044 0.729992
0.0153658 0.931044 0.729992
0.0153658 0.931044 0.729992
0.560525 0.934188 0.533684
0.934844 0.922576 0.220417
0.959503 0.917708 0.139986
0.959426 0.921813 0.184787
0 0.482185 1
0 0.482185 1
0 0.479057 1
0.379217 0.326345 1
1 0.298116 0.906767
1 0.297459 0.898833
1 0.297429 0.898695
1 0.297429 0.898695
1 0.297429 0.898695
0 0.482155 1
0 0.482139 1
0 0.479591 1
0.375723 0.326711 1
1 0.298116 0.906767
1 0.297459 0.898833
1 0.297429 0.898695
1 0.297429 0.898695
1 0.297429 0.898695
0 0.481987 1
0 0.481987 1
0 0.481285 1
0.363134 0.327977 1
1 0.298116 0.906813
1 0.297459 0.898833
1 0.297429 0.898695
1 0.297429 0.898695
1 0.297429 0.898695
0 0.481422 1
0 0.481422 1
0 0.481392 1
0.317433 0.332601 1
1 0.298116 0.906966
1 0.297459 0.898848
1 0.297429 0.898695
1 0.297429 0.898695
1 0.297429 0.898695
0 0.747677 1
0 0.747646 1
0 0.747585 1
0 0.673304 1
0.746517 0.517571 0.999924
1 0.299016 0.900755
1 0.297429 0.898695
1 0.297429 0.898695
1 0.297429 0.898695
0 0.945785 1
0 0.945769 1
0 0.945769 1
0 0.938537 1
0 0.918914 1
0.918807 0.907317 0.990433
1 0.828977 0.967163
1 0.519097 0.926162
1 0.297002 0.895476
0 0.9626 1
0 0.9626 1
0 0.9626 1
0 0.9626 1
0 0.960555 1
0.7346 0.953841 0.964172
0.999146 0.99147 0.968643
0.999374 0.98497 0.960449
0.999924 0.975891 0.950683
3.0518e-05 0.957351 1
3.0518e-05 0.957336 1
3.0518e-05 0.957336 1
3.0518e-05 0.957305 1
3.0518e-05 0.957214 1
0.538323 0.930068 0.926329
0.9776 0.989456 0.920287
0.991989 0.989288 0.887724
0.99028 0.98706 0.866285
0.101701 0.925978 0.946166
0.101762 0.925963 0.946105
0.102007 0.925887 0.945876
0.102815 0.925658 0.945159
0.105608 0.924849 0.942611
0.416052 0.958923 0.859754
0.948898 0.969711 0.721813
0.967498 0.948074 0.46775
0.95874 0.918608 0.151049
0 0.613245 1
0 0.613245 1
0 0.61323 1
0 0.558282 1
0.998245 0.308522 0.926345
1 0.297429 0.898695
1 0.297429 0.898695
1 0.297429 0.898695
1 0.297429 0.898695
0 0.61323 1
0 0.61323 1
0 0.61323 1
0 0.558404 1
0.99823 0.308598 0.926452
1 0.297429 0.898695
1 0.297429 0.898695
1 0.297429 0.898695
1 0.297429 0.898695
0 0.613184 1
0 0.613184 1
0 0.613184 1
0 0.558709 1
0.998138 0.308843 0.926787
1 0.297429 0.898695
1 0.297429 0.898695
1 0.297429 0.898695
1 0.297429 0.898695
0 0.613031 1
0 0.613016 1
0 0.613016 1
0 0.559915 1
0.997726 0.309941 0.928298
1 0.297429 0.898695
1 0.297429 0.898695
1 0.297429 0.898695
1 0.297429 0.898695
0 0.612436 1
0 0.612436 1
0 0.612436 1
0 0.569711 1
0.996246 0.313832 0.933593
1 0.297429 0.898695
1 0.297429 0.898695
1 0.297429 0.898695
1 0.297429 0.898695
0 0.935882 1
0 0.935882 1
0 0.935897 1
0 0.935882 1
0.00390631 0.901228 1
0.924224 0.866178 0.990463
1 0.739071 0.959457
1 0.340658 0.905013
1 0.297429 0.898695
0 0.963394 1
0 0.963394 1
0 0.963394 1
0 0.963394 1
0 0.961639 1
0.623423 0.963226 0.99852
0.997909 0.988983 0.991196
1 0.978469 0.989761
1 0.965072 0.987671
0 0.964385 1
0 0.964385 1
0 0.964385 1
0 0.964385 1
0 0.964385 1
0.388708 0.965484 1
0.977111 0.996902 0.989364
0.999466 0.998489 0.985992
0.998703 0.998001 0.984924
0 0.964202 1
0 0.964202 1
0 0.964202 1
0 0.964202 1
0 0.964202 1
0.165621 0.963668 1
0.95465 0.994522 0.984482
0.999268 0.998291 0.9785
0.998062 0.998047 0.977249
0 0.615686 1
0 0.615686 1
0 0.615686 1
0 0.603479 1
0.991562 0.326345 0.945235
1 0.297429 0.898695
1 0.297429 0.898695
1 0.297429 0.898695
1 0.297429 0.898695
0 0.615686 1
0 0.615686 1
0 0.615686 1
0 0.603967 1
0.991516 0.326467 0.945373
1 0.297429 0.898695
1 0.297429 0.898695
1 0.297429 0.898695
1 0.297429 0.898695
0 0.615686 1
0 0.615686 1
0 0.615686 1
0 0.605463 1
0.991394 0.326818 0.945785
1 0.297429 0.898695
1 0.297429 0.898695
1 0.297429 0.898695
1 0.297429 0.898695
0 0.615686 1
0 0.615686 1
0 0.615686 1
0 0.610758 1
0.990814 0.328344 0.947585
1 0.297429 0.898695
1 0.297429 0.898695
1 0.297429 0.898695
1 0.297429 0.898695
0 0.615686 1
0 0.615686 1
0 0.615686 1
0 0.615686 1
0.988739 0.333883 0.954162
1 0.297429 0.898695
1 0.297429 0.898695
1 0.297429 0.898695
1 0.297429 0.898695
0 0.910155 1
0 0.91017 1
0 0.910155 1
0 0.910109 1
0 0.865492 1
0.992798 0.794247 0.987594
1 0.54226 0.933532
1 0.297429 0.898695
1 0.297429 0.898695
0 0.963073 1
0 0.963073 1
0 0.963058 1
0 0.963073 1
0 0.961166 1
0.620447 0.963272 0.99968
0.997833 0.986313 0.991897
1 0.971984 0.990173
1 0.952804 0.987518
0 0.964477 1
0 0.964477 1
0 0.964477 1
0 0.964477 1
0 0.964477 1
0.343832 0.966659 1
0.96907 0.994308 0.99028
0.999741 0.998627 0.990509
0.999237 0.99823 0.990372
0 0.964508 1
0 0.964508 1
0 0.964508 1
0 0.964508 1
0 0.964508 1
0.092546 0.965454 1
0.944335 0.988586 0.985443
0.999741 0.999252 0.988708
0.999008 0.9991 0.988754
