Log3G10_RWG_to_EternaBleachBypass.cube
TITLE "Generated by Resolve"
LUT_3D_SIZE 9
0 0 0
0.036286 0.00430304 0.0053254
0.12459 0.0171664 0.0241245
0.349157 0.0261845 0.056199
0.597986 0.0703899 0.106096
0.622965 0.110155 0.128923
0.622965 0.110155 0.128923
0.622965 0.110155 0.128923
0.622965 0.110155 0.128923
0.00646983 0.0388037 0.00788891
0.0291905 0.0401617 0.0142061
0.13756 0.0471962 0.032578
0.412757 0.0348363 0.0644541
0.597833 0.0703593 0.106035
0.622965 0.110155 0.128923
0.622965 0.110155 0.128923
0.622965 0.110155 0.128923
0.622965 0.110155 0.128923
0.0553445 0.177905 0.063035
0.0534218 0.18294 0.0641337
0.160204 0.185611 0.0838178
0.460456 0.191928 0.121035
0.673503 0.24538 0.198337
0.622965 0.110155 0.128923
0.622965 0.110155 0.128923
0.622965 0.110155 0.128923
0.622965 0.110155 0.128923
0.280201 0.700786 0.305394
0.280018 0.700435 0.305211
0.282139 0.631662 0.277668
0.591913 0.654261 0.359258
0.876631 0.712276 0.421958
0.815702 0.52578 0.335302
0.630274 0.132387 0.139345
0.622965 0.110155 0.128923
0.622965 0.110155 0.128923
0.401648 0.880034 0.446616
0.401648 0.880034 0.446616
0.40145 0.879973 0.446387
0.55494 0.897108 0.441337
0.878279 0.932738 0.48716
0.942153 0.890074 0.485145
0.924056 0.80734 0.462226
0.84126 0.582208 0.365011
0.622965 0.110155 0.128923
0.51841 0.912169 0.556634
0.51841 0.912169 0.556634
0.51841 0.912169 0.556634
0.51841 0.912169 0.556634
0.729015 0.950591 0.580987
0.933608 0.971572 0.555795
0.950744 0.954604 0.539849
0.948028 0.935393 0.522164
0.945998 0.914565 0.50721
0.51841 0.912169 0.556634
0.51841 0.912169 0.556634
0.51841 0.912169 0.556634
0.51841 0.912169 0.556634
0.51841 0.912169 0.556634
0.855344 0.965988 0.616236
0.954025 0.975525 0.580652
0.952392 0.973754 0.566155
0.952392 0.973754 0.566155
0.51841 0.912169 0.556634
0.51841 0.912169 0.556634
0.51841 0.912169 0.556634
0.51841 0.912169 0.556634
0.51841 0.912169 0.556634
0.668559 0.941726 0.586053
0.939956 0.974197 0.611139
0.952392 0.973754 0.566155
0.952392 0.973754 0.566155
0.51841 0.912169 0.556634
0.51841 0.912169 0.556634
0.51841 0.912169 0.556634
0.51841 0.912169 0.556634
0.51841 0.912169 0.556634
0.51841 0.912169 0.556634
0.908797 0.972091 0.617441
0.952392 0.973754 0.566155
0.952392 0.973754 0.566155
0.00115969 0.00294499 0.0159762
0.0344244 0.00654612 0.0166323
0.130632 0.0162814 0.0256809
0.35462 0.0257115 0.0559091
0.597833 0.0703593 0.106035
0.622965 0.110155 0.128923
0.622965 0.110155 0.128923
0.622965 0.110155 0.128923
0.622965 0.110155 0.128923
0.0084535 0.0320897 0.0339666
0.0279698 0.0280919 0.0279545
0.138186 0.0292363 0.0290227
0.393545 0.0293736 0.0603799
0.597681 0.0703136 0.105974
0.622965 0.110155 0.128923
0.622965 0.110155 0.128923
0.622965 0.110155 0.128923
0.622965 0.110155 0.128923
0.0522927 0.168902 0.0597848
0.0502632 0.172427 0.0599069
0.156649 0.177462 0.0797742
0.457755 0.182742 0.116884
0.666926 0.230335 0.190417
0.622965 0.110155 0.128923
0.622965 0.110155 0.128923
0.622965 0.110155 0.128923
0.622965 0.110155 0.128923
0.278233 0.697017 0.30341
0.27805 0.696681 0.303227
0.278508 0.627451 0.275334
0.589151 0.649592 0.356985
0.875471 0.708659 0.420874
0.813367 0.520607 0.332708
0.627436 0.123705 0.134264
0.622965 0.110155 0.128923
0.622965 0.110155 0.128923
0.401038 0.87982 0.445914
0.401038 0.87982 0.445914
0.400839 0.879759 0.44567
0.553948 0.89662 0.440986
0.87834 0.93257 0.487007
0.942107 0.889693 0.484962
0.923888 0.806607 0.461997
0.839887 0.579293 0.363348
0.622965 0.110155 0.128923
0.51841 0.912169 0.556634
0.51841 0.912169 0.556634
0.51841 0.912169 0.556634
0.51841 0.912169 0.556634
0.728756 0.950545 0.58088
0.933623 0.971572 0.555642
0.950744 0.954574 0.539818
0.948013 0.935317 0.522133
0.945968 0.914427 0.507103
0.51841 0.912169 0.556634
0.51841 0.912169 0.556634
0.51841 0.912169 0.556634
0.51841 0.912169 0.556634
0.51841 0.912169 0.556634
0.855268 0.965988 0.61622
0.954025 0.975525 0.580652
0.952392 0.973754 0.566155
0.952392 0.973754 0.566155
0.51841 0.912169 0.556634
0.51841 0.912169 0.556634
0.51841 0.912169 0.556634
0.51841 0.912169 0.556634
0.51841 0.912169 0.556634
0.668376 0.941695 0.586007
0.939956 0.974197 0.611139
0.952392 0.973754 0.566155
0.952392 0.973754 0.566155
0.51841 0.912169 0.556634
0.51841 0.912169 0.556634
0.51841 0.912169 0.556634
0.51841 0.912169 0.556634
0.51841 0.912169 0.556634
0.51841 0.912169 0.556634
0.908797 0.972091 0.617441
0.952392 0.973754 0.566155
0.952392 0.973754 0.566155
0.0140078 0.0190127 0.0723278
0.0265507 0.0202029 0.070573
0.150469 0.0371862 0.0948043
0.450034 0.0519875 0.131243
0.613504 0.0862745 0.116075
0.622965 0.110155 0.128923
0.622965 0.110155 0.128923
0.622965 0.110155 0.128923
0.622965 0.110155 0.128923
0.0132448 0.0185245 0.070222
0.0186923 0.0181125 0.0672618
0.14609 0.0364538 0.0921035
0.44448 0.0518044 0.126787
0.613077 0.0859998 0.116365
0.622965 0.110155 0.128923
0.622965 0.110155 0.128923
0.622965 0.110155 0.128923
0.622965 0.110155 0.128923
0.0636759 0.218219 0.230961
0.0622873 0.213107 0.221271
0.175677 0.175845 0.175647
0.490227 0.16759 0.181842
0.646967 0.181338 0.166598
0.622965 0.110155 0.128923
0.622965 0.110155 0.128923
0.622965 0.110155 0.128923
0.622965 0.110155 0.128923
0.271077 0.682429 0.299184
0.269947 0.68098 0.295506
0.265141 0.611536 0.266377
0.578912 0.632517 0.348653
0.871183 0.694514 0.415961
0.80473 0.501442 0.32311
0.622965 0.110155 0.128923
0.622965 0.110155 0.128923
0.622965 0.110155 0.128923
0.398886 0.879088 0.443412
0.398795 0.879042 0.44329
0.398581 0.878981 0.443061
0.550225 0.894804 0.439734
0.878538 0.93196 0.486458
0.941848 0.88809 0.484352
0.923217 0.803632 0.461051
0.834714 0.568322 0.357076
0.622965 0.110155 0.128923
0.51841 0.912169 0.556634
0.51841 0.912169 0.556634
0.51841 0.912169 0.556634
0.51841 0.912169 0.556634
0.727901 0.950439 0.580545
0.9337 0.971588 0.555169
0.950744 0.954391 0.53959
0.947967 0.935012 0.521981
0.945907 0.914 0.506798
0.51841 0.912169 0.556634
0.51841 0.912169 0.556634
0.51841 0.912169 0.556634
0.51841 0.912169 0.556634
0.51841 0.912169 0.556634
0.855131 0.965957 0.616205
0.954025 0.975525 0.580636
0.952392 0.973754 0.566155
0.952392 0.973754 0.566155
0.51841 0.912169 0.556634
0.51841 0.912169 0.556634
0.51841 0.912169 0.556634
0.51841 0.912169 0.556634
0.51841 0.912169 0.556634
0.667887 0.941634 0.58587
0.93991 0.974197 0.611154
0.952392 0.973754 0.566155
0.952392 0.973754 0.566155
0.51841 0.912169 0.556634
0.51841 0.912169 0.556634
0.51841 0.912169 0.556634
0.51841 0.912169 0.556634
0.51841 0.912169 0.556634
0.51841 0.912169 0.556634
0.908736 0.972091 0.617456
0.952392 0.973754 0.566155
0.952392 0.973754 0.566155
0.0408179 0.0567178 0.180423
0.0407263 0.0566262 0.180072
0.166918 0.071931 0.194751
0.536049 0.115236 0.300954
0.682826 0.214603 0.343969
0.64419 0.153277 0.202121
0.622965 0.110155 0.128923
0.622965 0.110155 0.128923
0.622965 0.110155 0.128923
0.0403754 0.0563058 0.178668
0.0402838 0.0562142 0.178317
0.16321 0.0706188 0.191348
0.533516 0.113527 0.297322
0.681758 0.213046 0.340902
0.642756 0.149493 0.19649
0.622965 0.110155 0.128923
0.622965 0.110155 0.128923
0.622965 0.110155 0.128923
0.0591897 0.101228 0.274449
0.0581064 0.0988327 0.269444
0.183001 0.107637 0.320699
0.589563 0.149798 0.384207
0.67776 0.207294 0.329763
0.634714 0.133639 0.168872
0.622965 0.110155 0.128923
0.622965 0.110155 0.128923
0.622965 0.110155 0.128923
0.276432 0.734218 0.70721
0.276356 0.733776 0.706737
0.245045 0.656413 0.628412
0.633783 0.633936 0.633738
0.896834 0.637293 0.593164
0.738521 0.378683 0.264591
0.622965 0.110155 0.128923
0.622965 0.110155 0.128923
0.622965 0.110155 0.128923
0.375906 0.885328 0.572503
0.375738 0.88513 0.568719
0.375906 0.884062 0.554009
0.535454 0.883574 0.431922
0.879469 0.929763 0.484489
0.940627 0.881727 0.482338
0.920745 0.792676 0.457603
0.815518 0.528145 0.33698
0.622965 0.110155 0.128923
0.51841 0.912169 0.556634
0.51841 0.912169 0.556634
0.51841 0.912169 0.556634
0.51841 0.912169 0.556634
0.724712 0.949996 0.579324
0.934005 0.971649 0.553368
0.950744 0.953735 0.538781
0.947845 0.933974 0.521447
0.945647 0.912413 0.505653
0.51841 0.912169 0.556634
0.51841 0.912169 0.556634
0.51841 0.912169 0.556634
0.51841 0.912169 0.556634
0.51841 0.912169 0.556634
0.854643 0.965881 0.616114
0.953994 0.975509 0.580591
0.952392 0.973754 0.566155
0.952392 0.973754 0.566155
0.51841 0.912169 0.556634
0.51841 0.912169 0.556634
0.51841 0.912169 0.556634
0.51841 0.912169 0.556634
0.51841 0.912169 0.556634
0.665949 0.94139 0.585367
0.939818 0.974182 0.61117
0.952392 0.973754 0.566155
0.952392 0.973754 0.566155
0.51841 0.912169 0.556634
0.51841 0.912169 0.556634
0.51841 0.912169 0.556634
0.51841 0.912169 0.556634
0.51841 0.912169 0.556634
0.51841 0.912169 0.556634
0.908537 0.972076 0.617502
0.952392 0.973754 0.566155
0.952392 0.973754 0.566155
0.0928359 0.110048 0.405722
0.0928206 0.110018 0.405615
0.092668 0.109865 0.404974
0.611704 0.221286 0.567727
0.782528 0.358663 0.619806
0.758892 0.327794 0.542107
0.699886 0.247883 0.365225
0.622965 0.110155 0.128923
0.622965 0.110155 0.128923
0.092668 0.109865 0.404974
0.0926528 0.109834 0.404852
0.0925307 0.109712 0.404318
0.609689 0.220233 0.56611
0.782193 0.358099 0.61912
0.758602 0.327306 0.541146
0.699413 0.247318 0.363653
0.622965 0.110155 0.128923
0.622965 0.110155 0.128923
0.0920729 0.109239 0.402258
0.0920577 0.109209 0.402136
0.0919203 0.109056 0.401495
0.602564 0.216434 0.560525
0.780911 0.355917 0.616617
0.757534 0.325582 0.537789
0.697673 0.245197 0.358038
0.622965 0.110155 0.128923
0.622965 0.110155 0.128923
0.284947 0.565377 0.709728
0.284657 0.564324 0.709316
0.283665 0.560662 0.707897
0.643397 0.488228 0.757382
0.838468 0.454658 0.750149
0.753597 0.319173 0.525322
0.690837 0.236713 0.336614
0.622965 0.110155 0.128923
0.622965 0.110155 0.128923
0.295415 0.852354 0.79736
0.295415 0.852338 0.79736
0.295415 0.852323 0.797391
0.354757 0.841978 0.788693
0.896345 0.897597 0.896071
0.965713 0.836652 0.807263
0.913115 0.709682 0.513756
0.703365 0.3093 0.232517
0.622965 0.110155 0.128923
0.446616 0.912688 0.738491
0.446952 0.912734 0.737926
0.448218 0.912886 0.735805
0.452873 0.913649 0.728267
0.722148 0.951202 0.625803
0.935119 0.971786 0.546929
0.95079 0.9514 0.535927
0.947356 0.930114 0.519463
0.944457 0.906126 0.501595
0.51841 0.912169 0.556634
0.51841 0.912169 0.556634
0.51841 0.912169 0.556634
0.51841 0.912169 0.556634
0.51841 0.912169 0.556634
0.852934 0.965591 0.615824
0.953857 0.975402 0.58056
0.952392 0.973754 0.566155
0.952392 0.973754 0.566155
0.51841 0.912169 0.556634
0.51841 0.912169 0.556634
0.51841 0.912169 0.556634
0.51841 0.912169 0.556634
0.51841 0.912169 0.556634
0.658717 0.940444 0.583474
0.939529 0.974166 0.611215
0.952392 0.973754 0.566155
0.952392 0.973754 0.566155
0.51841 0.912169 0.556634
0.51841 0.912169 0.556634
0.51841 0.912169 0.556634
0.51841 0.912169 0.556634
0.51841 0.912169 0.556634
0.51841 0.912169 0.556634
0.907851 0.972061 0.617655
0.952392 0.973754 0.566155
0.952392 0.973754 0.566155
0.155886 0.195819 0.578378
0.155886 0.195819 0.578378
0.155825 0.195712 0.578256
0.15349 0.194476 0.574578
0.870298 0.50547 0.824887
0.856168 0.483986 0.783047
0.830564 0.442405 0.730892
0.788632 0.371298 0.622354
0.707134 0.258473 0.390723
0.155825 0.195712 0.578256
0.155825 0.195712 0.578256
0.155795 0.195651 0.57821
0.152285 0.192401 0.572305
0.870222 0.505302 0.824826
0.856092 0.483864 0.782925
0.830488 0.442267 0.730709
0.788479 0.371084 0.621988
0.706859 0.258137 0.389792
0.155596 0.195315 0.577859
0.155596 0.195315 0.577859
0.15552 0.195193 0.577752
0.148211 0.18497 0.565698
0.869963 0.504692 0.824659
0.855833 0.483467 0.782437
0.830137 0.441657 0.729915
0.787823 0.370138 0.62034
0.705852 0.256916 0.386389
0.154711 0.193851 0.576394
0.154711 0.193851 0.576394
0.154681 0.19379 0.576349
0.154482 0.193454 0.576013
0.868925 0.502297 0.823957
0.854948 0.482063 0.780804
0.828962 0.439551 0.727123
0.785443 0.366735 0.614435
0.701869 0.252186 0.373281
0.279301 0.723354 0.751583
0.279255 0.723171 0.751507
0.279088 0.722622 0.751293
0.278553 0.720699 0.750546
0.847257 0.751492 0.919356
0.938369 0.676234 0.893584
0.824796 0.431754 0.716701
0.776745 0.354208 0.592493
0.684977 0.230396 0.317769
0.298833 0.890364 0.807935
0.298833 0.890364 0.807935
0.298833 0.890364 0.807935
0.298833 0.890364 0.807935
0.455543 0.906981 0.853086
0.956222 0.957809 0.956283
0.980087 0.928481 0.914076
0.968566 0.89543 0.814694
0.939178 0.877974 0.484169
0.305821 0.891768 0.803067
0.305882 0.891798 0.803052
0.306157 0.891905 0.80296
0.307103 0.892302 0.80267
0.317174 0.894591 0.802899
0.861845 0.974655 0.822751
0.954406 0.975464 0.587716
0.952392 0.973754 0.566155
0.952392 0.973754 0.566155
0.51841 0.912169 0.556634
0.51841 0.912169 0.556634
0.51841 0.912169 0.556634
0.51841 0.912169 0.556634
0.51841 0.912169 0.556634
0.634745 0.936431 0.578332
0.938491 0.97406 0.611429
0.952392 0.973754 0.566155
0.952392 0.973754 0.566155
0.51841 0.912169 0.556634
0.51841 0.912169 0.556634
0.51841 0.912169 0.556634
0.51841 0.912169 0.556634
0.51841 0.912169 0.556634
0.51841 0.912169 0.556634
0.905318 0.971786 0.617868
0.952392 0.973754 0.566155
0.952392 0.973754 0.566155
0.237369 0.337881 0.651377
0.237369 0.337881 0.651377
0.237339 0.337835 0.651362
0.237324 0.337789 0.651347
0.669261 0.545419 0.806363
0.915373 0.591638 0.897993
0.906584 0.576165 0.88191
0.894118 0.549844 0.85565
0.881285 0.525795 0.832303
0.237339 0.337835 0.651362
0.237339 0.337835 0.651362
0.237339 0.337835 0.651362
0.237293 0.337728 0.651347
0.666896 0.544472 0.805341
0.915358 0.591623 0.897978
0.906569 0.576135 0.88188
0.894118 0.549844 0.85565
0.881254 0.525734 0.832227
0.237293 0.337728 0.651347
0.237293 0.337728 0.651347
0.237263 0.337682 0.651331
0.237232 0.337636 0.651316
0.658274 0.541085 0.801633
0.915343 0.591592 0.897932
0.906523 0.576043 0.881788
0.894057 0.549706 0.855543
0.881163 0.525582 0.832029
0.237064 0.337346 0.651255
0.237064 0.337346 0.651255
0.237049 0.337301 0.65124
0.237018 0.33724 0.651225
0.624399 0.526986 0.787442
0.915236 0.591455 0.897795
0.906401 0.575738 0.881483
0.893858 0.549249 0.855146
0.880842 0.525032 0.831312
0.236301 0.335973 0.650935
0.236271 0.335927 0.650935
0.236271 0.335927 0.650935
0.236225 0.335836 0.650904
0.438483 0.447883 0.716228
0.914839 0.590921 0.897231
0.905928 0.574578 0.880323
0.893111 0.547539 0.853681
0.879713 0.52314 0.828794
0.295827 0.853269 0.798077
0.295827 0.853269 0.798077
0.295811 0.853193 0.798047
0.295766 0.852934 0.797909
0.295583 0.852094 0.797498
0.938338 0.878355 0.962234
0.966033 0.826566 0.961578
0.957198 0.740093 0.937835
0.875608 0.516243 0.819684
0.298833 0.890364 0.807935
0.298833 0.890364 0.807935
0.298833 0.890364 0.807935
0.298833 0.890364 0.807935
0.298833 0.890364 0.807935
0.690929 0.960388 0.923095
0.993378 0.995499 0.993652
0.99295 0.984848 0.974502
0.988785 0.978058 0.955459
0.298833 0.890364 0.807935
0.298833 0.890364 0.807935
0.298833 0.890364 0.807935
0.298833 0.890364 0.807935
0.298833 0.890364 0.807935
0.298833 0.890364 0.807935
0.951537 0.991882 0.951843
0.984909 0.992142 0.902266
0.972961 0.985641 0.793988
0.51841 0.912169 0.556634
0.51841 0.912169 0.556634
0.51841 0.912169 0.556634
0.51841 0.912169 0.556634
0.51841 0.912169 0.556634
0.51841 0.912169 0.556634
0.896788 0.970153 0.617456
0.952392 0.973754 0.566155
0.952392 0.973754 0.566155
0.252918 0.399207 0.661601
0.252918 0.399207 0.661601
0.252888 0.399176 0.661585
0.252888 0.399176 0.661585
0.252857 0.3991 0.66154
0.919997 0.603265 0.90547
0.919997 0.603265 0.90547
0.919997 0.603265 0.90547
0.919997 0.603265 0.90547
0.252888 0.399176 0.661585
0.252888 0.399176 0.661585
0.252888 0.399176 0.661585
0.252888 0.399176 0.661585
0.252842 0.399069 0.661524
0.919997 0.603265 0.90547
0.919997 0.603265 0.90547
0.919997 0.603265 0.90547
0.919997 0.603265 0.90547
0.252888 0.399176 0.661585
0.252872 0.39913 0.661555
0.252872 0.39913 0.661555
0.252872 0.39913 0.661555
0.252827 0.399039 0.661509
0.919997 0.603265 0.90547
0.919997 0.603265 0.90547
0.919997 0.603265 0.90547
0.919997 0.603265 0.90547
0.252842 0.399069 0.661524
0.252827 0.399039 0.661509
0.252827 0.399039 0.661509
0.252827 0.399039 0.661509
0.252781 0.398932 0.661448
0.919997 0.603265 0.90547
0.919997 0.603265 0.90547
0.919997 0.603265 0.90547
0.919997 0.603265 0.90547
0.252674 0.398703 0.661295
0.252674 0.398703 0.661295
0.252674 0.398703 0.661295
0.252659 0.398672 0.66128
0.252628 0.398596 0.66125
0.919997 0.603265 0.90547
0.919997 0.603265 0.90547
0.919997 0.603265 0.90547
0.919997 0.603265 0.90547
0.252064 0.397436 0.660548
0.252064 0.397436 0.660548
0.252064 0.397436 0.660548
0.252049 0.397391 0.660533
0.252018 0.39733 0.660487
0.919997 0.603265 0.90547
0.919997 0.603265 0.90547
0.919997 0.603265 0.90547
0.919997 0.603265 0.90547
0.298833 0.890364 0.807935
0.298833 0.890364 0.807935
0.298833 0.890364 0.807935
0.298833 0.890364 0.807935
0.298833 0.890364 0.807935
0.372503 0.906432 0.83209
0.9888 0.962036 0.98822
0.985183 0.941924 0.983215
0.981704 0.92784 0.979721
0.298833 0.890364 0.807935
0.298833 0.890364 0.807935
0.298833 0.890364 0.807935
0.298833 0.890364 0.807935
0.298833 0.890364 0.807935
0.298833 0.890364 0.807935
0.91725 0.988647 0.978469
1 1 1
1 1 1
0.298833 0.890364 0.807935
0.298833 0.890364 0.807935
0.298833 0.890364 0.807935
0.298833 0.890364 0.807935
0.298833 0.890364 0.807935
0.298833 0.890364 0.807935
0.804608 0.974746 0.95082
1 1 1
0.999435 0.999786 0.999146
0.256245 0.412543 0.664485
0.256245 0.412543 0.664485
0.256245 0.412543 0.664485
0.256245 0.412543 0.664485
0.256245 0.412543 0.664485
0.256245 0.412543 0.664485
0.919997 0.603265 0.90547
0.919997 0.603265 0.90547
0.919997 0.603265 0.90547
0.256245 0.412543 0.664485
0.256245 0.412543 0.664485
0.256245 0.412543 0.664485
0.256245 0.412543 0.664485
0.256245 0.412543 0.664485
0.256245 0.412543 0.664485
0.919997 0.603265 0.90547
0.919997 0.603265 0.90547
0.919997 0.603265 0.90547
0.256245 0.412543 0.664485
0.256245 0.412543 0.664485
0.256245 0.412543 0.664485
0.256245 0.412543 0.664485
0.256245 0.412543 0.664485
0.256245 0.412543 0.664485
0.919997 0.603265 0.90547
0.919997 0.603265 0.90547
0.919997 0.603265 0.90547
0.256245 0.412543 0.664485
0.256245 0.412543 0.664485
0.256245 0.412543 0.664485
0.256245 0.412543 0.664485
0.256245 0.412543 0.664485
0.256245 0.412543 0.664485
0.919997 0.603265 0.90547
0.919997 0.603265 0.90547
0.919997 0.603265 0.90547
0.256245 0.412543 0.664485
0.256245 0.412543 0.664485
0.256245 0.412543 0.664485
0.256245 0.412543 0.664485
0.256245 0.412543 0.664485
0.256245 0.412543 0.664485
0.919997 0.603265 0.90547
0.919997 0.603265 0.90547
0.919997 0.603265 0.90547
0.256245 0.412543 0.664485
0.256245 0.412543 0.664485
0.256245 0.412543 0.664485
0.256245 0.412543 0.664485
0.256245 0.412543 0.664485
0.256245 0.412543 0.664485
0.919997 0.603265 0.90547
0.919997 0.603265 0.90547
0.919997 0.603265 0.90547
0.256245 0.412543 0.664485
0.256245 0.412543 0.664485
0.256245 0.412543 0.664485
0.256245 0.412543 0.664485
0.256245 0.412543 0.664485
0.256245 0.412543 0.664485
0.919997 0.603265 0.90547
0.919997 0.603265 0.90547
0.919997 0.603265 0.90547
0.298833 0.890364 0.807935
0.298833 0.890364 0.807935
0.298833 0.890364 0.807935
0.298833 0.890364 0.807935
0.298833 0.890364 0.807935
0.298833 0.890364 0.807935
0.886793 0.985229 0.970779
1 1 1
1 1 1
0.298833 0.890364 0.807935
0.298833 0.890364 0.807935
0.298833 0.890364 0.807935
0.298833 0.890364 0.807935
0.298833 0.890364 0.807935
0.298833 0.890364 0.807935
0.674861 0.958236 0.918883
1 1 1
1 1 1
