Log3G10_RWG_to_ClassicNeg.cube
TITLE "Generated by Resolve"
LUT_3D_SIZE 9
0 0 0
0.034165 0.00296025 7.62951e-05
0.165728 0.00979629 1.5259e-05
0.56054 0.0350347 0.000411994
0.934218 0.0555581 0.0147707
0.937209 0.0558938 0.0466773
0.937209 0.0558938 0.0466773
0.937209 0.0558938 0.0466773
0.937209 0.0558938 0.0466773
0 0.0268864 0.00357061
0.00943008 0.0252995 0.00254826
0.172122 0.0259098 0
0.692851 0.0429694 0
0.934096 0.0555581 0.0146487
0.937209 0.0558938 0.0466773
0.937209 0.0558938 0.0466773
0.937209 0.0558938 0.0466773
0.937209 0.0558938 0.0466773
0.00630198 0.195804 0.0520333
0.00665293 0.201755 0.051545
0.132677 0.196567 0.0399176
0.684291 0.213458 4.57771e-05
0.939666 0.177691 0.0534218
0.937209 0.0558938 0.0466773
0.937209 0.0558938 0.0466773
0.937209 0.0558938 0.0466773
0.937209 0.0558938 0.0466773
0.0284428 0.757534 0.251148
0.0284428 0.757168 0.25095
0.0250095 0.673014 0.211872
0.516381 0.642451 0.14995
0.947494 0.621347 0.153124
0.947555 0.406958 0.108354
0.936919 0.0592355 0.0444953
0.937209 0.0558938 0.0466773
0.937209 0.0558938 0.0466773
0.0433814 0.943771 0.508812
0.0433814 0.943771 0.508812
0.0433814 0.943771 0.508507
0.0398566 0.925536 0.424338
0.869337 0.941527 0.322133
0.967849 0.863859 0.324559
0.962692 0.747143 0.254063
0.950271 0.464897 0.129427
0.937209 0.0558938 0.0466773
0.0481727 0.942946 0.629267
0.0481727 0.942946 0.629267
0.0481727 0.942946 0.629267
0.0481727 0.942946 0.629267
0.184573 0.950744 0.602289
0.936034 0.992798 0.469657
0.966598 0.962036 0.434028
0.969619 0.932723 0.403342
0.971603 0.900465 0.372122
0.0481727 0.942946 0.629267
0.0481727 0.942946 0.629267
0.0481727 0.942946 0.629267
0.0481727 0.942946 0.629267
0.0481727 0.942946 0.629267
0.688289 0.979873 0.556695
0.957351 0.994171 0.49305
0.957076 0.992798 0.472938
0.957076 0.992798 0.472938
0.0481727 0.942946 0.629267
0.0481727 0.942946 0.629267
0.0481727 0.942946 0.629267
0.0481727 0.942946 0.629267
0.0481727 0.942946 0.629267
0.0486 0.942046 0.634318
0.937804 0.99411 0.530449
0.957076 0.992798 0.472938
0.957076 0.992798 0.472938
0.0481727 0.942946 0.629267
0.0481727 0.942946 0.629267
0.0481727 0.942946 0.629267
0.0481727 0.942946 0.629267
0.0481727 0.942946 0.629267
0.0481727 0.942946 0.629267
0.873579 0.989502 0.534127
0.957122 0.992828 0.472969
0.957076 0.992798 0.472938
0.00187686 0.00227359 0.0118715
0.0329747 0.00344854 0.00204471
0.17644 0.0109712 0.000717174
0.572244 0.0349126 6.10361e-05
0.934096 0.0555581 0.0146487
0.937209 0.0558938 0.0466773
0.937209 0.0558938 0.0466773
0.937209 0.0558938 0.0466773
0.937209 0.0558938 0.0466773
0.00047303 0.0227207 0.0261997
0.0128481 0.0151522 0.0141909
0.180346 0.0157931 0.000244144
0.655894 0.0408179 0.00030518
0.933989 0.0555581 0.0145113
0.937209 0.0558938 0.0466773
0.937209 0.0558938 0.0466773
0.937209 0.0558938 0.0466773
0.937209 0.0558938 0.0466773
0.00605783 0.186419 0.0488594
0.00588998 0.19086 0.0485084
0.132586 0.188022 0.0370642
0.684993 0.205173 4.57771e-05
0.939605 0.165667 0.0513161
0.937209 0.0558938 0.0466773
0.937209 0.0558938 0.0466773
0.937209 0.0558938 0.0466773
0.937209 0.0558938 0.0466773
0.0283513 0.753414 0.249058
0.028336 0.753048 0.248859
0.0247959 0.668742 0.21033
0.515785 0.637583 0.148196
0.947478 0.616785 0.151492
0.947295 0.401999 0.106584
0.937209 0.056199 0.0451362
0.937209 0.0558938 0.0466773
0.937209 0.0558938 0.0466773
0.0433661 0.943771 0.507881
0.0433661 0.943771 0.507881
0.0433661 0.943755 0.507576
0.039826 0.925322 0.423819
0.869596 0.941176 0.32166
0.967803 0.863279 0.324071
0.962676 0.74612 0.253529
0.950256 0.461891 0.128283
0.937209 0.0558938 0.0466773
0.0481727 0.942946 0.629267
0.0481727 0.942946 0.629267
0.0481727 0.942946 0.629267
0.0481727 0.942946 0.629267
0.184039 0.950713 0.602258
0.936065 0.992798 0.46952
0.966598 0.96199 0.433982
0.969635 0.932586 0.403235
0.971603 0.900252 0.371908
0.0481727 0.942946 0.629267
0.0481727 0.942946 0.629267
0.0481727 0.942946 0.629267
0.0481727 0.942946 0.629267
0.0481727 0.942946 0.629267
0.687953 0.979843 0.556725
0.957351 0.994171 0.49305
0.957076 0.992798 0.472938
0.957076 0.992798 0.472938
0.0481727 0.942946 0.629267
0.0481727 0.942946 0.629267
0.0481727 0.942946 0.629267
0.0481727 0.942946 0.629267
0.0481727 0.942946 0.629267
0.0486 0.942046 0.634318
0.937804 0.99411 0.530449
0.957076 0.992798 0.472938
0.957076 0.992798 0.472938
0.0481727 0.942946 0.629267
0.0481727 0.942946 0.629267
0.0481727 0.942946 0.629267
0.0481727 0.942946 0.629267
0.0481727 0.942946 0.629267
0.0481727 0.942946 0.629267
0.873579 0.989502 0.534127
0.957122 0.992828 0.472969
0.957076 0.992798 0.472938
0.0148165 0.0189364 0.0943465
0.0270237 0.0174563 0.0840467
0.213046 0.0235447 0.0595712
0.748058 0.0483864 0.0169528
0.937057 0.0557259 0.0466316
0.937209 0.0558938 0.0466773
0.937209 0.0558938 0.0466773
0.937209 0.0558938 0.0466773
0.937209 0.0558938 0.0466773
0.0136873 0.0183108 0.0905165
0.0178073 0.016434 0.0817121
0.206622 0.0222171 0.0552987
0.740642 0.0480812 0.0122072
0.936965 0.0557259 0.0453498
0.937209 0.0558938 0.0466773
0.937209 0.0558938 0.0466773
0.937209 0.0558938 0.0466773
0.937209 0.0558938 0.0466773
0.0182803 0.252552 0.31873
0.0169833 0.246006 0.304448
0.171817 0.193057 0.182055
0.75256 0.186297 0.0627909
0.938933 0.116838 0.0498817
0.937209 0.0558938 0.0466773
0.937209 0.0558938 0.0466773
0.937209 0.0558938 0.0466773
0.937209 0.0558938 0.0466773
0.0276951 0.73695 0.248173
0.0278019 0.735851 0.23975
0.0240482 0.65304 0.204105
0.513817 0.619638 0.141741
0.947494 0.599207 0.14583
0.946349 0.383642 0.100023
0.937209 0.0558938 0.0466773
0.937209 0.0558938 0.0466773
0.937209 0.0558938 0.0466773
0.0433051 0.94374 0.504646
0.0433051 0.94374 0.504494
0.0432898 0.94374 0.504189
0.0397192 0.924498 0.422004
0.870451 0.939895 0.319982
0.967681 0.860853 0.32224
0.9626 0.741894 0.251362
0.950225 0.45066 0.124041
0.937209 0.0558938 0.0466773
0.0481727 0.942946 0.629267
0.0481727 0.942946 0.629267
0.0481727 0.942946 0.629267
0.0481727 0.942946 0.629267
0.182208 0.950622 0.602213
0.936217 0.992813 0.469078
0.966674 0.961654 0.433616
0.96968 0.932097 0.402792
0.971588 0.899626 0.371283
0.0481727 0.942946 0.629267
0.0481727 0.942946 0.629267
0.0481727 0.942946 0.629267
0.0481727 0.942946 0.629267
0.0481727 0.942946 0.629267
0.687205 0.979812 0.556802
0.957351 0.994171 0.49305
0.957076 0.992798 0.472938
0.957076 0.992798 0.472938
0.0481727 0.942946 0.629267
0.0481727 0.942946 0.629267
0.0481727 0.942946 0.629267
0.0481727 0.942946 0.629267
0.0481727 0.942946 0.629267
0.0486 0.942046 0.634318
0.937728 0.994095 0.530449
0.957076 0.992798 0.472938
0.957076 0.992798 0.472938
0.0481727 0.942946 0.629267
0.0481727 0.942946 0.629267
0.0481727 0.942946 0.629267
0.0481727 0.942946 0.629267
0.0481727 0.942946 0.629267
0.0481727 0.942946 0.629267
0.873457 0.989502 0.534142
0.957122 0.992828 0.472969
0.957076 0.992798 0.472938
0.0538186 0.0690318 0.256977
0.053666 0.068925 0.256428
0.236805 0.0722972 0.220401
0.840284 0.115908 0.258213
0.949798 0.146548 0.319249
0.939971 0.0759747 0.110628
0.937209 0.0558938 0.0466773
0.937209 0.0558938 0.0466773
0.937209 0.0558938 0.0466773
0.0530861 0.0684672 0.254261
0.0529488 0.0683604 0.253712
0.230503 0.0707408 0.217334
0.838071 0.11458 0.253513
0.94963 0.144869 0.315755
0.939559 0.0714885 0.103151
0.937209 0.0558938 0.0466773
0.937209 0.0558938 0.0466773
0.937209 0.0558938 0.0466773
0.0691844 0.126894 0.391135
0.068452 0.123812 0.383673
0.256443 0.125872 0.405356
0.883833 0.142321 0.366979
0.948913 0.138567 0.302693
0.937713 0.0579843 0.0758831
0.937209 0.0558938 0.0466773
0.937209 0.0558938 0.0466773
0.937209 0.0558938 0.0466773
0.0584573 0.794675 0.988388
0.0584421 0.794202 0.987747
0.0514839 0.715602 0.874098
0.662638 0.627314 0.617868
0.96492 0.531441 0.46482
0.943023 0.27953 0.0639506
0.937209 0.0558938 0.0466773
0.937209 0.0558938 0.0466773
0.937209 0.0558938 0.0466773
0.0504005 0.94255 0.700908
0.0506294 0.942351 0.695445
0.0508736 0.94197 0.673747
0.0381781 0.915908 0.406775
0.874235 0.935149 0.313726
0.967407 0.851316 0.315511
0.962356 0.726406 0.243427
0.948867 0.408362 0.1093
0.937209 0.0558938 0.0466773
0.0481727 0.942946 0.629267
0.0481727 0.942946 0.629267
0.0481727 0.942946 0.629267
0.0481727 0.942946 0.629267
0.175357 0.950225 0.602045
0.936767 0.992859 0.467369
0.966934 0.960494 0.432334
0.969848 0.930373 0.401312
0.971542 0.897307 0.368978
0.0481727 0.942946 0.629267
0.0481727 0.942946 0.629267
0.0481727 0.942946 0.629267
0.0481727 0.942946 0.629267
0.0481727 0.942946 0.629267
0.68481 0.97969 0.557061
0.957382 0.994186 0.493034
0.957076 0.992798 0.472938
0.957076 0.992798 0.472938
0.0481727 0.942946 0.629267
0.0481727 0.942946 0.629267
0.0481727 0.942946 0.629267
0.0481727 0.942946 0.629267
0.0481727 0.942946 0.629267
0.0485542 0.942031 0.634333
0.937591 0.994079 0.530465
0.957076 0.992798 0.472938
0.957076 0.992798 0.472938
0.0481727 0.942946 0.629267
0.0481727 0.942946 0.629267
0.0481727 0.942946 0.629267
0.0481727 0.942946 0.629267
0.0481727 0.942946 0.629267
0.0481727 0.942946 0.629267
0.872953 0.989487 0.534173
0.957122 0.992828 0.472969
0.957076 0.992798 0.472938
0.132586 0.154986 0.592065
0.13254 0.154925 0.591867
0.13225 0.154589 0.590768
0.885481 0.236545 0.645533
0.964294 0.285298 0.628412
0.960693 0.253498 0.538354
0.951293 0.183673 0.334829
0.937209 0.0558938 0.0466773
0.937209 0.0558938 0.0466773
0.13225 0.154589 0.590768
0.132204 0.154528 0.590585
0.131975 0.154238 0.58967
0.884047 0.235706 0.643992
0.964248 0.284749 0.627726
0.960647 0.253071 0.537224
0.951217 0.183078 0.332937
0.937209 0.0558938 0.0466773
0.937209 0.0558938 0.0466773
0.131075 0.153155 0.586191
0.131029 0.153094 0.585992
0.130739 0.152743 0.584894
0.87863 0.232776 0.638254
0.96408 0.282643 0.625223
0.960433 0.251545 0.533349
0.950835 0.181003 0.32607
0.937209 0.0558938 0.0466773
0.937209 0.0558938 0.0466773
0.304799 0.714122 0.99971
0.305638 0.71342 0.99971
0.308537 0.711009 0.99968
0.842329 0.56495 0.89044
0.972274 0.389502 0.758526
0.95967 0.245914 0.518959
0.949035 0.173022 0.299382
0.937209 0.0558938 0.0466773
0.937209 0.0558938 0.0466773
0.0657359 0.913558 0.999771
0.0657359 0.913573 0.999771
0.0657511 0.913603 0.999771
0.0636606 0.890333 0.999817
0.921675 0.891203 0.887724
0.98381 0.801312 0.761151
0.963851 0.621073 0.370932
0.940597 0.228824 0.0572213
0.937209 0.0558938 0.0466773
0.0590372 0.94226 0.917205
0.0590372 0.942214 0.916335
0.0590524 0.942031 0.91313
0.0587625 0.941772 0.901732
0.180438 0.948989 0.671809
0.938872 0.99295 0.461036
0.96788 0.956329 0.427787
0.970443 0.924041 0.395819
0.97084 0.888014 0.36025
0.0481727 0.942946 0.629267
0.0481727 0.942946 0.629267
0.0481727 0.942946 0.629267
0.0481727 0.942946 0.629267
0.0481727 0.942946 0.629267
0.676081 0.979278 0.557946
0.957534 0.994202 0.493141
0.957076 0.992798 0.472938
0.957076 0.992798 0.472938
0.0481727 0.942946 0.629267
0.0481727 0.942946 0.629267
0.0481727 0.942946 0.629267
0.0481727 0.942946 0.629267
0.0481727 0.942946 0.629267
0.0483406 0.94197 0.634409
0.937133 0.994003 0.530495
0.957076 0.992798 0.472938
0.957076 0.992798 0.472938
0.0481727 0.942946 0.629267
0.0481727 0.942946 0.629267
0.0481727 0.942946 0.629267
0.0481727 0.942946 0.629267
0.0481727 0.942946 0.629267
0.0481727 0.942946 0.629267
0.871351 0.989441 0.534295
0.957137 0.992844 0.472984
0.957076 0.992798 0.472938
0.274998 0.340429 0.887617
0.274998 0.340429 0.887617
0.274815 0.340185 0.887434
0.265538 0.336583 0.881331
0.978988 0.485756 0.853162
0.975494 0.433707 0.794705
0.972274 0.377035 0.737362
0.964508 0.296101 0.623346
0.951507 0.192584 0.366232
0.274815 0.340185 0.887434
0.274815 0.340185 0.887434
0.274739 0.340063 0.887343
0.262715 0.332311 0.878111
0.978973 0.485664 0.853254
0.975479 0.433524 0.794537
0.972259 0.376867 0.737179
0.964508 0.295888 0.622965
0.951476 0.192233 0.365087
0.27422 0.339345 0.886778
0.27422 0.339345 0.886778
0.274052 0.339101 0.886595
0.251652 0.314076 0.864698
0.978943 0.485359 0.853574
0.975418 0.432853 0.793881
0.972244 0.37612 0.7364
0.964446 0.294972 0.621347
0.9514 0.190936 0.360815
0.272007 0.336217 0.884352
0.272007 0.336217 0.884352
0.271916 0.336095 0.88426
0.271397 0.335363 0.883696
0.97879 0.484077 0.854643
0.975219 0.430579 0.791699
0.972137 0.373526 0.733654
0.964263 0.291646 0.615503
0.951003 0.186038 0.344549
0.0940566 0.809964 0.999649
0.0945144 0.809842 0.999649
0.0958572 0.809506 0.999664
0.100526 0.808316 0.99971
0.93492 0.799237 0.97203
0.984573 0.652628 0.881376
0.971542 0.364019 0.723262
0.963302 0.279454 0.593668
0.948165 0.165698 0.277104
0.0663005 0.941619 0.999741
0.0663005 0.941619 0.999741
0.0663005 0.941619 0.999741
0.0663005 0.941619 0.999741
0.0656748 0.932158 0.999878
0.96878 0.957809 0.955032
0.991073 0.911772 0.887114
0.986099 0.868711 0.776455
0.968154 0.84416 0.322469
0.0660258 0.941756 0.999741
0.0660258 0.941756 0.999741
0.0660716 0.941726 0.999741
0.0662242 0.941649 0.999741
0.0666514 0.94197 0.999832
0.686122 0.978912 0.82211
0.95906 0.994263 0.50341
0.957076 0.992798 0.472938
0.957336 0.992859 0.472847
0.0481727 0.942946 0.629267
0.0481727 0.942946 0.629267
0.0481727 0.942946 0.629267
0.0481727 0.942946 0.629267
0.0481727 0.942946 0.629267
0.0481727 0.941939 0.634455
0.935363 0.993713 0.530571
0.957076 0.992798 0.472938
0.957076 0.992798 0.472938
0.0481727 0.942946 0.629267
0.0481727 0.942946 0.629267
0.0481727 0.942946 0.629267
0.0481727 0.942946 0.629267
0.0481727 0.942946 0.629267
0.0481727 0.942946 0.629267
0.865064 0.989273 0.535119
0.957183 0.992905 0.47303
0.957076 0.992798 0.472938
0.47599 0.567895 0.995865
0.47599 0.567895 0.995865
0.476005 0.567864 0.99585
0.476036 0.567834 0.995834
0.875105 0.675166 0.958755
0.985397 0.615152 0.931609
0.983368 0.583978 0.912123
0.980545 0.540078 0.881422
0.979263 0.50042 0.853101
0.476005 0.567864 0.99585
0.476005 0.567864 0.99585
0.476005 0.567864 0.99585
0.476051 0.567803 0.995834
0.873823 0.674861 0.958907
0.985397 0.615106 0.931579
0.983368 0.583917 0.912077
0.980545 0.540078 0.881422
0.979263 0.500328 0.853025
0.476051 0.567803 0.995834
0.476051 0.567803 0.995834
0.476081 0.567788 0.995819
0.476097 0.567758 0.995804
0.869108 0.673838 0.959503
0.985397 0.615 0.931517
0.983368 0.583764 0.911986
0.980529 0.539818 0.881209
0.979248 0.500038 0.852811
0.476219 0.56759 0.995743
0.476219 0.56759 0.995743
0.476234 0.567559 0.995727
0.476265 0.567529 0.995712
0.85037 0.669444 0.961563
0.985428 0.614603 0.931304
0.983352 0.5832 0.911604
0.980468 0.538994 0.880583
0.979171 0.499016 0.852033
0.476799 0.566812 0.995422
0.476814 0.566781 0.995407
0.476814 0.566781 0.995407
0.47686 0.56672 0.995377
0.710246 0.635721 0.976165
0.98555 0.613123 0.930526
0.983337 0.581079 0.910201
0.98027 0.535958 0.878279
0.978943 0.49546 0.849302
0.0655375 0.91429 0.999756
0.0655375 0.91429 0.999756
0.0655375 0.914199 0.999756
0.0655528 0.913848 0.999756
0.0655833 0.912718 0.999756
0.975952 0.880339 0.980041
0.991669 0.82327 0.968368
0.989319 0.735836 0.936584
0.978119 0.482551 0.839429
0.0663005 0.941619 0.999741
0.0663005 0.941619 0.999741
0.0663005 0.941619 0.999741
0.0663005 0.941619 0.999741
0.0663005 0.941619 0.999741
0.29015 0.955917 0.999954
0.993042 0.994827 0.993164
0.995758 0.982284 0.9664
0.995209 0.973175 0.942824
0.0663005 0.941619 0.999741
0.0663005 0.941619 0.999741
0.0663005 0.941619 0.999741
0.0663005 0.941619 0.999741
0.0663005 0.941619 0.999741
0.0663005 0.941619 0.999741
0.935943 0.994583 0.947875
0.981888 0.994995 0.861234
0.973571 0.994064 0.742412
0.0481727 0.942946 0.629267
0.0481727 0.942946 0.629267
0.0481727 0.942946 0.629267
0.0481727 0.942946 0.629267
0.0481727 0.942946 0.629267
0.0481727 0.942946 0.629267
0.842802 0.988754 0.539101
0.957336 0.993057 0.473182
0.957076 0.992798 0.472938
0.435645 0.612619 0.999878
0.435645 0.612619 0.999878
0.435676 0.612604 0.999878
0.435676 0.612604 0.999878
0.435721 0.612558 0.999863
0.986816 0.639719 0.936553
0.986816 0.639719 0.936553
0.986816 0.639719 0.936553
0.986816 0.639719 0.936553
0.435676 0.612604 0.999878
0.435676 0.612604 0.999878
0.435676 0.612604 0.999878
0.435676 0.612604 0.999878
0.435737 0.612543 0.999863
0.986816 0.639719 0.936553
0.986816 0.639719 0.936553
0.986816 0.639719 0.936553
0.986816 0.639719 0.936553
0.435676 0.612604 0.999878
0.435691 0.612573 0.999863
0.435691 0.612573 0.999863
0.435691 0.612573 0.999863
0.435767 0.612528 0.999863
0.986816 0.639719 0.936553
0.986816 0.639719 0.936553
0.986816 0.639719 0.936553
0.986816 0.639719 0.936553
0.435737 0.612543 0.999863
0.435767 0.612528 0.999863
0.435767 0.612528 0.999863
0.435767 0.612528 0.999863
0.435828 0.612482 0.999863
0.986816 0.639719 0.936553
0.986816 0.639719 0.936553
0.986816 0.639719 0.936553
0.986816 0.639719 0.936553
0.435996 0.61236 0.999863
0.435996 0.61236 0.999863
0.435996 0.61236 0.999863
0.436011 0.612329 0.999863
0.436057 0.612299 0.999863
0.986816 0.639719 0.936553
0.986816 0.639719 0.936553
0.986816 0.639719 0.936553
0.986816 0.639719 0.936553
0.436866 0.611688 0.999832
0.436866 0.611688 0.999832
0.436866 0.611688 0.999832
0.436881 0.611673 0.999832
0.436927 0.611643 0.999832
0.986816 0.639719 0.936553
0.986816 0.639719 0.936553
0.986816 0.639719 0.936553
0.986816 0.639719 0.936553
0.0663005 0.941619 0.999741
0.0663005 0.941619 0.999741
0.0663005 0.941619 0.999741
0.0663005 0.941619 0.999741
0.0663005 0.941619 0.999741
0.067277 0.942596 1
0.996521 0.957549 0.990814
0.995926 0.934646 0.986862
0.995605 0.91809 0.98381
0.0663005 0.941619 0.999741
0.0663005 0.941619 0.999741
0.0663005 0.941619 0.999741
0.0663005 0.941619 0.999741
0.0663005 0.941619 0.999741
0.0663005 0.941619 0.999741
0.889693 0.992828 0.999954
1 1 1
1 1 1
0.0663005 0.941619 0.999741
0.0663005 0.941619 0.999741
0.0663005 0.941619 0.999741
0.0663005 0.941619 0.999741
0.0663005 0.941619 0.999741
0.0663005 0.941619 0.999741
0.601114 0.974029 0.999969
1 1 1
0.999557 0.999969 0.999054
0.427085 0.62118 1
0.427085 0.62118 1
0.427085 0.62118 1
0.427085 0.62118 1
0.427085 0.62118 1
0.427085 0.62118 1
0.986816 0.639719 0.936553
0.986816 0.639719 0.936553
0.986816 0.639719 0.936553
0.427085 0.62118 1
0.427085 0.62118 1
0.427085 0.62118 1
0.427085 0.62118 1
0.427085 0.62118 1
0.427085 0.62118 1
0.986816 0.639719 0.936553
0.986816 0.639719 0.936553
0.986816 0.639719 0.936553
0.427085 0.62118 1
0.427085 0.62118 1
0.427085 0.62118 1
0.427085 0.62118 1
0.427085 0.62118 1
0.427085 0.62118 1
0.986816 0.639719 0.936553
0.986816 0.639719 0.936553
0.986816 0.639719 0.936553
0.427085 0.62118 1
0.427085 0.62118 1
0.427085 0.62118 1
0.427085 0.62118 1
0.427085 0.62118 1
0.427085 0.62118 1
0.986816 0.639719 0.936553
0.986816 0.639719 0.936553
0.986816 0.639719 0.936553
0.427085 0.62118 1
0.427085 0.62118 1
0.427085 0.62118 1
0.427085 0.62118 1
0.427085 0.62118 1
0.427085 0.62118 1
0.986816 0.639719 0.936553
0.986816 0.639719 0.936553
0.986816 0.639719 0.936553
0.427085 0.62118 1
0.427085 0.62118 1
0.427085 0.62118 1
0.427085 0.62118 1
0.427085 0.62118 1
0.427085 0.62118 1
0.986816 0.639719 0.936553
0.986816 0.639719 0.936553
0.986816 0.639719 0.936553
0.427085 0.62118 1
0.427085 0.62118 1
0.427085 0.62118 1
0.427085 0.62118 1
0.427085 0.62118 1
0.427085 0.62118 1
0.986816 0.639719 0.936553
0.986816 0.639719 0.936553
0.986816 0.639719 0.936553
0.0663005 0.941619 0.999741
0.0663005 0.941619 0.999741
0.0663005 0.941619 0.999741
0.0663005 0.941619 0.999741
0.0663005 0.941619 0.999741
0.0663005 0.941619 0.999741
0.828321 0.988525 0.999481
1 1 1
1 1 1
0.0663005 0.941619 0.999741
0.0663005 0.941619 0.999741
0.0663005 0.941619 0.999741
0.0663005 0.941619 0.999741
0.0663005 0.941619 0.999741
0.0663005 0.941619 0.999741
0.257404 0.953307 0.999771
0.999741 1 1
1 1 1
