Log3G10_RWG_to_ClassicChrome.cube
TITLE "Generated by Resolve"
LUT_3D_SIZE 9
0 0 0
0.021622 0.00326543 0.00157168
0.206622 0.0127718 0.0130159
0.590417 0 0.0386358
1 0 0.202167
1 0.0176547 0.245106
1 0.0176547 0.245106
1 0.0176547 0.245106
1 0.0176547 0.245106
0.00280766 0.018555 0.00276188
0.0113069 0.017792 0.00309758
0.225238 0.0231632 0.00881971
0.699397 0 0.0565194
1 0 0.201816
1 0.0176547 0.245106
1 0.0176547 0.245106
1 0.0176547 0.245106
1 0.0176547 0.245106
0 0.241733 0
0 0.250568 0
0.206897 0.234104 0
0.694575 0.222156 0.00172427
1 0.204761 0.183093
1 0.0176547 0.245106
1 0.0176547 0.245106
1 0.0176547 0.245106
1 0.0176547 0.245106
0 0.763607 0
0 0.763348 0
0 0.691737 0
0.58793 0.636652 0
1 0.585107 0.0648203
1 0.429801 0.140093
1 0.0581369 0.234485
1 0.0176547 0.245106
1 0.0176547 0.245106
0 1 0
0 1 0
0 1 0
0 0.986282 0
0.892805 0.964797 0
1 0.840391 0.153811
1 0.698695 0.16762
1 0.476081 0.144045
1 0.0176547 0.245106
0 1 0
0 1 0
0 1 0
0 1 0
0.405585 1 0
1 1 0.0966659
1 1 0.164874
1 0.972366 0.178561
1 0.906523 0.176867
0 1 0
0 1 0
0 1 0
0 1 0
0 1 0
0.746929 1 0.152407
1 1 0.177035
1 1 0.132723
1 1 0.132723
0 1 0
0 1 0
0 1 0
0 1 0
0 1 0
0.209903 1 0
1 1 0.223774
1 1 0.132723
1 1 0.132723
0 1 0
0 1 0
0 1 0
0 1 0
0 1 0
0 1 0
0.937224 1 0.204471
1 1 0.132723
1 1 0.132723
0 0.000518807 0.00642405
0.0205234 0.00291447 0.00648508
0.228428 0.0106508 0.0137789
0.599695 0 0.0397498
1 0 0.201816
1 0.0176547 0.245106
1 0.0176547 0.245106
1 0.0176547 0.245106
1 0.0176547 0.245106
0.00233463 0.0119936 0.01355
0.00994888 0.0101472 0.0099031
0.23592 0.0149386 0.010071
0.666575 0 0.0512856
1 0 0.201465
1 0.0176547 0.245106
1 0.0176547 0.245106
1 0.0176547 0.245106
1 0.0176547 0.245106
0 0.226444 0
0 0.233616 0
0.205081 0.220432 0
0.695262 0.209155 0.00393683
1 0.190539 0.187488
1 0.0176547 0.245106
1 0.0176547 0.245106
1 0.0176547 0.245106
1 0.0176547 0.245106
0 0.759899 0
0 0.759564 0
0 0.688457 0
0.587304 0.632776 0
1 0.581323 0.0658274
1 0.42594 0.139986
1 0.0416876 0.238956
1 0.0176547 0.245106
1 0.0176547 0.245106
0 1 0
0 1 0
0 1 0
0 0.985794 0
0.893614 0.963989 0
1 0.839734 0.153994
1 0.69778 0.167651
1 0.473732 0.143755
1 0.0176547 0.245106
0 1 0
0 1 0
0 1 0
0 1 0
0.405203 1 0
1 1 0.0962997
1 1 0.164904
1 0.972091 0.178607
1 0.906004 0.176944
0 1 0
0 1 0
0 1 0
0 1 0
0 1 0
0.746517 1 0.152346
1 1 0.177035
1 1 0.132723
1 1 0.132723
0 1 0
0 1 0
0 1 0
0 1 0
0 1 0
0.209506 1 0
1 1 0.223774
1 1 0.132723
1 1 0.132723
0 1 0
0 1 0
0 1 0
0 1 0
0 1 0
0 1 0
0.937224 1 0.204471
1 1 0.132723
1 1 0.132723
0.00334173 0.0109407 0.0800336
0.00563058 0.0101625 0.0719615
0.262943 0.0102541 0.111055
0.753124 0 0.165881
1 0 0.254292
1 0.0176547 0.245106
1 0.0176547 0.245106
1 0.0176547 0.245106
1 0.0176547 0.245106
0.00337224 0.0106966 0.0758679
0.00296025 0.00923171 0.06804
0.255177 0.0104067 0.105394
0.745113 0 0.156817
1 0 0.25275
1 0.0176547 0.245106
1 0.0176547 0.245106
1 0.0176547 0.245106
1 0.0176547 0.245106
0 0.287678 0.336156
0 0.281636 0.319921
0.207767 0.208026 0.207797
0.747082 0.157031 0.156619
1 0.128496 0.210544
1 0.0176547 0.245106
1 0.0176547 0.245106
1 0.0176547 0.245106
1 0.0176547 0.245106
0 0.745861 0
0 0.745602 0
0 0.676402 0
0.585504 0.618906 0
1 0.567941 0.0699016
1 0.412085 0.139361
1 0.0176547 0.245106
1 0.0176547 0.245106
1 0.0176547 0.245106
0 1 0
0 1 0
0 1 0
0 0.984405 0
0.894972 0.961379 0
1 0.835767 0.154406
1 0.693782 0.167452
1 0.465278 0.142779
1 0.0176547 0.245106
0 1 0
0 1 0
0 1 0
0 1 0
0.403143 1 0
1 1 0.0949569
1 1 0.165011
1 0.971267 0.178653
1 0.904646 0.177432
0 1 0
0 1 0
0 1 0
0 1 0
0 1 0
0.746044 1 0.152102
1 1 0.177096
1 1 0.132723
1 1 0.132723
0 1 0
0 1 0
0 1 0
0 1 0
0 1 0
0.207553 1 0
1 1 0.223728
1 1 0.132723
1 1 0.132723
0 1 0
0 1 0
0 1 0
0 1 0
0 1 0
0 1 0
0.936751 1 0.204318
1 1 0.132723
1 1 0.132723
0.00856031 0.0385595 0.29424
0.00854505 0.0385748 0.293431
0.249836 0.023682 0.317205
0.850599 0 0.445212
1 0.109392 0.46659
1 0.0662242 0.303151
1 0.0176547 0.245106
1 0.0176547 0.245106
1 0.0176547 0.245106
0.00859083 0.0386053 0.290257
0.00860609 0.0386206 0.289464
0.241764 0.023331 0.31191
0.847105 0 0.441413
1 0.107759 0.464378
1 0.0615091 0.297108
1 0.0176547 0.245106
1 0.0176547 0.245106
1 0.0176547 0.245106
0.00303655 0.082414 0.442618
0.00317388 0.0788739 0.436088
0.214343 0.0529641 0.495491
0.927489 0.00614939 0.529
1 0.101198 0.455619
1 0.0416114 0.273411
1 0.0176547 0.245106
1 0.0176547 0.245106
1 0.0176547 0.245106
0 0.759167 0.868772
0 0.758679 0.86717
0 0.680354 0.721233
0.581735 0.582086 0.581949
1 0.485451 0.473213
1 0.322469 0.14052
1 0.0176547 0.245106
1 0.0176547 0.245106
1 0.0176547 0.245106
0 1 0.0503395
0 1 0.0364233
0 1 0
0 0.970199 0
0.899214 0.952682 0
1 0.822126 0.156359
1 0.679347 0.16643
1 0.432425 0.139879
1 0.0176547 0.245106
0 1 0
0 1 0
0 1 0
0 1 0
0.395697 1 0
1 1 0.0899825
1 1 0.165667
1 0.967071 0.177752
1 0.900038 0.177234
0 1 0
0 1 0
0 1 0
0 1 0
0 1 0
0.74461 1 0.151522
1 1 0.177035
1 1 0.132723
1 1 0.132723
0 1 0
0 1 0
0 1 0
0 1 0
0 1 0
0.201038 1 0
1 1 0.223667
1 1 0.132723
1 1 0.132723
0 1 0
0 1 0
0 1 0
0 1 0
0 1 0
0 1 0
0.936324 1 0.204089
1 1 0.132723
1 1 0.132723
0.00695811 0.0707408 0.630625
0.00695811 0.0706951 0.630472
0.00701915 0.0705882 0.629541
0.831418 0.0812695 0.757
1 0.232425 0.691203
1 0.217533 0.616632
1 0.163134 0.466987
1 0.0176547 0.245106
1 0.0176547 0.245106
0.00701915 0.0705882 0.629541
0.00701915 0.0705577 0.629389
0.00698863 0.0704509 0.628595
0.828656 0.0805219 0.755718
1 0.232136 0.690761
1 0.217166 0.615763
1 0.162783 0.465858
1 0.0176547 0.245106
1 0.0176547 0.245106
0.00697337 0.0699168 0.625696
0.00691234 0.0699474 0.625574
0.00686656 0.0697948 0.624628
0.819196 0.0775464 0.751385
1 0.230594 0.68896
1 0.216007 0.613077
1 0.161181 0.460731
1 0.0176547 0.245106
1 0.0176547 0.245106
0 0.546227 1
0 0.54519 1
0 0.541741 1
0.575921 0.374716 1
1 0.293797 0.84329
1 0.211765 0.602747
1 0.155154 0.441184
1 0.0176547 0.245106
1 0.0176547 0.245106
0 0.926467 1
0 0.926497 1
0 0.926482 1
0 0.894301 0.938918
0.884443 0.892546 0.887541
1 0.740826 0.711116
1 0.581827 0.360403
1 0.268009 0.160418
1 0.0176547 0.245106
0 1 0.47863
0 1 0.477165
0 1 0.471489
0 1 0.449271
0.360479 1 0.120043
1 1 0.0714122
1 1 0.167636
1 0.954986 0.178119
1 0.882963 0.177356
0 1 0
0 1 0
0 1 0
0 1 0
0 1 0
0.738659 1 0.149325
1 1 0.176837
1 1 0.132723
1 1 0.132723
0 1 0
0 1 0
0 1 0
0 1 0
0 1 0
0.175937 1 0
1 1 0.223575
1 1 0.132723
1 1 0.132723
0 1 0
0 1 0
0 1 0
0 1 0
0 1 0
0 1 0
0.933562 1 0.20296
1 1 0.132723
1 1 0.132723
0 0.167636 0.979126
0 0.167636 0.979126
0 0.167605 0.978805
0 0.167788 0.968795
1 0.322713 0.992111
1 0.312261 0.897581
1 0.288991 0.806577
1 0.244297 0.684016
1 0.170626 0.490501
0 0.167605 0.978805
0 0.167605 0.978805
0 0.167514 0.978683
0 0.165164 0.962921
1 0.322454 0.992309
1 0.312215 0.897383
1 0.288838 0.806241
1 0.24416 0.683665
1 0.170382 0.489555
0 0.167086 0.977966
0 0.167086 0.977966
0 0.167041 0.977661
0 0.155535 0.942184
1 0.321843 0.993225
1 0.31191 0.896483
1 0.288472 0.805127
1 0.243763 0.682399
1 0.169421 0.486152
0 0.165454 0.974517
0 0.165454 0.974517
0 0.165438 0.97438
0 0.165057 0.973602
1 0.318791 0.99588
1 0.31107 0.893477
1 0.287388 0.801266
1 0.242115 0.676905
1 0.165774 0.473411
0 0.727871 1
0 0.727642 1
0 0.726848 1
0 0.724285 1
0.754986 0.62829 1
1 0.501305 1
1 0.283406 0.787503
1 0.235523 0.65864
1 0.14931 0.423774
0 1 0.955932
0 1 0.955932
0 1 0.955932
0 1 0.955932
0 0.968734 0.993423
1 1 1
1 0.945159 0.890455
1 0.86424 0.701778
1 0.812192 0.176364
0 1 0.898634
0 1 0.898497
0 1 0.897566
0 1 0.894392
0 1 0.882338
0.66627 1 0.563714
1 1 0.191485
1 1 0.132723
1 1 0.132723
0 1 0
0 1 0
0 1 0
0 1 0
0 1 0
0.0682841 1 0
1 1 0.223316
1 1 0.132723
1 1 0.132723
0 1 0
0 1 0
0 1 0
0 1 0
0 1 0
0 1 0
0.924132 1 0.2
1 1 0.132723
1 1 0.132723
0 0.308659 1
0 0.308659 1
0 0.308598 1
0 0.308598 1
0.507576 0.426688 1
1 0.388952 1
1 0.377127 1
1 0.360204 1
1 0.342199 0.985138
0 0.308598 1
0 0.308598 1
0 0.308598 1
0 0.308492 1
0.502892 0.4262 1
1 0.388998 1
1 0.377203 1
1 0.360204 1
1 0.342199 0.985031
0 0.308492 1
0 0.308492 1
0 0.308431 1
0 0.308431 1
0.486259 0.424353 1
1 0.388998 1
1 0.377157 1
1 0.360082 1
1 0.342107 0.98468
0 0.30808 1
0 0.30808 1
0 0.307988 1
0 0.307973 1
0.421469 0.416739 1
1 0.388708 1
1 0.376715 1
1 0.359533 1
1 0.341634 0.983413
0 0.306523 1
0 0.306523 1
0 0.306523 1
0 0.30631 1
0.00376898 0.388495 1
1 0.388144 1
1 0.376043 1
1 0.358053 1
1 0.340276 0.979049
0 0.927977 1
0 0.927977 1
0 0.927871 1
0 0.927291 1
0 0.925612 1
0.999496 0.795575 1
1 0.676982 1
1 0.56643 1
1 0.335164 0.962768
0 1 0.955932
0 1 0.955932
0 1 0.955932
0 1 0.955932
0 1 0.955932
0 1 0.966735
1 1 1
1 1 1
1 1 0.981872
0 1 0.955932
0 1 0.955932
0 1 0.955932
0 1 0.955932
0 1 0.955932
0 1 0.955932
0.92903 1 0.935012
1 1 0.725185
1 1 0.532921
0 1 0
0 1 0
0 1 0
0 1 0
0 1 0
0 1 0
0.887465 1 0.19266
1 1 0.132723
1 1 0.132723
0 0.372488 1
0 0.372488 1
0 0.372457 1
0 0.372457 1
0 0.372442 1
1 0.400153 1
1 0.400153 1
1 0.400153 1
1 0.400153 1
0 0.372457 1
0 0.372457 1
0 0.372457 1
0 0.372457 1
0 0.372305 1
1 0.400153 1
1 0.400153 1
1 0.400153 1
1 0.400153 1
0 0.372457 1
0 0.372412 1
0 0.372412 1
0 0.372412 1
0 0.37232 1
1 0.400153 1
1 0.400153 1
1 0.400153 1
1 0.400153 1
0 0.372305 1
0 0.37232 1
0 0.37232 1
0 0.37232 1
0 0.372259 1
1 0.400153 1
1 0.400153 1
1 0.400153 1
1 0.400153 1
0 0.371954 1
0 0.371954 1
0 0.371954 1
0 0.371878 1
0 0.371817 1
1 0.400153 1
1 0.400153 1
1 0.400153 1
1 0.400153 1
0 0.370657 1
0 0.370657 1
0 0.370657 1
0 0.370581 1
0 0.370474 1
1 0.400153 1
1 0.400153 1
1 0.400153 1
1 0.400153 1
0 1 0.955932
0 1 0.955932
0 1 0.955932
0 1 0.955932
0 1 0.955932
0 0.996506 0.963394
1 1 1
1 0.951492 1
1 0.904875 1
0 1 0.955932
0 1 0.955932
0 1 0.955932
0 1 0.955932
0 1 0.955932
0 1 0.955932
0.687755 1 1
1 1 1
1 1 1
0 1 0.955932
0 1 0.955932
0 1 0.955932
0 1 0.955932
0 1 0.955932
0 1 0.955932
0.167498 1 1
1 1 1
1 1 1
0 0.386252 1
0 0.386252 1
0 0.386252 1
0 0.386252 1
0 0.386252 1
0 0.386252 1
1 0.400153 1
1 0.400153 1
1 0.400153 1
0 0.386252 1
0 0.386252 1
0 0.386252 1
0 0.386252 1
0 0.386252 1
0 0.386252 1
1 0.400153 1
1 0.400153 1
1 0.400153 1
0 0.386252 1
0 0.386252 1
0 0.386252 1
0 0.386252 1
0 0.386252 1
0 0.386252 1
1 0.400153 1
1 0.400153 1
1 0.400153 1
0 0.386252 1
0 0.386252 1
0 0.386252 1
0 0.386252 1
0 0.386252 1
0 0.386252 1
1 0.400153 1
1 0.400153 1
1 0.400153 1
0 0.386252 1
0 0.386252 1
0 0.386252 1
0 0.386252 1
0 0.386252 1
0 0.386252 1
1 0.400153 1
1 0.400153 1
1 0.400153 1
0 0.386252 1
0 0.386252 1
0 0.386252 1
0 0.386252 1
0 0.386252 1
0 0.386252 1
1 0.400153 1
1 0.400153 1
1 0.400153 1
0 0.386252 1
0 0.386252 1
0 0.386252 1
0 0.386252 1
0 0.386252 1
0 0.386252 1
1 0.400153 1
1 0.400153 1
1 0.400153 1
0 1 0.955932
0 1 0.955932
0 1 0.955932
0 1 0.955932
0 1 0.955932
0 1 0.955932
0.556863 1 1
1 1 1
1 1 1
0 1 0.955932
0 1 0.955932
0 1 0.955932
0 1 0.955932
0 1 0.955932
0 1 0.955932
0 1 0.967147
1 1 1
1 1 1
