Log3G10_RWG_to_Astia.cube
TITLE "Generated by Resolve"
LUT_3D_SIZE 5
0 0 0
0.230808 0.00486763 0.000350958
0.999908 3.0518e-05 0.283742
1 0.00030518 0.372946
1 0.00030518 0.372946
0.000122072 0.277699 0.000259403
0.207782 0.261128 0.000274662
0.999374 0.00408942 0.316182
1 0.00030518 0.372946
1 0.00030518 0.372946
0 1 0.000289921
0 1 0.000289921
0.852842 0.961593 9.15541e-05
0.999268 0.708385 0.0816968
1 0.00030518 0.372946
0.0460822 0.999649 0.000106813
0.0460822 0.999649 0.000106813
0.0460822 0.999649 0.000106813
0.986068 0.999969 0.0854505
0.986465 0.99942 0.0790417
0.0460822 0.999649 0.000106813
0.0460822 0.999649 0.000106813
0.0460822 0.999649 0.000106813
0.86067 0.999496 0.0252232
0.986465 0.99942 0.0790417
0.000228885 0.0059205 0.147326
0.273289 0.000228885 0.125231
0.999969 0.000579843 0.375662
1 0.00030518 0.372946
1 0.00030518 0.372946
0.000442512 0.30161 0.373007
0.206394 0.206821 0.206027
1 0.000213626 0.346624
1 0.00030518 0.372946
1 0.00030518 0.372946
0 1 0.000289921
0 1 0.000289921
0.854078 0.958984 9.15541e-05
0.999252 0.703365 0.0831617
1 0.00030518 0.372946
0.0460822 0.999649 0.000106813
0.0460822 0.999649 0.000106813
0.0460822 0.999649 0.000106813
0.986068 0.999969 0.0854353
0.986465 0.99942 0.0790417
0.0460822 0.999649 0.000106813
0.0460822 0.999649 0.000106813
0.0460822 0.999649 0.000106813
0.860517 0.999496 0.0251621
0.986465 0.99942 0.0790417
0.00495918 0.0428168 0.848981
0.00492866 0.0425727 0.847745
0.999985 0.00169375 0.936706
0.999695 0.000244144 0.693355
1 0.00030518 0.372946
0.00482185 0.0417029 0.843305
0.00479133 0.0414588 0.842069
0.999969 0.00131228 0.934997
0.99971 0.000289921 0.684901
1 0.00030518 0.372946
0.00047303 0.925978 0.999908
0.000488289 0.925933 0.999924
0.820264 0.822278 0.8206
0.999756 0.555306 0.367742
1 0.00030518 0.372946
0.0460822 0.999649 0.000106813
0.0460822 0.999649 0.000106813
0.0460822 0.999649 0.000106813
0.986068 0.999954 0.0854963
0.986465 0.99942 0.0790417
0.0460822 0.999649 0.000106813
0.0460822 0.999649 0.000106813
0.0460822 0.999649 0.000106813
0.857877 0.999481 0.0241398
0.986465 0.99942 0.0790417
0.000320439 0.358801 0.999466
0.000320439 0.358755 0.999481
0.534066 0.434974 0.999359
0.999985 0.256886 0.99968
1 0.191073 0.999802
0.000320439 0.358648 0.999481
0.000320439 0.358602 0.999481
0.512978 0.434134 0.999512
0.999985 0.256733 0.99968
1 0.190768 0.999802
0.000320439 0.35697 0.999573
0.000320439 0.356924 0.999573
0.0386664 0.415763 0.999649
0.999969 0.254917 0.999771
1 0.186999 0.999847
0 0.973785 1
0 0.973785 1
0 0.973785 1
0.983276 0.990188 0.987152
0.996262 0.95436 0.868513
0.0460822 0.999649 0.000106813
0.0460822 0.999649 0.000106813
0.0460822 0.999649 0.000106813
0.828199 0.999374 0.0138705
0.986465 0.99942 0.0790417
0.000656138 0.429419 0.999557
0.000656138 0.429419 0.999557
0.000656138 0.429419 0.999557
1 0.297993 0.999741
1 0.297993 0.999741
0.000656138 0.429419 0.999557
0.000656138 0.429419 0.999557
0.000656138 0.429419 0.999557
1 0.297993 0.999741
1 0.297993 0.999741
0.000656138 0.429419 0.999557
0.000656138 0.429419 0.999557
0.000656138 0.429419 0.999557
1 0.297993 0.999741
1 0.297993 0.999741
0.000656138 0.429419 0.999557
0.000656138 0.429419 0.999557
0.000656138 0.429419 0.999557
1 0.297993 0.999741
1 0.297993 0.999741
0 0.973785 1
0 0.973785 1
0 0.973785 1
0.0273594 0.984314 0.999725
1 1 1
