Log3G10_RWG_to_ClassicNeg.cube
TITLE "Generated by Resolve"
LUT_3D_SIZE 5
0 0 0
0.165728 0.00979629 1.5259e-05
0.934218 0.0555581 0.0147707
0.937209 0.0558938 0.0466773
0.937209 0.0558938 0.0466773
0.00630198 0.195804 0.0520333
0.132677 0.196567 0.0399176
0.939666 0.177691 0.0534218
0.937209 0.0558938 0.0466773
0.937209 0.0558938 0.0466773
0.0433814 0.943771 0.508812
0.0433814 0.943771 0.508507
0.869337 0.941527 0.322133
0.962692 0.747143 0.254063
0.937209 0.0558938 0.0466773
0.0481727 0.942946 0.629267
0.0481727 0.942946 0.629267
0.0481727 0.942946 0.629267
0.957351 0.994171 0.49305
0.957076 0.992798 0.472938
0.0481727 0.942946 0.629267
0.0481727 0.942946 0.629267
0.0481727 0.942946 0.629267
0.873579 0.989502 0.534127
0.957076 0.992798 0.472938
0.0148165 0.0189364 0.0943465
0.213046 0.0235447 0.0595712
0.937057 0.0557259 0.0466316
0.937209 0.0558938 0.0466773
0.937209 0.0558938 0.0466773
0.0182803 0.252552 0.31873
0.171817 0.193057 0.182055
0.938933 0.116838 0.0498817
0.937209 0.0558938 0.0466773
0.937209 0.0558938 0.0466773
0.0433051 0.94374 0.504646
0.0432898 0.94374 0.504189
0.870451 0.939895 0.319982
0.9626 0.741894 0.251362
0.937209 0.0558938 0.0466773
0.0481727 0.942946 0.629267
0.0481727 0.942946 0.629267
0.0481727 0.942946 0.629267
0.957351 0.994171 0.49305
0.957076 0.992798 0.472938
0.0481727 0.942946 0.629267
0.0481727 0.942946 0.629267
0.0481727 0.942946 0.629267
0.873457 0.989502 0.534142
0.957076 0.992798 0.472938
0.132586 0.154986 0.592065
0.13225 0.154589 0.590768
0.964294 0.285298 0.628412
0.951293 0.183673 0.334829
0.937209 0.0558938 0.0466773
0.131075 0.153155 0.586191
0.130739 0.152743 0.584894
0.96408 0.282643 0.625223
0.950835 0.181003 0.32607
0.937209 0.0558938 0.0466773
0.0657359 0.913558 0.999771
0.0657511 0.913603 0.999771
0.921675 0.891203 0.887724
0.963851 0.621073 0.370932
0.937209 0.0558938 0.0466773
0.0481727 0.942946 0.629267
0.0481727 0.942946 0.629267
0.0481727 0.942946 0.629267
0.957534 0.994202 0.493141
0.957076 0.992798 0.472938
0.0481727 0.942946 0.629267
0.0481727 0.942946 0.629267
0.0481727 0.942946 0.629267
0.871351 0.989441 0.534295
0.957076 0.992798 0.472938
0.47599 0.567895 0.995865
0.476005 0.567864 0.99585
0.875105 0.675166 0.958755
0.983368 0.583978 0.912123
0.979263 0.50042 0.853101
0.476051 0.567803 0.995834
0.476081 0.567788 0.995819
0.869108 0.673838 0.959503
0.983368 0.583764 0.911986
0.979248 0.500038 0.852811
0.476799 0.566812 0.995422
0.476814 0.566781 0.995407
0.710246 0.635721 0.976165
0.983337 0.581079 0.910201
0.978943 0.49546 0.849302
0.0663005 0.941619 0.999741
0.0663005 0.941619 0.999741
0.0663005 0.941619 0.999741
0.993042 0.994827 0.993164
0.995209 0.973175 0.942824
0.0481727 0.942946 0.629267
0.0481727 0.942946 0.629267
0.0481727 0.942946 0.629267
0.842802 0.988754 0.539101
0.957076 0.992798 0.472938
0.427085 0.62118 1
0.427085 0.62118 1
0.427085 0.62118 1
0.986816 0.639719 0.936553
0.986816 0.639719 0.936553
0.427085 0.62118 1
0.427085 0.62118 1
0.427085 0.62118 1
0.986816 0.639719 0.936553
0.986816 0.639719 0.936553
0.427085 0.62118 1
0.427085 0.62118 1
0.427085 0.62118 1
0.986816 0.639719 0.936553
0.986816 0.639719 0.936553
0.427085 0.62118 1
0.427085 0.62118 1
0.427085 0.62118 1
0.986816 0.639719 0.936553
0.986816 0.639719 0.936553
0.0663005 0.941619 0.999741
0.0663005 0.941619 0.999741
0.0663005 0.941619 0.999741
0.257404 0.953307 0.999771
1 1 1
