Log3G10_RWG_to_Velvia.cube
TITLE "Generated by Resolve"
LUT_3D_SIZE 5
0 0 0
0.218067 0.000183108 0.000396735
1 0 0.340993
0.999954 0.00456245 0.420554
0.999954 0.00456245 0.420554
0 0.261967 0
0.136416 0.254276 0.000137331
0.999298 0.188846 0.216526
0.999954 0.00456245 0.420554
0.999954 0.00456245 0.420554
0 1 0.000289921
0 1 0.000289921
0.812757 0.96527 0
0.999603 0.735058 0
0.999954 0.00456245 0.420554
0 1 0.000289921
0 1 0.000289921
0 1 0.000289921
0.998596 0.999863 0.0192416
0.999969 0.999893 0.0155337
0 1 0.000289921
0 1 0.000289921
0 1 0.000289921
0.758938 0.999588 0
0.999969 0.999893 0.0155337
0.000259403 6.10361e-05 0.0961318
0.295445 0 0.102327
0.999603 0.00047303 0.445655
0.999954 0.00456245 0.420554
0.999954 0.00456245 0.420554
0.000366217 0.286839 0.37023
0.188281 0.188891 0.188312
0.999893 0.0945602 0.310903
0.999954 0.00456245 0.420554
0.999954 0.00456245 0.420554
0 1 0.000289921
0 1 0.000289921
0.816373 0.962936 0
0.999664 0.730236 0
0.999954 0.00456245 0.420554
0 1 0.000289921
0 1 0.000289921
0 1 0.000289921
0.998596 0.999863 0.0192264
0.999969 0.999893 0.0155337
0 1 0.000289921
0 1 0.000289921
0 1 0.000289921
0.758602 0.999588 0
0.999969 0.999893 0.0155337
0.00106813 0.000549325 0.820478
0.0010071 0.000564584 0.82005
0.99971 0.13785 0.985321
0.999893 0.0886397 0.714717
0.999954 0.00456245 0.420554
0.000823987 0.000640879 0.818509
0.000762951 0.000656138 0.818067
0.99971 0.135286 0.984619
0.999908 0.0869001 0.706615
0.999954 0.00456245 0.420554
0.000366217 0.938628 0.999893
0.000335698 0.938643 0.999908
0.830335 0.832258 0.831159
0.999634 0.597375 0.292378
0.999954 0.00456245 0.420554
0 1 0.000289921
0 1 0.000289921
0 1 0.000289921
0.998596 0.999863 0.0193027
0.999969 0.999893 0.0155337
0 1 0.000289921
0 1 0.000289921
0 1 0.000289921
0.752911 0.999603 0
0.999969 0.999893 0.0155337
0.15378 0.186999 1
0.153826 0.186923 1
0.730144 0.29865 0.999954
0.999481 0.266011 0.998947
0.999878 0.245228 0.998932
0.153933 0.18677 1
0.153979 0.186694 1
0.71809 0.296605 0.999939
0.999481 0.265995 0.998947
0.999878 0.245106 0.998947
0.155718 0.183963 1
0.155764 0.183886 1
0.482963 0.263935 0.999786
0.999512 0.265797 0.999023
0.999908 0.243442 0.999008
0.000579843 0.986755 0.999649
0.000579843 0.986755 0.999649
0.000579843 0.986755 0.999649
0.989944 0.99588 0.994568
0.999695 0.980133 0.878416
0 1 0.000289921
0 1 0.000289921
0 1 0.000289921
0.690547 0.999451 0.000350958
0.999969 0.999893 0.0155337
0.0298772 0.319417 1
0.0298772 0.319417 1
0.0298772 0.319417 1
0.999435 0.271672 0.999695
0.999435 0.271672 0.999695
0.0298772 0.319417 1
0.0298772 0.319417 1
0.0298772 0.319417 1
0.999435 0.271672 0.999695
0.999435 0.271672 0.999695
0.0298772 0.319417 1
0.0298772 0.319417 1
0.0298772 0.319417 1
0.999435 0.271672 0.999695
0.999435 0.271672 0.999695
0.0298772 0.319417 1
0.0298772 0.319417 1
0.0298772 0.319417 1
0.999435 0.271672 0.999695
0.999435 0.271672 0.999695
0.000579843 0.986755 0.999649
0.000579843 0.986755 0.999649
0.000579843 0.986755 0.999649
0.000579843 0.986419 1
1 1 1
