Log3G10_RWG_to_RealaAce.cube
TITLE "Generated by Resolve"
LUT_3D_SIZE 9
0 0 0
0.0300908 0.00289921 0.00227359
0.215457 0.00947585 0.00851453
0.606043 0 0.0245823
0.999207 0.0693065 0.263523
1 0.0823072 0.307668
1 0.0823072 0.307668
1 0.0823072 0.307668
1 0.0823072 0.307668
0.00500496 0.0311589 0.00466926
0.0193179 0.0307469 0.00531014
0.278798 0.0152895 0.0034638
0.688838 0 0.0369421
0.999115 0.0691844 0.263142
1 0.0823072 0.307668
1 0.0823072 0.307668
1 0.0823072 0.307668
1 0.0823072 0.307668
0 0.311147 0
0 0.318212 0
0.235569 0.289021 0
0.692638 0.204181 0
1 0.16347 0.20441
1 0.0823072 0.307668
1 0.0823072 0.307668
1 0.0823072 0.307668
1 0.0823072 0.307668
0.392447 0.847654 0.311742
0.392126 0.846922 0.311437
0.304082 0.719265 0.230549
0.552712 0.656641 0
1 0.569696 0
1 0.398596 0.0172274
1 0.0902876 0.290211
1 0.0823072 0.307668
1 0.0823072 0.307668
0.542565 1 0.450965
0.542565 1 0.450965
0.542565 1 0.450965
0.545266 1 0.451286
1 1 0.307591
1 0.893538 0
1 0.695232 0
1 0.444175 0
1 0.0823072 0.307668
0.542168 1 0.453132
0.542168 1 0.453132
0.542168 1 0.453132
0.542168 1 0.453132
0.657526 1 0.456489
1 1 0.284199
1 1 0.249653
1 1 0
1 0.970199 0
0.542168 1 0.453132
0.542168 1 0.453132
0.542168 1 0.453132
0.542168 1 0.453132
0.542168 1 0.453132
0.871687 1 0.434256
1 1 0.260594
1 1 0.259495
1 1 0.259495
0.542168 1 0.453132
0.542168 1 0.453132
0.542168 1 0.453132
0.542168 1 0.453132
0.542168 1 0.453132
0.592371 1 0.455573
1 1 0.301289
1 1 0.259495
1 1 0.259495
0.542168 1 0.453132
0.542168 1 0.453132
0.542168 1 0.453132
0.542168 1 0.453132
0.542168 1 0.453132
0.542168 1 0.453132
1 1 0.388632
1 1 0.259541
1 1 0.259495
0.000259403 0.00128176 0.0152895
0.0285191 0.00331121 0.0131228
0.240574 0.00653086 0.0059968
0.612497 0 0.0282444
0.999115 0.0691844 0.263142
1 0.0823072 0.307668
1 0.0823072 0.307668
1 0.0823072 0.307668
1 0.0823072 0.307668
0.00460822 0.0213321 0.0233463
0.0212253 0.0215763 0.0213474
0.272541 0.00300603 0.00364691
0.663661 0 0.0370336
0.999176 0.0689403 0.262837
1 0.0823072 0.307668
1 0.0823072 0.307668
1 0.0823072 0.307668
1 0.0823072 0.307668
0 0.299474 0
0 0.305028 0
0.236698 0.27863 0
0.693889 0.191485 0
1 0.152895 0.212222
1 0.0823072 0.307668
1 0.0823072 0.307668
1 0.0823072 0.307668
1 0.0823072 0.307668
0.388678 0.840162 0.308461
0.388174 0.839475 0.30811
0.299306 0.713985 0.22623
0.551369 0.65124 0
1 0.564904 0
1 0.394568 0.0211185
1 0.0872969 0.298131
1 0.0823072 0.307668
1 0.0823072 0.307668
0.542565 1 0.450965
0.542565 1 0.450965
0.542565 1 0.450965
0.545342 1 0.451316
1 1 0.30547
1 0.892348 0
1 0.694133 0
1 0.441825 0
1 0.0823072 0.307668
0.542168 1 0.453132
0.542168 1 0.453132
0.542168 1 0.453132
0.542168 1 0.453132
0.657237 1 0.456474
1 1 0.284138
1 1 0.249683
1 1 0
1 0.969619 0
0.542168 1 0.453132
0.542168 1 0.453132
0.542168 1 0.453132
0.542168 1 0.453132
0.542168 1 0.453132
0.871397 1 0.434302
1 1 0.260594
1 1 0.259495
1 1 0.259495
0.542168 1 0.453132
0.542168 1 0.453132
0.542168 1 0.453132
0.542168 1 0.453132
0.542168 1 0.453132
0.59202 1 0.455512
1 1 0.301289
1 1 0.259495
1 1 0.259495
0.542168 1 0.453132
0.542168 1 0.453132
0.542168 1 0.453132
0.542168 1 0.453132
0.542168 1 0.453132
0.542168 1 0.453132
1 1 0.388632
1 1 0.259541
1 1 0.259495
0.00511177 0.0148165 0.135119
0.00927749 0.0134127 0.119326
0.327306 0 0.185901
0.731044 0 0.19646
1 0.0769055 0.328771
1 0.0823072 0.307668
1 0.0823072 0.307668
1 0.0823072 0.307668
1 0.0823072 0.307668
0.00505074 0.0138857 0.127703
0.00468452 0.0133822 0.11104
0.320424 0.00047303 0.176776
0.723873 0 0.182879
1 0.0766003 0.326619
1 0.0823072 0.307668
1 0.0823072 0.307668
1 0.0823072 0.307668
1 0.0823072 0.307668
0 0.2795 0.324819
0 0.277546 0.311376
0.249622 0.250126 0.249577
0.73666 0.0938582 0.142275
1 0.111055 0.257755
1 0.0823072 0.307668
1 0.0823072 0.307668
1 0.0823072 0.307668
1 0.0823072 0.307668
0.373236 0.810636 0.294255
0.373053 0.808637 0.293751
0.280583 0.694789 0.208453
0.547036 0.631968 0
1 0.548211 0
1 0.379446 0.0343481
1 0.0823072 0.307668
1 0.0823072 0.307668
1 0.0823072 0.307668
0.542565 1 0.450965
0.542565 1 0.450965
0.542565 1 0.450965
0.545144 1 0.45127
1 1 0.298421
1 0.887831 0
1 0.689326 0
1 0.433265 0
1 0.0823072 0.307668
0.542168 1 0.453132
0.542168 1 0.453132
0.542168 1 0.453132
0.542168 1 0.453132
0.656596 1 0.45655
1 1 0.284092
1 1 0.249607
1 1 0
1 0.968017 0
0.542168 1 0.453132
0.542168 1 0.453132
0.542168 1 0.453132
0.542168 1 0.453132
0.542168 1 0.453132
0.871122 1 0.434363
1 1 0.260563
1 1 0.259495
1 1 0.259495
0.542168 1 0.453132
0.542168 1 0.453132
0.542168 1 0.453132
0.542168 1 0.453132
0.542168 1 0.453132
0.59202 1 0.455497
1 1 0.301472
1 1 0.259495
1 1 0.259495
0.542168 1 0.453132
0.542168 1 0.453132
0.542168 1 0.453132
0.542168 1 0.453132
0.542168 1 0.453132
0.542168 1 0.453132
1 1 0.388724
1 1 0.259541
1 1 0.259495
0.0049897 0.0168612 0.415061
0.00500496 0.0170291 0.41445
0.299535 0 0.431067
0.806775 0.022797 0.516579
0.996109 0.185168 0.566842
1 0.0926833 0.3738
1 0.0823072 0.307668
1 0.0823072 0.307668
1 0.0823072 0.307668
0.00508125 0.0176394 0.412177
0.00509651 0.0177615 0.411551
0.29308 0 0.426932
0.804929 0.0163272 0.512779
0.997101 0.182727 0.564111
1 0.0914168 0.367056
1 0.0823072 0.307668
1 0.0823072 0.307668
1 0.0823072 0.307668
0.00363165 0.0563668 0.514244
0.00360113 0.0538186 0.509148
0.234073 0.00634775 0.581537
0.846326 0.165087 0.606134
1 0.172793 0.55404
1 0.0865949 0.342306
1 0.0823072 0.307668
1 0.0823072 0.307668
1 0.0823072 0.307668
0.264973 0.755245 0.852949
0.264485 0.754635 0.851377
0.133181 0.661479 0.691478
0.591867 0.592157 0.592004
1 0.43389 0.468421
1 0.286961 0.0901503
1 0.0823072 0.307668
1 0.0823072 0.307668
1 0.0823072 0.307668
0.538308 1 0.464302
0.538674 1 0.463279
0.54049 1 0.459434
0.543206 1 0.451057
1 1 0.272221
1 0.868528 0
1 0.672328 0
1 0.400122 0.0147097
1 0.0823072 0.307668
0.542168 1 0.453132
0.542168 1 0.453132
0.542168 1 0.453132
0.542168 1 0.453132
0.653254 1 0.45658
1 1 0.283436
1 1 0.249424
1 1 0
1 0.961563 0
0.542168 1 0.453132
0.542168 1 0.453132
0.542168 1 0.453132
0.542168 1 0.453132
0.542168 1 0.453132
0.869429 1 0.434699
1 1 0.260685
1 1 0.259495
1 1 0.259495
0.542168 1 0.453132
0.542168 1 0.453132
0.542168 1 0.453132
0.542168 1 0.453132
0.542168 1 0.453132
0.590326 1 0.455222
1 1 0.301762
1 1 0.259495
1 1 0.259495
0.542168 1 0.453132
0.542168 1 0.453132
0.542168 1 0.453132
0.542168 1 0.453132
0.542168 1 0.453132
0.542168 1 0.453132
1 1 0.389181
1 1 0.25948
1 1 0.259495
0.0474098 0.0314031 0.658274
0.0472877 0.0314031 0.658198
0.0465095 0.031342 0.657908
0.758694 0.2757 0.85362
0.943297 0.333272 0.809888
0.962188 0.301915 0.720226
1 0.197467 0.559823
1 0.0823072 0.307668
1 0.0823072 0.307668
0.0465095 0.031342 0.657908
0.0463874 0.0313115 0.657862
0.0457923 0.0312047 0.657618
0.755734 0.274434 0.851865
0.943328 0.332982 0.809369
0.962325 0.301579 0.719356
1 0.196307 0.558328
1 0.0823072 0.307668
1 0.0823072 0.307668
0.0434424 0.0308995 0.656657
0.0432136 0.03093 0.656611
0.0425116 0.0308537 0.656291
0.746197 0.268956 0.844739
0.94316 0.332021 0.807568
0.963043 0.299916 0.716075
1 0.191653 0.552529
1 0.0823072 0.307668
1 0.0823072 0.307668
0.134936 0.507851 0.953246
0.135256 0.506798 0.953155
0.135058 0.503624 0.952651
0.618479 0.405127 0.991318
0.945388 0.385412 0.927001
0.965805 0.29398 0.704784
1 0.174624 0.529335
1 0.0823072 0.307668
1 0.0823072 0.307668
0.415625 0.952972 0.997162
0.415534 0.952941 0.997131
0.415625 0.952895 0.997147
0.38439 0.9149 0.955657
0.928069 0.935286 0.931044
1 0.687358 0.672175
1 0.539406 0.235828
1 0.233066 0.138918
1 0.0823072 0.307668
0.501854 1 0.633616
0.501717 1 0.632609
0.502556 1 0.629313
0.505165 1 0.615747
0.643229 1 0.469703
1 1 0.280064
1 1 0.248554
1 1 0
1 0.938659 0
0.542168 1 0.453132
0.542168 1 0.453132
0.542168 1 0.453132
0.542168 1 0.453132
0.542168 1 0.453132
0.864179 1 0.435584
1 1 0.260899
1 1 0.259495
1 1 0.259495
0.542168 1 0.453132
0.542168 1 0.453132
0.542168 1 0.453132
0.542168 1 0.453132
0.542168 1 0.453132
0.585412 1 0.454582
1 1 0.302892
1 1 0.259495
1 1 0.259495
0.542168 1 0.453132
0.542168 1 0.453132
0.542168 1 0.453132
0.542168 1 0.453132
0.542168 1 0.453132
0.542168 1 0.453132
1 1 0.390509
1 1 0.259541
1 1 0.259495
0.19527 0.166415 0.820447
0.19527 0.166415 0.820447
0.1953 0.166262 0.820386
0.196201 0.16379 0.818265
0.955535 0.401648 0.938354
0.948882 0.391638 0.93048
0.940673 0.376623 0.922255
0.949035 0.334936 0.799283
1 0.218311 0.584344
0.1953 0.166262 0.820386
0.1953 0.166262 0.820386
0.195346 0.166171 0.820325
0.196841 0.160555 0.816556
0.955398 0.401663 0.938262
0.948714 0.391653 0.93051
0.94078 0.376501 0.922225
0.949004 0.33489 0.798993
1 0.217395 0.583276
0.19556 0.16556 0.820081
0.19556 0.16556 0.820081
0.195499 0.165469 0.819989
0.199069 0.146792 0.8094
0.955139 0.401358 0.938262
0.948547 0.391516 0.930388
0.940627 0.376349 0.922164
0.949355 0.334218 0.797574
1 0.214694 0.579705
0.19588 0.163348 0.81886
0.19588 0.163348 0.81886
0.195789 0.163333 0.818799
0.195895 0.162783 0.81854
0.954467 0.400229 0.937743
0.948074 0.390799 0.930053
0.940444 0.375753 0.921782
0.949691 0.332372 0.791897
1 0.203754 0.565988
0.172412 0.683421 0.968734
0.171908 0.683192 0.968719
0.171298 0.682292 0.968811
0.169268 0.679377 0.969192
0.787762 0.618906 1
1 0.514229 1
0.939544 0.373465 0.917876
0.951827 0.324224 0.770703
1 0.160525 0.510414
0.500221 1 1
0.500221 1 1
0.500221 1 1
0.500221 1 1
0.476493 1 1
1 1 1
1 0.933074 0.856077
1 0.842329 0.598199
1 0.843503 0
0.510246 1 0.988952
0.510353 1 0.9888
0.510262 1 0.98793
0.5093 1 0.984619
0.507378 1 0.974304
0.782681 1 0.627832
1 1 0.26334
1 1 0.259495
1 1 0.259495
0.542168 1 0.453132
0.542168 1 0.453132
0.542168 1 0.453132
0.542168 1 0.453132
0.542168 1 0.453132
0.569436 1 0.454154
1 1 0.30663
1 1 0.259495
1 1 0.259495
0.542168 1 0.453132
0.542168 1 0.453132
0.542168 1 0.453132
0.542168 1 0.453132
0.542168 1 0.453132
0.542168 1 0.453132
1 1 0.394461
1 1 0.259586
1 1 0.259495
0.149996 0.302586 0.899458
0.149996 0.302586 0.899458
0.150042 0.302541 0.899489
0.150011 0.302525 0.899474
0.559976 0.436103 1
0.983154 0.445686 0.968078
0.976287 0.436179 0.962036
0.96994 0.425071 0.952682
0.96112 0.411231 0.944595
0.150042 0.302541 0.899489
0.150042 0.302541 0.899489
0.150042 0.302541 0.899489
0.150103 0.302464 0.899458
0.556527 0.435157 1
0.9832 0.445624 0.968002
0.976364 0.436103 0.962005
0.96994 0.425071 0.952682
0.961212 0.411154 0.944595
0.150103 0.302464 0.899458
0.150103 0.302464 0.899458
0.150088 0.302449 0.899428
0.150118 0.302403 0.899413
0.543862 0.432074 1
0.983078 0.445686 0.967971
0.976349 0.436027 0.961975
0.96994 0.424872 0.952651
0.961135 0.411063 0.944518
0.150042 0.302266 0.899367
0.150042 0.302266 0.899367
0.150072 0.302235 0.899351
0.150088 0.302174 0.899367
0.49427 0.419623 1
0.98294 0.445548 0.96791
0.976043 0.436027 0.961959
0.969741 0.424628 0.952438
0.960937 0.410819 0.944442
0.150591 0.301106 0.899184
0.150576 0.301076 0.899168
0.150576 0.301076 0.899168
0.150561 0.300984 0.899214
0.222431 0.361486 0.950469
0.982635 0.444892 0.967437
0.975525 0.435431 0.961624
0.969131 0.423774 0.951873
0.960128 0.41001 0.943923
0.416602 0.954437 0.997726
0.416602 0.954437 0.997726
0.416388 0.954192 0.997574
0.415732 0.953109 0.997223
0.412695 0.949966 0.995682
1 0.784176 1
1 0.661128 1
1 0.564218 1
0.958297 0.406683 0.942718
0.500221 1 1
0.500221 1 1
0.500221 1 1
0.500221 1 1
0.500221 1 1
0.502251 1 1
1 1 1
1 1 1
1 1 0.927596
0.500221 1 1
0.500221 1 1
0.500221 1 1
0.500221 1 1
0.500221 1 1
0.500221 1 1
0.967315 1 0.916014
1 1 0.610483
1 1 0.448814
0.542168 1 0.453132
0.542168 1 0.453132
0.542168 1 0.453132
0.542168 1 0.453132
0.542168 1 0.453132
0.542168 1 0.453132
0.989578 1 0.405493
1 1 0.259663
1 1 0.259495
0.139544 0.34789 0.919524
0.139544 0.34789 0.919524
0.139544 0.34789 0.919463
0.139544 0.34789 0.919463
0.139483 0.347845 0.919478
0.986358 0.454643 0.97203
0.986358 0.454643 0.97203
0.986358 0.454643 0.97203
0.986358 0.454643 0.97203
0.139544 0.34789 0.919463
0.139544 0.34789 0.919463
0.139544 0.34789 0.919463
0.139544 0.34789 0.919463
0.13933 0.347875 0.919387
0.986358 0.454643 0.97203
0.986358 0.454643 0.97203
0.986358 0.454643 0.97203
0.986358 0.454643 0.97203
0.139544 0.34789 0.919463
0.13959 0.347845 0.919493
0.13959 0.347845 0.919493
0.13959 0.347845 0.919493
0.139391 0.347814 0.919417
0.986358 0.454643 0.97203
0.986358 0.454643 0.97203
0.986358 0.454643 0.97203
0.986358 0.454643 0.97203
0.13933 0.347875 0.919387
0.139391 0.347814 0.919417
0.139391 0.347814 0.919417
0.139391 0.347814 0.919417
0.139544 0.347707 0.919371
0.986358 0.454643 0.97203
0.986358 0.454643 0.97203
0.986358 0.454643 0.97203
0.986358 0.454643 0.97203
0.139254 0.347585 0.919249
0.139254 0.347585 0.919249
0.139254 0.347585 0.919249
0.139284 0.347555 0.919234
0.1393 0.347478 0.919264
0.986358 0.454643 0.97203
0.986358 0.454643 0.97203
0.986358 0.454643 0.97203
0.986358 0.454643 0.97203
0.138949 0.34667 0.918608
0.138949 0.34667 0.918608
0.138949 0.34667 0.918608
0.138964 0.346639 0.918578
0.138964 0.346578 0.918547
0.986358 0.454643 0.97203
0.986358 0.454643 0.97203
0.986358 0.454643 0.97203
0.986358 0.454643 0.97203
0.500221 1 1
0.500221 1 1
0.500221 1 1
0.500221 1 1
0.500221 1 1
0.498497 1 1
1 0.997772 1
1 0.932403 1
1 0.885267 1
0.500221 1 1
0.500221 1 1
0.500221 1 1
0.500221 1 1
0.500221 1 1
0.500221 1 1
0.761547 1 1
1 1 1
1 1 1
0.500221 1 1
0.500221 1 1
0.500221 1 1
0.500221 1 1
0.500221 1 1
0.500221 1 1
0.562081 1 1
1 1 1
1 1 1
0.138598 0.359136 0.924727
0.138598 0.359136 0.924727
0.138598 0.359136 0.924727
0.138598 0.359136 0.924727
0.138598 0.359136 0.924727
0.138598 0.359136 0.924727
0.986358 0.454643 0.97203
0.986358 0.454643 0.97203
0.986358 0.454643 0.97203
0.138598 0.359136 0.924727
0.138598 0.359136 0.924727
0.138598 0.359136 0.924727
0.138598 0.359136 0.924727
0.138598 0.359136 0.924727
0.138598 0.359136 0.924727
0.986358 0.454643 0.97203
0.986358 0.454643 0.97203
0.986358 0.454643 0.97203
0.138598 0.359136 0.924727
0.138598 0.359136 0.924727
0.138598 0.359136 0.924727
0.138598 0.359136 0.924727
0.138598 0.359136 0.924727
0.138598 0.359136 0.924727
0.986358 0.454643 0.97203
0.986358 0.454643 0.97203
0.986358 0.454643 0.97203
0.138598 0.359136 0.924727
0.138598 0.359136 0.924727
0.138598 0.359136 0.924727
0.138598 0.359136 0.924727
0.138598 0.359136 0.924727
0.138598 0.359136 0.924727
0.986358 0.454643 0.97203
0.986358 0.454643 0.97203
0.986358 0.454643 0.97203
0.138598 0.359136 0.924727
0.138598 0.359136 0.924727
0.138598 0.359136 0.924727
0.138598 0.359136 0.924727
0.138598 0.359136 0.924727
0.138598 0.359136 0.924727
0.986358 0.454643 0.97203
0.986358 0.454643 0.97203
0.986358 0.454643 0.97203
0.138598 0.359136 0.924727
0.138598 0.359136 0.924727
0.138598 0.359136 0.924727
0.138598 0.359136 0.924727
0.138598 0.359136 0.924727
0.138598 0.359136 0.924727
0.986358 0.454643 0.97203
0.986358 0.454643 0.97203
0.986358 0.454643 0.97203
0.138598 0.359136 0.924727
0.138598 0.359136 0.924727
0.138598 0.359136 0.924727
0.138598 0.359136 0.924727
0.138598 0.359136 0.924727
0.138598 0.359136 0.924727
0.986358 0.454643 0.97203
0.986358 0.454643 0.97203
0.986358 0.454643 0.97203
0.500221 1 1
0.500221 1 1
0.500221 1 1
0.500221 1 1
0.500221 1 1
0.500221 1 1
0.687037 1 1
1 1 1
1 1 1
0.500221 1 1
0.500221 1 1
0.500221 1 1
0.500221 1 1
0.500221 1 1
0.500221 1 1
0.49926 1 1
1 1 1
1 1 1
