Log3G10_RWG_to_NostalgicNeg.cube
TITLE "Generated by Resolve"
LUT_3D_SIZE 5
0.0379187 0.0324254 0.0303502
0.383017 0.0679637 4.57771e-05
1 0.0994736 0.0818647
1 0.276204 0.678721
1 0.445151 0.862272
0.031693 0.26334 0.071397
0.192233 0.208988 0.00260929
0.966567 0.1337 0
1 0.258976 0.577539
1 0.445151 0.862272
0.0772106 0.858366 0.323903
0.0883345 0.843503 0.274754
0.742458 0.745205 0.00502022
0.988251 0.32781 0.0641031
1 0.278737 0.530632
0.042359 0.917067 0.586404
0.042359 0.917067 0.586404
0.128359 0.885222 0.249149
0.956695 0.906661 0.0211643
0.955413 0.902083 0
0.0153658 0.931044 0.729992
0.0153658 0.931044 0.729992
0.0153658 0.931044 0.729992
0.935088 0.922515 0.21944
0.959426 0.921813 0.184787
0 0.130602 0.468818
0.380179 0.101762 0.300511
1 0.0477302 0.142519
1 0.276204 0.678706
1 0.445151 0.862272
0.00047303 0.216144 0.240223
0.217563 0.205432 0.214893
0.984497 0.133516 0
1 0.259449 0.583413
1 0.445151 0.862272
0.0772717 0.857923 0.323354
0.0881819 0.843153 0.275029
0.74313 0.744366 0.00454719
0.988754 0.323323 0.0618601
1 0.280079 0.533135
0.0423743 0.917067 0.586358
0.0423743 0.917067 0.586358
0.128298 0.885237 0.249363
0.956695 0.906661 0.021149
0.955413 0.902083 0
0.0153658 0.931044 0.729992
0.0153658 0.931044 0.729992
0.0153658 0.931044 0.729992
0.935134 0.922499 0.219257
0.959426 0.921813 0.184787
0 0.383169 1
0.222614 0.316365 1
1 0.28423 0.816312
1 0.290929 0.845319
1 0.445151 0.862272
0 0.377111 1
0.0348211 0.332219 1
1 0.279942 0.799069
1 0.290654 0.843336
1 0.445151 0.862272
0.00128176 0.823545 0.901106
0.00105287 0.806088 0.883421
0.768246 0.750042 0.746212
1 0.180804 0.182956
1 0.291814 0.559091
0.0425116 0.917006 0.585809
0.0425116 0.917006 0.585809
0.128161 0.885283 0.249866
0.956741 0.906676 0.0213474
0.955444 0.902007 0
0.0153658 0.931044 0.729992
0.0153658 0.931044 0.729992
0.0153658 0.931044 0.729992
0.935012 0.922545 0.219776
0.959426 0.921813 0.184787
0 0.482185 1
0 0.479057 1
1 0.298116 0.906767
1 0.297429 0.898695
1 0.297429 0.898695
0 0.481987 1
0 0.481285 1
1 0.298116 0.906813
1 0.297429 0.898695
1 0.297429 0.898695
0 0.747677 1
0 0.747585 1
0.746517 0.517571 0.999924
1 0.297429 0.898695
1 0.297429 0.898695
0 0.9626 1
0 0.9626 1
0 0.960555 1
0.999146 0.99147 0.968643
0.999924 0.975891 0.950683
0.101701 0.925978 0.946166
0.102007 0.925887 0.945876
0.105608 0.924849 0.942611
0.948898 0.969711 0.721813
0.95874 0.918608 0.151049
0 0.615686 1
0 0.615686 1
0.991562 0.326345 0.945235
1 0.297429 0.898695
1 0.297429 0.898695
0 0.615686 1
0 0.615686 1
0.991394 0.326818 0.945785
1 0.297429 0.898695
1 0.297429 0.898695
0 0.615686 1
0 0.615686 1
0.988739 0.333883 0.954162
1 0.297429 0.898695
1 0.297429 0.898695
0 0.963073 1
0 0.963058 1
0 0.961166 1
0.997833 0.986313 0.991897
1 0.952804 0.987518
0 0.964508 1
0 0.964508 1
0 0.964508 1
0.944335 0.988586 0.985443
0.999008 0.9991 0.988754
