Log3G10_RWG_to_EternaBleachBypass.cube
TITLE "Generated by Resolve"
LUT_3D_SIZE 5
0 0 0
0.12459 0.0171664 0.0241245
0.597986 0.0703899 0.106096
0.622965 0.110155 0.128923
0.622965 0.110155 0.128923
0.0553445 0.177905 0.063035
0.160204 0.185611 0.0838178
0.673503 0.24538 0.198337
0.622965 0.110155 0.128923
0.622965 0.110155 0.128923
0.401648 0.880034 0.446616
0.40145 0.879973 0.446387
0.878279 0.932738 0.48716
0.924056 0.80734 0.462226
0.622965 0.110155 0.128923
0.51841 0.912169 0.556634
0.51841 0.912169 0.556634
0.51841 0.912169 0.556634
0.954025 0.975525 0.580652
0.952392 0.973754 0.566155
0.51841 0.912169 0.556634
0.51841 0.912169 0.556634
0.51841 0.912169 0.556634
0.908797 0.972091 0.617441
0.952392 0.973754 0.566155
0.0140078 0.0190127 0.0723278
0.150469 0.0371862 0.0948043
0.613504 0.0862745 0.116075
0.622965 0.110155 0.128923
0.622965 0.110155 0.128923
0.0636759 0.218219 0.230961
0.175677 0.175845 0.175647
0.646967 0.181338 0.166598
0.622965 0.110155 0.128923
0.622965 0.110155 0.128923
0.398886 0.879088 0.443412
0.398581 0.878981 0.443061
0.878538 0.93196 0.486458
0.923217 0.803632 0.461051
0.622965 0.110155 0.128923
0.51841 0.912169 0.556634
0.51841 0.912169 0.556634
0.51841 0.912169 0.556634
0.954025 0.975525 0.580636
0.952392 0.973754 0.566155
0.51841 0.912169 0.556634
0.51841 0.912169 0.556634
0.51841 0.912169 0.556634
0.908736 0.972091 0.617456
0.952392 0.973754 0.566155
0.0928359 0.110048 0.405722
0.092668 0.109865 0.404974
0.782528 0.358663 0.619806
0.699886 0.247883 0.365225
0.622965 0.110155 0.128923
0.0920729 0.109239 0.402258
0.0919203 0.109056 0.401495
0.780911 0.355917 0.616617
0.697673 0.245197 0.358038
0.622965 0.110155 0.128923
0.295415 0.852354 0.79736
0.295415 0.852323 0.797391
0.896345 0.897597 0.896071
0.913115 0.709682 0.513756
0.622965 0.110155 0.128923
0.51841 0.912169 0.556634
0.51841 0.912169 0.556634
0.51841 0.912169 0.556634
0.953857 0.975402 0.58056
0.952392 0.973754 0.566155
0.51841 0.912169 0.556634
0.51841 0.912169 0.556634
0.51841 0.912169 0.556634
0.907851 0.972061 0.617655
0.952392 0.973754 0.566155
0.237369 0.337881 0.651377
0.237339 0.337835 0.651362
0.669261 0.545419 0.806363
0.906584 0.576165 0.88191
0.881285 0.525795 0.832303
0.237293 0.337728 0.651347
0.237263 0.337682 0.651331
0.658274 0.541085 0.801633
0.906523 0.576043 0.881788
0.881163 0.525582 0.832029
0.236301 0.335973 0.650935
0.236271 0.335927 0.650935
0.438483 0.447883 0.716228
0.905928 0.574578 0.880323
0.879713 0.52314 0.828794
0.298833 0.890364 0.807935
0.298833 0.890364 0.807935
0.298833 0.890364 0.807935
0.993378 0.995499 0.993652
0.988785 0.978058 0.955459
0.51841 0.912169 0.556634
0.51841 0.912169 0.556634
0.51841 0.912169 0.556634
0.896788 0.970153 0.617456
0.952392 0.973754 0.566155
0.256245 0.412543 0.664485
0.256245 0.412543 0.664485
0.256245 0.412543 0.664485
0.919997 0.603265 0.90547
0.919997 0.603265 0.90547
0.256245 0.412543 0.664485
0.256245 0.412543 0.664485
0.256245 0.412543 0.664485
0.919997 0.603265 0.90547
0.919997 0.603265 0.90547
0.256245 0.412543 0.664485
0.256245 0.412543 0.664485
0.256245 0.412543 0.664485
0.919997 0.603265 0.90547
0.919997 0.603265 0.90547
0.256245 0.412543 0.664485
0.256245 0.412543 0.664485
0.256245 0.412543 0.664485
0.919997 0.603265 0.90547
0.919997 0.603265 0.90547
0.298833 0.890364 0.807935
0.298833 0.890364 0.807935
0.298833 0.890364 0.807935
0.674861 0.958236 0.918883
1 1 1
