Log3G10_RWG_to_RealaAce.cube
TITLE "Generated by Resolve"
LUT_3D_SIZE 5
0 0 0
0.215457 0.00947585 0.00851453
0.999207 0.0693065 0.263523
1 0.0823072 0.307668
1 0.0823072 0.307668
0 0.311147 0
0.235569 0.289021 0
1 0.16347 0.20441
1 0.0823072 0.307668
1 0.0823072 0.307668
0.542565 1 0.450965
0.542565 1 0.450965
1 1 0.307591
1 0.695232 0
1 0.0823072 0.307668
0.542168 1 0.453132
0.542168 1 0.453132
0.542168 1 0.453132
1 1 0.260594
1 1 0.259495
0.542168 1 0.453132
0.542168 1 0.453132
0.542168 1 0.453132
1 1 0.388632
1 1 0.259495
0.00511177 0.0148165 0.135119
0.327306 0 0.185901
1 0.0769055 0.328771
1 0.0823072 0.307668
1 0.0823072 0.307668
0 0.2795 0.324819
0.249622 0.250126 0.249577
1 0.111055 0.257755
1 0.0823072 0.307668
1 0.0823072 0.307668
0.542565 1 0.450965
0.542565 1 0.450965
1 1 0.298421
1 0.689326 0
1 0.0823072 0.307668
0.542168 1 0.453132
0.542168 1 0.453132
0.542168 1 0.453132
1 1 0.260563
1 1 0.259495
0.542168 1 0.453132
0.542168 1 0.453132
0.542168 1 0.453132
1 1 0.388724
1 1 0.259495
0.0474098 0.0314031 0.658274
0.0465095 0.031342 0.657908
0.943297 0.333272 0.809888
1 0.197467 0.559823
1 0.0823072 0.307668
0.0434424 0.0308995 0.656657
0.0425116 0.0308537 0.656291
0.94316 0.332021 0.807568
1 0.191653 0.552529
1 0.0823072 0.307668
0.415625 0.952972 0.997162
0.415625 0.952895 0.997147
0.928069 0.935286 0.931044
1 0.539406 0.235828
1 0.0823072 0.307668
0.542168 1 0.453132
0.542168 1 0.453132
0.542168 1 0.453132
1 1 0.260899
1 1 0.259495
0.542168 1 0.453132
0.542168 1 0.453132
0.542168 1 0.453132
1 1 0.390509
1 1 0.259495
0.149996 0.302586 0.899458
0.150042 0.302541 0.899489
0.559976 0.436103 1
0.976287 0.436179 0.962036
0.96112 0.411231 0.944595
0.150103 0.302464 0.899458
0.150088 0.302449 0.899428
0.543862 0.432074 1
0.976349 0.436027 0.961975
0.961135 0.411063 0.944518
0.150591 0.301106 0.899184
0.150576 0.301076 0.899168
0.222431 0.361486 0.950469
0.975525 0.435431 0.961624
0.960128 0.41001 0.943923
0.500221 1 1
0.500221 1 1
0.500221 1 1
1 1 1
1 1 0.927596
0.542168 1 0.453132
0.542168 1 0.453132
0.542168 1 0.453132
0.989578 1 0.405493
1 1 0.259495
0.138598 0.359136 0.924727
0.138598 0.359136 0.924727
0.138598 0.359136 0.924727
0.986358 0.454643 0.97203
0.986358 0.454643 0.97203
0.138598 0.359136 0.924727
0.138598 0.359136 0.924727
0.138598 0.359136 0.924727
0.986358 0.454643 0.97203
0.986358 0.454643 0.97203
0.138598 0.359136 0.924727
0.138598 0.359136 0.924727
0.138598 0.359136 0.924727
0.986358 0.454643 0.97203
0.986358 0.454643 0.97203
0.138598 0.359136 0.924727
0.138598 0.359136 0.924727
0.138598 0.359136 0.924727
0.986358 0.454643 0.97203
0.986358 0.454643 0.97203
0.500221 1 1
0.500221 1 1
0.500221 1 1
0.49926 1 1
1 1 1
