Log3G10_RWG_to_RealaAce.cube
TITLE "Generated by Resolve"
LUT_3D_SIZE 33
0 0 0
0 0 0
0 0 0
0.00645457 0.000534066 0.000427253
0.0300908 0.00289921 0.00227359
0.0539101 0.00561532 0.00535592
0.0820935 0.00889601 0.00637827
0.132647 0.0135653 0.01149
0.215457 0.00947585 0.00851453
0.321294 0.0021973 0.00852979
0.418784 0 0.0124514
0.506813 0 0.0154574
0.606043 0 0.0245823
0.706386 0 0.0440528
0.831373 0 0.0920424
0.953582 0.0310826 0.172137
0.999207 0.0693065 0.263523
1 0.077348 0.330907
1 0.0774853 0.320012
1 0.0823072 0.307668
1 0.0823072 0.307668
1 0.0823072 0.307668
1 0.0823072 0.307668
1 0.0823072 0.307668
1 0.0823072 0.307668
1 0.0823072 0.307668
1 0.0823072 0.307668
1 0.0823072 0.307668
1 0.0823072 0.307668
1 0.0823072 0.307668
1 0.0823072 0.307668
1 0.0823072 0.307668
1 0.0823072 0.307668
0 0 0
0 0 0
0 0 0
0.00601205 0.000503548 0.000411994
0.0236515 0.00210575 0.00149538
0.0512856 0.00515755 0.00550851
0.0809644 0.0087892 0.00724804
0.12726 0.0134737 0.0117037
0.213169 0.00970474 0.00863661
0.319539 0.00227359 0.00823987
0.418524 0 0.0124208
0.50663 0 0.0154726
0.605875 0 0.0245365
0.706157 0 0.0440223
0.831373 0 0.0920424
0.95349 0.0310063 0.171984
0.999191 0.0691997 0.26334
1 0.0771801 0.330922
1 0.0774853 0.320012
1 0.0823072 0.307668
1 0.0823072 0.307668
1 0.0823072 0.307668
1 0.0823072 0.307668
1 0.0823072 0.307668
1 0.0823072 0.307668
1 0.0823072 0.307668
1 0.0823072 0.307668
1 0.0823072 0.307668
1 0.0823072 0.307668
1 0.0823072 0.307668
1 0.0823072 0.307668
1 0.0823072 0.307668
1 0.0823072 0.307668
0 0 0
0 0 0
0 0 0
0.00288396 0 0
0.0193332 0.00158694 0.00180056
0.0455787 0.00468452 0.00456245
0.0768749 0.00827039 0.00674449
0.118837 0.0134737 0.0110933
0.195315 0.0119631 0.0112001
0.315984 0.00209049 0.00808728
0.422797 0 0.0120699
0.521737 0 0.0198062
0.605539 0 0.0244602
0.705943 0 0.0439918
0.831098 0 0.0918746
0.95349 0.0310063 0.171984
0.999191 0.0691997 0.26334
1 0.0771801 0.330922
1 0.0773327 0.320027
1 0.0823072 0.307668
1 0.0823072 0.307668
1 0.0823072 0.307668
1 0.0823072 0.307668
1 0.0823072 0.307668
1 0.0823072 0.307668
1 0.0823072 0.307668
1 0.0823072 0.307668
1 0.0823072 0.307668
1 0.0823072 0.307668
1 0.0823072 0.307668
1 0.0823072 0.307668
1 0.0823072 0.307668
1 0.0823072 0.307668
0.00109865 0.00846876 0.0009308
0.00108339 0.00834669 0.000900282
0.00106813 0.00816358 0.000885023
0.000869764 0.00691234 0.000885023
0.0211643 0.00827039 0.00271611
0.0442054 0.00788891 0.00393683
0.0760662 0.00932326 0.00660716
0.122042 0.0136416 0.0103609
0.212207 0.00984207 0.00723278
0.340063 0.0016022 0.00766003
0.452552 0 0.0143587
0.553384 0 0.0192111
0.64506 0 0.0315099
0.729091 0 0.0491798
0.830961 0 0.0917525
0.953384 0.03093 0.171847
0.999115 0.0691844 0.263142
1 0.0771801 0.330922
1 0.0773327 0.320027
1 0.0823072 0.307668
1 0.0823072 0.307668
1 0.0823072 0.307668
1 0.0823072 0.307668
1 0.0823072 0.307668
1 0.0823072 0.307668
1 0.0823072 0.307668
1 0.0823072 0.307668
1 0.0823072 0.307668
1 0.0823072 0.307668
1 0.0823072 0.307668
1 0.0823072 0.307668
1 0.0823072 0.307668
1 0.0823072 0.307668
0.00500496 0.0311589 0.00466926
0.00495918 0.0307774 0.00463874
0.00469978 0.0261234 0.00427253
0.00471504 0.02533 0.00440986
0.0193179 0.0307469 0.00531014
0.0529641 0.0337682 0.00706493
0.0951553 0.0340734 0.00723278
0.170565 0.0343481 0.00534066
0.278798 0.0152895 0.0034638
0.380774 0 0.00396735
0.48632 0 0.00242618
0.586053 0 0.0140078
0.688838 0 0.0369421
0.800504 0 0.0747082
0.91107 0 0.137728
0.957565 0.033753 0.177813
0.999115 0.0691844 0.263142
1 0.0772717 0.330968
1 0.0773327 0.320027
1 0.0823072 0.307668
1 0.0823072 0.307668
1 0.0823072 0.307668
1 0.0823072 0.307668
1 0.0823072 0.307668
1 0.0823072 0.307668
1 0.0823072 0.307668
1 0.0823072 0.307668
1 0.0823072 0.307668
1 0.0823072 0.307668
1 0.0823072 0.307668
1 0.0823072 0.307668
1 0.0823072 0.307668
1 0.0823072 0.307668
0.00621042 0.0630655 0.00575265
0.00624094 0.0627604 0.00575265
0.0061799 0.0654459 0.00538643
0.00619516 0.0658579 0.00527962
0.0113069 0.0673991 0.0049897
0.0623789 0.0811017 0.00262455
0.124224 0.0871138 0.000366217
0.210086 0.0840009 0
0.305287 0.0726635 0
0.40766 0.044892 0
0.507881 0.00630198 0
0.613519 0 0
0.735454 0 0.0245212
0.870588 0 0.0920882
0.973816 0.0489357 0.191913
1 0.0710765 0.273396
1 0.0742657 0.312459
1 0.0773785 0.330999
1 0.0776379 0.320089
1 0.0823072 0.307668
1 0.0823072 0.307668
1 0.0823072 0.307668
1 0.0823072 0.307668
1 0.0823072 0.307668
1 0.0823072 0.307668
1 0.0823072 0.307668
1 0.0823072 0.307668
1 0.0823072 0.307668
1 0.0823072 0.307668
1 0.0823072 0.307668
1 0.0823072 0.307668
1 0.0823072 0.307668
1 0.0823072 0.307668
0.000656138 0.135012 0.000839246
0.000640879 0.134707 0.000839246
0.000671397 0.135195 0.000717174
0 0.139818 0
0 0.139376 1.5259e-05
0.0382696 0.145754 0
0.121538 0.147478 0
0.210468 0.14699 0
0.308507 0.133349 0
0.411215 0.108415 0
0.515572 0.0735637 0
0.620218 0.0380713 0
0.731029 0.00933852 0
0.856046 0.00973526 0.043534
0.985214 0.0844587 0.141009
1 0.0862135 0.264454
1 0.0764324 0.327718
1 0.0780804 0.318273
1 0.0775616 0.320089
1 0.0823072 0.307668
1 0.0823072 0.307668
1 0.0823072 0.307668
1 0.0823072 0.307668
1 0.0823072 0.307668
1 0.0823072 0.307668
1 0.0823072 0.307668
1 0.0823072 0.307668
1 0.0823072 0.307668
1 0.0823072 0.307668
1 0.0823072 0.307668
1 0.0823072 0.307668
1 0.0823072 0.307668
1 0.0823072 0.307668
0 0.222827 0
0 0.222568 0
0 0.223087 0
0 0.22884 0
0 0.228275 0
0 0.228214 0
0.0729381 0.225971 0
0.172412 0.221485 0
0.286671 0.210636 0
0.388815 0.187213 0
0.493385 0.163546 0
0.601328 0.132784 0
0.712108 0.102907 0
0.834623 0.0865187 0.00361639
0.969635 0.108995 0.0751965
1 0.120943 0.184466
1 0.099382 0.272908
1 0.0878767 0.297185
1 0.0823072 0.307668
1 0.0823072 0.307668
1 0.0823072 0.307668
1 0.0823072 0.307668
1 0.0823072 0.307668
1 0.0823072 0.307668
1 0.0823072 0.307668
1 0.0823072 0.307668
1 0.0823072 0.307668
1 0.0823072 0.307668
1 0.0823072 0.307668
1 0.0823072 0.307668
1 0.0823072 0.307668
1 0.0823072 0.307668
1 0.0823072 0.307668
0 0.311147 0
0 0.311009 0
0 0.310994 0
0 0.314687 0
0 0.318212 0
0 0.318669 0
0 0.310811 0
0.108644 0.300481 0
0.235569 0.289021 0
0.351125 0.278096 0
0.459342 0.255039 0
0.572244 0.230472 0
0.692638 0.204181 0
0.815061 0.184726 0
0.960037 0.170352 0.0111543
1 0.182803 0.11725
1 0.16347 0.20441
1 0.130327 0.234226
1 0.107454 0.263874
1 0.0830701 0.306508
1 0.0823072 0.307668
1 0.0823072 0.307668
1 0.0823072 0.307668
1 0.0823072 0.307668
1 0.0823072 0.307668
1 0.0823072 0.307668
1 0.0823072 0.307668
1 0.0823072 0.307668
1 0.0823072 0.307668
1 0.0823072 0.307668
1 0.0823072 0.307668
1 0.0823072 0.307668
1 0.0823072 0.307668
0.0513008 0.407507 0.019791
0.0513924 0.407279 0.0196841
0.0509804 0.407111 0.0195773
0.0543679 0.410391 0.0219883
0.059144 0.417121 0.0252842
0.054139 0.41178 0.0226902
0.046479 0.399176 0.0152132
0.0775311 0.386892 0
0.174121 0.374121 0
0.300114 0.362844 0
0.422827 0.350423 0
0.538079 0.327657 0
0.659266 0.302098 0
0.790845 0.277668 0
0.952636 0.260075 0
1 0.262348 0.052781
1 0.251453 0.142702
1 0.214542 0.162982
1 0.180133 0.189532
1 0.134508 0.231724
1 0.0916609 0.285512
1 0.0823072 0.307668
1 0.0823072 0.307668
1 0.0823072 0.307668
1 0.0823072 0.307668
1 0.0823072 0.307668
1 0.0823072 0.307668
1 0.0823072 0.307668
1 0.0823072 0.307668
1 0.0823072 0.307668
1 0.0823072 0.307668
1 0.0823072 0.307668
1 0.0823072 0.307668
0.150027 0.525399 0.0895247
0.150027 0.525399 0.0895247
0.149844 0.525185 0.0893721
0.149722 0.524956 0.0892195
0.155093 0.534142 0.0954299
0.140597 0.515496 0.0837262
0.127306 0.497154 0.0713817
0.116976 0.484932 0.0637827
0.156817 0.469017 0.0406958
0.250767 0.45481 0
0.36997 0.442832 0
0.500191 0.427756 0
0.624903 0.4056 0
0.762692 0.38056 0
0.934936 0.356832 0
1 0.354421 0
1 0.354055 0.0691386
1 0.316335 0.108354
1 0.275975 0.112642
1 0.231632 0.14197
1 0.177401 0.19202
1 0.110506 0.258595
1 0.0823072 0.307668
1 0.0823072 0.307668
1 0.0823072 0.307668
1 0.0823072 0.307668
1 0.0823072 0.307668
1 0.0823072 0.307668
1 0.0823072 0.307668
1 0.0823072 0.307668
1 0.0823072 0.307668
1 0.0823072 0.307668
1 0.0823072 0.307668
0.262608 0.672862 0.19118
0.262272 0.672618 0.190951
0.262272 0.672618 0.190951
0.262043 0.672312 0.190707
0.261158 0.671611 0.190097
0.233219 0.641505 0.164202
0.209461 0.612131 0.142733
0.196353 0.592462 0.1308
0.19173 0.577615 0.119722
0.23653 0.563256 0.0935683
0.333455 0.548012 0.0231022
0.450538 0.536324 0
0.589624 0.524239 0
0.734295 0.501945 0
0.911025 0.474678 0
1 0.459113 0
1 0.456107 0
1 0.426078 0.00337224
1 0.386069 0.045243
1 0.336996 0.0684367
1 0.289052 0.0887312
1 0.228061 0.144808
1 0.146929 0.221302
1 0.0823072 0.307668
1 0.0823072 0.307668
1 0.0823072 0.307668
1 0.0823072 0.307668
1 0.0823072 0.307668
1 0.0823072 0.307668
1 0.0823072 0.307668
1 0.0823072 0.307668
1 0.0823072 0.307668
1 0.0823072 0.307668
0.392447 0.847654 0.311742
0.392142 0.847349 0.311543
0.392142 0.847349 0.311543
0.392126 0.846922 0.311437
0.392126 0.846922 0.311437
0.387961 0.835523 0.307622
0.355474 0.781369 0.277378
0.326146 0.742565 0.25034
0.304082 0.719265 0.230549
0.293812 0.6981 0.208286
0.338048 0.682277 0.169986
0.428763 0.669291 0.0901198
0.552712 0.656641 0
0.700557 0.642527 0
0.878386 0.615381 0
1 0.585077 0
1 0.569696 0
1 0.540764 0
1 0.501259 0
1 0.447639 0
1 0.398596 0.0172274
1 0.351034 0.0535897
1 0.285588 0.0911421
1 0.197604 0.173861
1 0.0902876 0.290211
1 0.0823072 0.307668
1 0.0823072 0.307668
1 0.0823072 0.307668
1 0.0823072 0.307668
1 0.0823072 0.307668
1 0.0823072 0.307668
1 0.0823072 0.307668
1 0.0823072 0.307668
0.517464 1 0.426764
0.517388 1 0.426688
0.517388 1 0.426688
0.517388 1 0.426688
0.516991 1 0.426535
0.517571 1 0.426535
0.50071 1 0.411704
0.453696 0.949294 0.366964
0.42678 0.910704 0.341756
0.405859 0.878492 0.324819
0.407492 0.850492 0.309941
0.456428 0.827283 0.273442
0.543572 0.808118 0.185473
0.660014 0.788357 0
0.818906 0.760555 0
1 0.729412 0
1 0.701503 0
1 0.674281 0
1 0.626749 0
1 0.564797 0
1 0.503456 0
1 0.465003 0
1 0.416175 0
1 0.352972 0.0535592
1 0.262165 0.111467
1 0.129702 0.237949
1 0.0823072 0.307668
1 0.0823072 0.307668
1 0.0823072 0.307668
1 0.0823072 0.307668
1 0.0823072 0.307668
1 0.0823072 0.307668
1 0.0823072 0.307668
0.542565 1 0.450965
0.542565 1 0.450965
0.542565 1 0.450965
0.542565 1 0.450965
0.542565 1 0.450965
0.542565 1 0.450965
0.542565 1 0.450965
0.542565 1 0.450965
0.542565 1 0.450965
0.532204 1 0.440833
0.51313 1 0.422507
0.49865 0.976379 0.380133
0.552773 0.950805 0.336049
0.650599 0.931273 0.25893
0.764645 0.906538 0.0337682
0.930571 0.862165 0
1 0.840635 0
1 0.82472 0
1 0.765774 0
1 0.696696 0
1 0.62153 0
1 0.575204 0
1 0.536507 0
1 0.488502 0
1 0.427741 0
1 0.34316 0.0608835
1 0.210147 0.162936
1 0.0823072 0.307668
1 0.0823072 0.307668
1 0.0823072 0.307668
1 0.0823072 0.307668
1 0.0823072 0.307668
1 0.0823072 0.307668
0.542565 1 0.450965
0.542565 1 0.450965
0.542565 1 0.450965
0.542565 1 0.450965
0.542565 1 0.450965
0.542565 1 0.450965
0.542565 1 0.450965
0.542565 1 0.450965
0.542565 1 0.450965
0.542565 1 0.450965
0.542565 1 0.450965
0.543587 1 0.451438
0.589624 1 0.45124
0.678508 1 0.424308
0.79765 1 0.363058
0.939162 1 0.219944
1 0.976761 0
1 0.950332 0
1 0.910567 0
1 0.836118 0
1 0.752438 0
1 0.685542 0
1 0.65388 0
1 0.614618 0
1 0.567178 0
1 0.508629 0
1 0.431678 0
1 0.322515 0.0731365
1 0.149035 0.218204
1 0.0823072 0.307668
1 0.0823072 0.307668
1 0.0823072 0.307668
1 0.0823072 0.307668
0.542565 1 0.450965
0.542565 1 0.450965
0.542565 1 0.450965
0.542565 1 0.450965
0.542565 1 0.450965
0.542565 1 0.450965
0.542565 1 0.450965
0.542565 1 0.450965
0.542565 1 0.450965
0.542565 1 0.450965
0.542565 1 0.450965
0.542565 1 0.450965
0.545266 1 0.451286
0.61445 1 0.455589
0.741512 1 0.449928
0.899931 1 0.418463
1 1 0.307591
1 1 0
1 1 0
1 0.967865 0
1 0.893538 0
1 0.806928 0
1 0.76466 0
1 0.733486 0
1 0.695232 0
1 0.652003 0
1 0.596826 0
1 0.528222 0
1 0.444175 0
1 0.326146 0.0692912
1 0.145663 0.221637
1 0.0823072 0.307668
1 0.0823072 0.307668
0.542565 1 0.450965
0.542565 1 0.450965
0.542565 1 0.450965
0.542565 1 0.450965
0.542565 1 0.450965
0.542565 1 0.450965
0.542565 1 0.450965
0.542565 1 0.450965
0.542565 1 0.450965
0.542565 1 0.450965
0.542565 1 0.450965
0.542565 1 0.450965
0.542565 1 0.450965
0.559777 1 0.452476
0.651118 1 0.456962
0.780011 1 0.445686
0.943069 1 0.41442
1 1 0.347494
1 1 0.214038
1 1 0.068101
1 1 0
1 0.943267 0
1 0.879683 0
1 0.851057 0
1 0.816114 0
1 0.780179 0
1 0.738125 0
1 0.690929 0
1 0.636225 0
1 0.568582 0
1 0.492668 0
1 0.404379 0.010956
1 0.291005 0.0881819
0.542428 1 0.452964
0.542428 1 0.452964
0.542428 1 0.452964
0.542428 1 0.452964
0.542428 1 0.452964
0.542428 1 0.452964
0.542428 1 0.452964
0.542611 1 0.452995
0.542611 1 0.452995
0.542535 1 0.452995
0.542535 1 0.452995
0.542565 1 0.450965
0.542565 1 0.450965
0.542947 1 0.451133
0.588113 1 0.453071
0.688487 1 0.45388
0.821408 1 0.439872
0.975601 1 0.405875
1 1 0.325826
1 1 0.250614
1 1 0.223972
1 1 0.0360418
1 1 0
1 0.965667 0
1 0.937591 0
1 0.906401 0
1 0.873549 0
1 0.832929 0
1 0.790417 0
1 0.746166 0
1 0.699184 0
1 0.652201 0
1 0.606409 0
0.542168 1 0.453132
0.542168 1 0.453132
0.542168 1 0.453132
0.542168 1 0.453132
0.542168 1 0.453132
0.542168 1 0.453132
0.542168 1 0.453132
0.542168 1 0.453132
0.542168 1 0.453132
0.542168 1 0.453132
0.542168 1 0.453132
0.542168 1 0.453132
0.542168 1 0.453132
0.542321 1 0.45098
0.557809 1 0.45124
0.622049 1 0.454871
0.722881 1 0.450874
0.860334 1 0.433036
1 1 0.390997
1 1 0.305516
1 1 0.254566
1 1 0.251118
1 1 0.215412
1 1 0.0751659
1 1 0
1 1 0
1 1 0
1 0.965911 0
1 0.934417 0
1 0.899351 0
1 0.865522 0
1 0.833509 0
1 0.808515 0
0.542168 1 0.453132
0.542168 1 0.453132
0.542168 1 0.453132
0.542168 1 0.453132
0.542168 1 0.453132
0.542168 1 0.453132
0.542168 1 0.453132
0.542168 1 0.453132
0.542168 1 0.453132
0.542168 1 0.453132
0.542168 1 0.453132
0.542168 1 0.453132
0.542168 1 0.453132
0.542168 1 0.453132
0.547585 1 0.454414
0.584649 1 0.454459
0.657526 1 0.456489
0.761166 1 0.448203
0.899321 1 0.424552
1 1 0.378485
1 1 0.284199
1 1 0.254673
1 1 0.254597
1 1 0.25098
1 1 0.249653
1 1 0.24242
1 1 0.200183
1 1 0.125261
1 1 0
1 1 0
1 1 0
1 0.987442 0
1 0.970199 0
0.542168 1 0.453132
0.542168 1 0.453132
0.542168 1 0.453132
0.542168 1 0.453132
0.542168 1 0.453132
0.542168 1 0.453132
0.542168 1 0.453132
0.542168 1 0.453132
0.542168 1 0.453132
0.542168 1 0.453132
0.542168 1 0.453132
0.542168 1 0.453132
0.542168 1 0.453132
0.542168 1 0.453132
0.542168 1 0.453132
0.554543 1 0.4542
0.611002 1 0.458183
0.697581 1 0.456245
0.804303 1 0.445274
0.93933 1 0.418631
1 1 0.366125
1 1 0.275425
1 1 0.259678
1 1 0.255207
1 1 0.2542
1 1 0.251942
1 1 0.251637
1 1 0.251255
1 1 0.250294
1 1 0.249882
1 1 0.232486
1 1 0.20708
1 1 0.18471
0.542168 1 0.453132
0.542168 1 0.453132
0.542168 1 0.453132
0.542168 1 0.453132
0.542168 1 0.453132
0.542168 1 0.453132
0.542168 1 0.453132
0.542168 1 0.453132
0.542168 1 0.453132
0.542168 1 0.453132
0.542168 1 0.453132
0.542168 1 0.453132
0.542168 1 0.453132
0.542168 1 0.453132
0.542168 1 0.453132
0.542168 1 0.453132
0.571023 1 0.455055
0.645029 1 0.458824
0.744961 1 0.452903
0.868544 1 0.436103
0.995926 1 0.400793
1 1 0.335698
1 1 0.263554
1 1 0.262242
1 1 0.25948
1 1 0.257069
1 1 0.255238
1 1 0.255528
1 1 0.253925
1 1 0.254475
1 1 0.254948
1 1 0.254948
1 1 0.25449
0.542168 1 0.453132
0.542168 1 0.453132
0.542168 1 0.453132
0.542168 1 0.453132
0.542168 1 0.453132
0.542168 1 0.453132
0.542168 1 0.453132
0.542168 1 0.453132
0.542168 1 0.453132
0.542168 1 0.453132
0.542168 1 0.453132
0.542168 1 0.453132
0.542168 1 0.453132
0.542168 1 0.453132
0.542168 1 0.453132
0.542168 1 0.453132
0.543847 1 0.454002
0.595315 1 0.456336
0.685344 1 0.45771
0.80293 1 0.446448
0.940597 1 0.419867
1 1 0.372396
1 1 0.291173
1 1 0.264195
1 1 0.261738
1 1 0.259495
1 1 0.259495
1 1 0.25948
1 1 0.258885
1 1 0.26006
1 1 0.257786
1 1 0.25658
1 1 0.25594
0.542168 1 0.453132
0.542168 1 0.453132
0.542168 1 0.453132
0.542168 1 0.453132
0.542168 1 0.453132
0.542168 1 0.453132
0.542168 1 0.453132
0.542168 1 0.453132
0.542168 1 0.453132
0.542168 1 0.453132
0.542168 1 0.453132
0.542168 1 0.453132
0.542168 1 0.453132
0.542168 1 0.453132
0.542168 1 0.453132
0.542168 1 0.453132
0.542168 1 0.453132
0.552316 1 0.453162
0.628168 1 0.457877
0.738476 1 0.452674
0.871687 1 0.434256
1 1 0.399969
1 1 0.330388
1 1 0.266575
1 1 0.260594
1 1 0.259831
1 1 0.259495
1 1 0.259495
1 1 0.259495
1 1 0.259495
1 1 0.259495
1 1 0.259495
1 1 0.259495
0.542168 1 0.453132
0.542168 1 0.453132
0.542168 1 0.453132
0.542168 1 0.453132
0.542168 1 0.453132
0.542168 1 0.453132
0.542168 1 0.453132
0.542168 1 0.453132
0.542168 1 0.453132
0.542168 1 0.453132
0.542168 1 0.453132
0.542168 1 0.453132
0.542168 1 0.453132
0.542168 1 0.453132
0.542168 1 0.453132
0.542168 1 0.453132
0.542168 1 0.453132
0.542168 1 0.453132
0.573281 1 0.454017
0.673396 1 0.457816
0.800427 1 0.447196
0.94728 1 0.417426
1 1 0.365728
1 1 0.281605
1 1 0.262531
1 1 0.258961
1 1 0.259495
1 1 0.259495
1 1 0.259495
1 1 0.259495
1 1 0.259495
1 1 0.259495
1 1 0.259495
0.542168 1 0.453132
0.542168 1 0.453132
0.542168 1 0.453132
0.542168 1 0.453132
0.542168 1 0.453132
0.542168 1 0.453132
0.542168 1 0.453132
0.542168 1 0.453132
0.542168 1 0.453132
0.542168 1 0.453132
0.542168 1 0.453132
0.542168 1 0.453132
0.542168 1 0.453132
0.542168 1 0.453132
0.542168 1 0.453132
0.542168 1 0.453132
0.542168 1 0.453132
0.542168 1 0.453132
0.542168 1 0.453132
0.608118 1 0.456092
0.729305 1 0.454261
0.874266 1 0.434455
1 1 0.395026
1 1 0.319142
1 1 0.263935
1 1 0.261646
1 1 0.259648
1 1 0.259495
1 1 0.259495
1 1 0.259495
1 1 0.259495
1 1 0.259495
1 1 0.259495
0.542168 1 0.453132
0.542168 1 0.453132
0.542168 1 0.453132
0.542168 1 0.453132
0.542168 1 0.453132
0.542168 1 0.453132
0.542168 1 0.453132
0.542168 1 0.453132
0.542168 1 0.453132
