Log3G10_RWG_to_709FLog2.cube
TITLE "Generated by Resolve"
LUT_3D_SIZE 5
0.00709544 0.00515755 0.00529488
0.42089 0 0
0.77052 0 0
1 0 0
1 0 0
0 0.348516 0
0.309697 0.325307 0
0.730632 0.225589 0
1 0 0
1 0 0
0 0.643091 0
0 0.642954 0
0.59675 0.604898 0
0.996201 0.530159 0
1 0 0
0 0.916915 0
0 0.916915 0
0 0.907713 0
0.864012 0.864683 0
1 0.832746 0
0 1 0
0 1 0
0 1 0
0.688609 1 0
1 1 0
0 0 0.358038
0.39939 0 0.349218
0.767071 0 0.2056
1 0 0
1 0 0
0 0.32015 0.309041
0.296315 0.296254 0.29633
0.737667 0.169909 0
1 0 0
1 0 0
0 0.641337 0
0 0.641154 0
0.59678 0.603052 0
0.996612 0.527474 0
1 0 0
0 0.916716 0
0 0.916716 0
0 0.90779 0
0.863981 0.864561 0
1 0.832609 0
0 1 0
0 1 0
0 1 0
0.688487 1 0
1 1 0
0 0 0.651057
0 0 0.650599
0.741787 0 0.640024
1 0 0.539254
1 0 0
0 0 0.648997
0 0 0.648554
0.741115 0 0.637888
1 0 0.534066
1 0 0
0 0.613291 0.58941
0 0.613031 0.58883
0.574487 0.574136 0.574487
0.998734 0.484306 0.392645
1 0 0
0 0.914717 0
0 0.914717 0
0 0.91107 0
0.864027 0.86244 0
1 0.830137 0
0 1 0
0 1 0
0 1 0
0.686488 1 0
1 1 0
0 0 0.923323
0 0 0.923262
0.475593 0 0.92108
1 0 0.910292
1 0 0.881086
0 0 0.923125
0 0 0.923064
0.470451 0 0.920913
1 0 0.910109
1 0 0.880827
0 0 0.920821
0 0 0.92076
0.378195 0 0.91899
1 0 0.907652
1 0 0.877653
0 0.886137 0.850324
0 0.886137 0.850248
0 0.885878 0.849607
0.833356 0.832929 0.833326
1 0.795239 0.792676
0 1 0
0 1 0
0 1 0
0.662043 1 0
1 1 0
0 0 1
0 0 1
0 0 1
0.996216 0 1
1 0 1
0 0 1
0 0 1
0 0 1
0.996155 0 1
1 0 1
0 0 1
0 0 1
0 0 1
0.995651 0 1
1 0 1
0 0 1
0 0 1
0 0 1
0.984344 0 1
1 0 1
0 1 1
0 1 1
0 1 1
0.412741 1 1
1 1 1
