Log3G10_RWG_to_Eterna.cube
TITLE "Generated by Resolve"
LUT_3D_SIZE 9
0.045182 0.0437629 0.0445106
0.109789 0.0504768 0.0500801
0.363394 0.0859388 0.0875105
0.733059 0.177646 0.205325
0.998932 0.265385 0.406577
1 0.312551 0.644297
1 0.350683 0.868833
1 0.449821 0.968124
1 0.509621 0.991806
0.0327916 0.0949569 0.0380102
0.0817121 0.08748 0.031693
0.325185 0.0937972 0.0646677
0.694728 0.165667 0.167941
0.990234 0.255116 0.364599
1 0.308385 0.617365
1 0.350683 0.868833
1 0.449821 0.968124
1 0.509621 0.991806
0.0764782 0.270191 0.0738842
0.0731212 0.258793 0.0538338
0.201526 0.222232 0.0272831
0.634409 0.223453 0.112688
0.9122 0.216648 0.214832
1 0.288029 0.499519
1 0.334279 0.785138
1 0.421302 0.948302
1 0.509621 0.991806
0.170825 0.603311 0.178149
0.169085 0.597314 0.168917
0.156451 0.553643 0.115023
0.45745 0.491463 0.0549172
0.906065 0.41297 0.196429
1 0.247166 0.255863
1 0.304967 0.596109
1 0.361151 0.845396
1 0.412757 0.922896
0.246403 0.868833 0.317067
0.246403 0.868833 0.317067
0.242008 0.854124 0.276036
0.242863 0.810697 0.166476
0.742977 0.763104 0.0776379
0.979965 0.655894 0.214908
0.989227 0.378454 0.233417
1 0.307179 0.481224
1 0.386282 0.741772
0.282475 0.929717 0.444389
0.282475 0.929717 0.444389
0.282475 0.929717 0.444389
0.274693 0.918914 0.326589
0.538216 0.909514 0.188037
0.921218 0.910018 0.106081
0.999557 0.895033 0.109529
0.995346 0.807599 0.176333
0.984878 0.672099 0.217975
0.290211 0.938903 0.548089
0.290211 0.938903 0.548089
0.290211 0.938903 0.548089
0.290211 0.938903 0.548089
0.279164 0.917693 0.257771
0.832319 0.932448 0.157137
0.983597 0.941665 0.145251
0.999573 0.93785 0.105562
0.999237 0.93492 0.100618
0.297276 0.945434 0.638437
0.297276 0.945434 0.638437
0.297276 0.945434 0.638437
0.297261 0.945434 0.638437
0.296223 0.944717 0.628336
0.732921 0.914504 0.39678
0.950011 0.944717 0.161074
0.994583 0.947448 0.181918
0.998154 0.94873 0.19379
0.302098 0.949035 0.688487
0.302098 0.949035 0.688487
0.302098 0.949035 0.688487
0.302098 0.949035 0.688487
0.302098 0.949035 0.688487
0.621698 0.951659 0.550362
0.925582 0.955947 0.317647
0.987778 0.952148 0.251637
0.994949 0.955001 0.287541
0.0464027 0.0557565 0.119844
0.115434 0.0519417 0.118975
0.344884 0.0866407 0.122606
0.732113 0.178515 0.214115
0.998932 0.265858 0.408789
1 0.312551 0.644297
1 0.350683 0.868833
1 0.449821 0.968124
1 0.509621 0.991806
0.0288853 0.0852064 0.085069
0.0828717 0.0812543 0.0840009
0.357519 0.106249 0.107774
0.697383 0.166888 0.174289
0.991272 0.255772 0.367178
1 0.308721 0.619516
1 0.350683 0.868833
1 0.449821 0.968124
1 0.509621 0.991806
0.0755474 0.26685 0.0754406
0.0723125 0.255894 0.0532082
0.201877 0.220279 0.026276
0.633448 0.221607 0.112108
0.914122 0.217182 0.215961
1 0.288273 0.500908
1 0.334462 0.786374
1 0.422614 0.949325
1 0.509621 0.991806
0.170581 0.602426 0.177829
0.168856 0.59649 0.168704
0.156191 0.552758 0.114839
0.457542 0.49073 0.0543526
0.90634 0.412024 0.196139
1 0.247196 0.256031
1 0.305058 0.596719
1 0.361288 0.845838
1 0.412863 0.923079
0.246372 0.868727 0.31696
0.246372 0.868727 0.31696
0.241978 0.854032 0.276066
0.242832 0.810513 0.16643
0.743023 0.762936 0.0774853
0.979919 0.655528 0.214984
0.989273 0.378286 0.233371
1 0.307546 0.482734
1 0.386328 0.742275
0.28246 0.929717 0.444358
0.28246 0.929717 0.444358
0.28246 0.929717 0.444358
0.274693 0.918914 0.326604
0.538308 0.909483 0.188052
0.921248 0.910002 0.106065
0.999557 0.895003 0.109545
0.995331 0.807355 0.176501
0.984848 0.671839 0.218036
0.290211 0.938903 0.548074
0.290211 0.938903 0.548074
0.290211 0.938903 0.548074
0.290211 0.938903 0.548074
0.279179 0.917708 0.258061
0.832471 0.932479 0.157046
0.983566 0.941665 0.14522
0.999573 0.93785 0.105516
0.999237 0.934905 0.100603
0.297261 0.945434 0.638437
0.297261 0.945434 0.638437
0.297261 0.945434 0.638437
0.297261 0.945434 0.638437
0.296239 0.944732 0.628489
0.732921 0.914504 0.39678
0.949981 0.944732 0.16112
0.994537 0.947448 0.181842
0.998154 0.94873 0.193759
0.302098 0.949035 0.688487
0.302098 0.949035 0.688487
0.302098 0.949035 0.688487
0.302098 0.949035 0.688487
0.302098 0.949035 0.688487
0.621881 0.951659 0.550301
0.92546 0.955962 0.317952
0.987778 0.952148 0.251637
0.994949 0.955001 0.287541
0.066804 0.118074 0.371862
0.132601 0.117311 0.381521
0.355871 0.126085 0.352255
0.719051 0.209201 0.403006
0.998779 0.275715 0.469551
1 0.312551 0.644266
1 0.350683 0.868833
1 0.449821 0.968124
1 0.509621 0.991806
0.0535744 0.125719 0.337667
0.0917372 0.110521 0.346319
0.340078 0.122286 0.335836
0.678141 0.191913 0.348333
0.99205 0.265354 0.424704
1 0.309865 0.626886
1 0.350683 0.868818
1 0.449821 0.968124
1 0.509621 0.991806
0.0622416 0.227329 0.228153
0.0598611 0.219287 0.220447
0.215518 0.214954 0.228443
0.675776 0.238834 0.241245
0.938994 0.224887 0.240497
1 0.289189 0.506142
1 0.335058 0.790234
1 0.427146 0.952972
1 0.509621 0.991806
0.167819 0.592355 0.18851
0.166094 0.58645 0.179797
0.154665 0.547341 0.11371
0.457801 0.488075 0.0523537
0.907012 0.408865 0.195087
1 0.247349 0.256947
1 0.30544 0.599191
1 0.361639 0.846998
1 0.413352 0.923858
0.246265 0.868345 0.316609
0.246265 0.86833 0.316594
0.241886 0.853712 0.276249
0.242573 0.809979 0.166339
0.743465 0.762249 0.0767376
0.979812 0.654124 0.215335
0.989624 0.375311 0.232975
1 0.307927 0.484596
1 0.386435 0.743526
0.282445 0.929702 0.444266
0.282445 0.929702 0.444266
0.282445 0.929702 0.444266
0.274678 0.918914 0.326802
0.537942 0.909468 0.188022
0.921386 0.909911 0.10602
0.999557 0.894896 0.109606
0.995315 0.807126 0.176623
0.984787 0.671229 0.218173
0.290211 0.938903 0.548043
0.290211 0.938903 0.548043
0.290211 0.938903 0.548043
0.290211 0.938903 0.548043
0.279179 0.917708 0.257969
0.832288 0.932448 0.157153
0.983581 0.941649 0.145251
0.999573 0.937835 0.105486
0.999237 0.934905 0.100603
0.297261 0.945434 0.638422
0.297261 0.945434 0.638422
0.297261 0.945434 0.638422
0.297261 0.945434 0.638422
0.296284 0.944747 0.62884
0.733257 0.914397 0.396582
0.94995 0.944732 0.161151
0.994568 0.947448 0.181857
0.998154 0.94873 0.193683
0.302098 0.949035 0.688487
0.302098 0.949035 0.688487
0.302098 0.949035 0.688487
0.302098 0.949035 0.688487
0.302098 0.949035 0.688487
0.621683 0.951659 0.550347
0.925658 0.955932 0.317479
0.987778 0.952148 0.251637
0.994949 0.955001 0.287541
0.110704 0.261036 0.725414
0.152026 0.251911 0.72256
0.410971 0.234165 0.736217
0.741604 0.259113 0.720958
0.999619 0.325978 0.781079
1 0.337514 0.806088
1 0.350683 0.868803
1 0.449805 0.968124
1 0.509621 0.991806
0.107195 0.257801 0.719051
0.139437 0.251926 0.71574
0.401526 0.231754 0.733211
0.734066 0.255894 0.712093
0.999619 0.325032 0.77612
1 0.336889 0.802045
1 0.350683 0.868803
1 0.449805 0.968124
1 0.509621 0.991806
0.110491 0.294575 0.621759
0.109941 0.289906 0.630884
0.215991 0.235401 0.659403
0.684123 0.242771 0.672602
0.945418 0.292668 0.639155
1 0.314382 0.656184
1 0.337697 0.807294
1 0.442054 0.963531
1 0.509621 0.991806
0.147829 0.523934 0.528679
0.146075 0.518196 0.522835
0.13463 0.477577 0.488304
0.469444 0.474159 0.50013
0.915038 0.437446 0.46894
1 0.259678 0.326253
1 0.306844 0.608179
1 0.36257 0.851514
1 0.415091 0.92668
0.244221 0.859648 0.378897
0.244221 0.859663 0.377691
0.239185 0.842863 0.330098
0.227619 0.801526 0.166354
0.744183 0.759441 0.0742962
0.9794 0.648981 0.216617
0.990631 0.3673 0.2318
1 0.310201 0.49456
1 0.386877 0.748959
0.282383 0.929641 0.443931
0.282383 0.929641 0.443931
0.282383 0.929641 0.443915
0.274647 0.918929 0.327596
0.537789 0.909285 0.188037
0.921599 0.909636 0.105882
0.999542 0.894499 0.10988
0.995224 0.8056 0.177569
0.984527 0.668498 0.218799
0.290196 0.938888 0.547936
0.290196 0.938888 0.547936
0.290196 0.938888 0.547921
0.290196 0.938888 0.547921
0.279179 0.917723 0.258091
0.832364 0.932464 0.157092
0.983627 0.941634 0.145312
0.999557 0.937819 0.105425
0.999237 0.934859 0.100572
0.297261 0.945434 0.638361
0.297261 0.945434 0.638361
0.297261 0.945434 0.638361
0.297261 0.945434 0.638361
0.296407 0.944839 0.630106
0.732815 0.914488 0.396567
0.950042 0.944717 0.160922
0.994583 0.947448 0.181811
0.998154 0.948714 0.193545
0.302098 0.949035 0.688487
0.302098 0.949035 0.688487
0.302098 0.949035 0.688487
0.302098 0.949035 0.688487
0.302098 0.949035 0.688487
0.621286 0.951644 0.550439
0.92546 0.955962 0.317937
0.987793 0.952148 0.251637
0.994949 0.955001 0.287541
0.145815 0.368536 0.929
0.145739 0.367468 0.928985
0.385962 0.293294 0.954223
0.783459 0.349096 0.94815
0.998596 0.353338 0.97406
1 0.369146 0.999252
1 0.369467 0.998352
1 0.449775 0.968109
1 0.509621 0.991806
0.145754 0.368338 0.92871
0.145754 0.36791 0.928664
0.383581 0.293675 0.953658
0.782773 0.348882 0.947768
0.998581 0.353262 0.973648
1 0.3691 0.999237
1 0.369406 0.998322
1 0.449775 0.968109
1 0.509621 0.991806
0.143877 0.362615 0.920134
0.143923 0.362722 0.920287
0.30695 0.314 0.935882
0.765499 0.346242 0.950759
0.991348 0.347082 0.955566
1 0.367498 0.994186
1 0.369192 0.99823
1 0.44976 0.968093
1 0.509621 0.991806
0.181003 0.545495 0.844694
0.180804 0.544671 0.844465
0.172717 0.504219 0.854078
0.433371 0.40441 0.889921
0.952117 0.347127 0.924895
1 0.350072 0.891478
1 0.351873 0.899275
1 0.367514 0.867048
1 0.422156 0.937499
0.235721 0.821271 0.831586
0.235706 0.821271 0.831449
0.231281 0.805508 0.817243
0.221424 0.765469 0.785595
0.733425 0.743954 0.766217
0.990646 0.704036 0.735012
1 0.337606 0.452323
1 0.317937 0.528969
1 0.38761 0.762554
0.289906 0.940688 0.638163
0.28986 0.940642 0.637568
0.289708 0.94052 0.635493
0.276722 0.928847 0.518242
0.467338 0.911009 0.246143
0.916243 0.904753 0.103655
0.999481 0.893019 0.110826
0.99498 0.801297 0.180179
0.983597 0.658518 0.221057
0.290181 0.938857 0.547509
0.290181 0.938857 0.547509
0.290181 0.938857 0.547509
0.290181 0.938857 0.547509
0.279194 0.917739 0.258412
0.832258 0.932448 0.157137
0.983703 0.941588 0.14548
0.999557 0.937743 0.105196
0.999222 0.934768 0.100465
0.297246 0.945418 0.638163
0.297246 0.945418 0.638163
0.297246 0.945418 0.638163
0.297246 0.945418 0.638163
0.296834 0.945129 0.634287
0.732067 0.914595 0.396155
0.949935 0.944701 0.160815
0.994614 0.947433 0.181613
0.998169 0.948684 0.193027
0.302098 0.949035 0.688487
0.302098 0.949035 0.688487
0.302098 0.949035 0.688487
0.302098 0.949035 0.688487
0.302098 0.949035 0.688487
0.620859 0.951629 0.550362
0.925444 0.955962 0.317891
0.987793 0.952148 0.251621
0.994949 0.955001 0.287541
0.155383 0.398932 0.96669
0.155383 0.398932 0.96669
0.161959 0.3935 0.966705
0.777874 0.363638 1
1 0.373846 1
1 0.375982 1
1 0.376532 1
1 0.376486 1
1 0.449973 1
0.155383 0.398932 0.96669
0.155383 0.398932 0.96669
0.161547 0.393896 0.966705
0.777005 0.363516 1
1 0.373831 1
1 0.375982 1
1 0.376532 1
1 0.376486 1
1 0.450172 1
0.155383 0.398917 0.966674
0.155383 0.398917 0.966674
0.16054 0.395071 0.966674
0.774166 0.363073 1
1 0.373785 1
1 0.375967 1
1 0.376532 1
1 0.376471 1
1 0.450843 1
0.160479 0.420096 0.961257
0.160464 0.420081 0.961257
0.154208 0.39472 0.964462
0.502739 0.310323 0.997909
0.997955 0.375616 1
1 0.37377 1
1 0.375631 1
1 0.376013 1
1 0.45034 1
0.245884 0.815335 0.952865
0.245869 0.815335 0.95285
0.24445 0.809049 0.950744
0.234318 0.76022 0.944259
0.712627 0.691447 0.971893
1 0.560281 1
1 0.371267 1
1 0.371832 1
1 0.389059 1
0.282612 0.945434 0.955917
0.282628 0.945418 0.955901
0.282658 0.945434 0.955856
0.276173 0.935546 0.945907
0.413428 0.923079 0.933577
0.904646 0.915175 0.919432
0.997955 0.89099 0.901122
0.997635 0.779904 0.829541
0.974975 0.539055 0.628916
0.235462 0.956344 0.835004
0.235462 0.956329 0.834928
0.235477 0.956313 0.834653
0.235599 0.956268 0.833555
0.295995 0.952819 0.749035
0.801434 0.956832 0.691676
0.97409 0.957183 0.393668
0.999527 0.937484 0.104433
0.999176 0.934371 0.100053
0.297169 0.945373 0.637491
0.297169 0.945373 0.637491
0.297169 0.945373 0.637491
0.297169 0.945373 0.637491
0.297169 0.945373 0.637476
0.730999 0.914534 0.394293
0.950072 0.944625 0.15967
0.994675 0.947387 0.180865
0.998199 0.948562 0.191226
0.302098 0.949035 0.688487
0.302098 0.949035 0.688487
0.302098 0.949035 0.688487
0.302098 0.949035 0.688487
0.302098 0.949035 0.688487
0.617502 0.951522 0.550805
0.925155 0.955993 0.318379
0.987732 0.952132 0.25156
0.994949 0.955001 0.287541
0.172595 0.465583 0.968566
0.172595 0.465583 0.968566
0.171756 0.462333 0.968444
0.500786 0.318196 0.997024
1 0.375875 1
1 0.376593 1
1 0.376623 1
1 0.376623 1
1 0.376623 1
0.172595 0.465553 0.968566
0.17258 0.465537 0.968566
0.171893 0.462882 0.968475
0.498848 0.318425 0.996872
1 0.375875 1
1 0.376593 1
1 0.376623 1
1 0.376623 1
1 0.376623 1
0.172549 0.465385 0.968551
0.172549 0.465385 0.968551
0.172351 0.464652 0.968536
0.491829 0.31928 0.996323
1 0.37586 1
1 0.376593 1
1 0.376623 1
1 0.376623 1
1 0.376623 1
0.172396 0.46482 0.968536
0.172396 0.46482 0.968536
0.172396 0.46479 0.968536
0.466316 0.322332 0.994354
1 0.375845 1
1 0.376593 1
1 0.376623 1
1 0.376623 1
1 0.376623 1
0.23061 0.7355 0.955871
0.230594 0.735454 0.955871
0.230594 0.735409 0.955856
0.215488 0.664866 0.956924
0.768444 0.539101 0.999756
1 0.37789 1
1 0.376623 1
1 0.376623 1
1 0.376623 1
0.273152 0.941909 0.986267
0.273152 0.941894 0.986267
0.273152 0.941894 0.986252
0.271473 0.933486 0.985061
0.285084 0.911269 0.98587
0.887388 0.891005 0.984497
1 0.839796 0.999878
1 0.57705 1
1 0.37612 1
0.302983 0.966995 0.984176
0.302968 0.966995 0.984176
0.302998 0.966995 0.984176
0.303044 0.966995 0.984161
0.297368 0.963272 0.979385
0.789853 0.976837 0.97586
0.974456 0.977829 0.97377
0.997086 0.972656 0.967056
0.996185 0.965133 0.962173
0.317403 0.969726 0.969482
0.317403 0.969726 0.969482
0.317403 0.969711 0.969451
0.317403 0.969711 0.96939
0.317403 0.969696 0.969116
0.624933 0.976287 0.918822
0.951812 0.989639 0.937819
0.98854 0.991562 0.907134
0.99617 0.989883 0.890517
0.265644 0.960418 0.878752
0.265614 0.960418 0.878706
0.265476 0.960403 0.878508
0.265034 0.960342 0.877928
0.263508 0.960128 0.875837
0.557443 0.968917 0.829953
0.918975 0.974151 0.783475
0.975982 0.973281 0.547433
0.995331 0.953017 0.258991
0.201755 0.601434 0.962966
0.201755 0.601434 0.962966
0.201755 0.601419 0.962966
0.18909 0.541634 0.966369
0.982116 0.386221 1
1 0.376623 1
1 0.376623 1
1 0.376623 1
1 0.376623 1
0.201755 0.601419 0.962966
0.201755 0.601419 0.962966
0.201755 0.601404 0.962966
0.18912 0.541756 0.966369
0.981872 0.386282 1
1 0.376623 1
1 0.376623 1
1 0.376623 1
1 0.376623 1
0.20174 0.601373 0.962966
0.20174 0.601373 0.962966
0.20174 0.601358 0.962966
0.189197 0.542077 0.966354
0.98117 0.386511 1
1 0.376623 1
1 0.376623 1
1 0.376623 1
1 0.376623 1
0.201709 0.60119 0.962982
0.201709 0.60119 0.962982
0.201709 0.601175 0.962982
0.189471 0.543389 0.966293
0.977935 0.387503 1
1 0.376623 1
1 0.376623 1
1 0.376623 1
1 0.376623 1
0.201572 0.600549 0.963027
0.201572 0.600534 0.963027
0.201572 0.600534 0.963027
0.191638 0.553735 0.965805
0.966598 0.391058 1
1 0.376623 1
1 0.376623 1
1 0.376623 1
1 0.376623 1
0.271214 0.930053 0.988907
0.271214 0.930053 0.988907
0.271229 0.930083 0.988907
0.271214 0.930068 0.988907
0.275364 0.89192 0.985229
0.887449 0.856443 0.989822
1 0.767712 1
1 0.415946 1
1 0.376623 1
0.293034 0.965606 0.991165
0.293034 0.965606 0.991165
0.293034 0.965606 0.991165
0.293034 0.965606 0.99115
0.284443 0.962234 0.990662
0.728099 0.97319 0.990723
0.970413 0.974594 0.990951
0.999191 0.966705 0.995789
0.999832 0.953552 0.996933
0.308629 0.970733 0.990723
0.308629 0.970733 0.990723
0.308629 0.970733 0.990723
0.308659 0.970733 0.990723
0.308736 0.970733 0.990707
0.577615 0.978683 0.988403
0.945678 0.991043 0.986816
0.989563 0.991012 0.988678
0.995956 0.990723 0.98703
0.322377 0.97142 0.988663
0.322377 0.97142 0.988663
0.322377 0.97142 0.988663
0.322377 0.97142 0.988647
0.322362 0.971405 0.988632
0.440543 0.975341 0.984268
0.921599 0.992447 0.977508
0.98706 0.994614 0.983368
0.993286 0.995163 0.981018
0.202335 0.60415 0.962783
0.202335 0.60415 0.962783
0.202335 0.60415 0.962783
0.199435 0.590539 0.963745
0.942687 0.40296 1
1 0.376623 1
1 0.376623 1
1 0.376623 1
1 0.376623 1
0.202335 0.60415 0.962783
0.202335 0.60415 0.962783
0.202335 0.60415 0.962783
0.199542 0.591089 0.963714
0.942412 0.403067 1
1 0.376623 1
1 0.376623 1
1 0.376623 1
1 0.376623 1
0.202335 0.60415 0.962783
0.202335 0.60415 0.962783
0.202335 0.60415 0.962783
0.199893 0.592752 0.963592
0.941527 0.403403 1
1 0.376623 1
1 0.376623 1
1 0.376623 1
1 0.376623 1
0.202335 0.60415 0.962783
0.202335 0.60415 0.962783
0.202335 0.60415 0.962783
0.20116 0.598672 0.963149
0.937728 0.404807 1
1 0.376623 1
1 0.376623 1
1 0.376623 1
1 0.376623 1
0.202335 0.60415 0.962783
0.202335 0.60415 0.962783
0.202335 0.60415 0.962783
0.202335 0.60415 0.962783
0.923873 0.409964 1
1 0.376623 1
1 0.376623 1
1 0.376623 1
1 0.376623 1
0.265705 0.901686 0.986343
0.265705 0.901701 0.986343
0.265705 0.901701 0.986343
0.26569 0.90164 0.986343
0.260319 0.851789 0.977691
0.92575 0.794766 0.987518
1 0.592752 1
1 0.376623 1
1 0.376623 1
0.290822 0.96492 0.991409
0.290822 0.96492 0.991409
0.290822 0.96492 0.991409
0.290822 0.96492 0.991409
0.282506 0.961563 0.991043
0.726406 0.971237 0.990997
0.971389 0.971374 0.992416
0.999619 0.960128 0.997116
1 0.942184 0.99826
0.305013 0.970489 0.99173
0.305013 0.970489 0.99173
0.305013 0.970489 0.99173
0.305013 0.970489 0.99173
0.305013 0.970489 0.99173
0.549676 0.977325 0.990509
0.942306 0.9906 0.990997
0.989532 0.99057 0.992065
0.995712 0.990585 0.992477
0.308324 0.97113 0.991409
0.308324 0.97113 0.991409
0.308324 0.97113 0.991409
0.308324 0.97113 0.991409
0.308324 0.97113 0.991409
0.405997 0.974182 0.989395
0.923659 0.99295 0.989364
0.98587 0.994781 0.990784
0.991714 0.994842 0.991257
