Log3G10_RWG_to_ProNeg_Hi.cube
TITLE "Generated by Resolve"
LUT_3D_SIZE 9
0 0 0
0.0196384 0 0
0.370016 0.0707713 0.0627756
0.746883 0.157366 0.189471
1 0.214038 0.451698
1 0.233661 0.749126
1 0.230701 0.983642
1 0.282795 1
1 0.382635 1
0 0.00859083 0
0.00201419 0.00448615 0
0.3364 0.0632944 0.0534218
0.712993 0.151629 0.153124
1 0.214359 0.40412
1 0.233997 0.718898
1 0.230701 0.983627
1 0.28278 1
1 0.382635 1
0.0597543 0.267552 0.0134432
0.0552682 0.25185 0.0116732
0.146334 0.180224 0.0011902
0.676646 0.171069 0.122194
0.958556 0.212726 0.226719
1 0.223041 0.563638
1 0.231922 0.895796
1 0.252476 1
1 0.382635 1
0.164309 0.634363 0.0674144
0.162448 0.628458 0.0632181
0.149981 0.585412 0.0534218
0.481132 0.495933 0.00544747
0.980011 0.418738 0.180484
1 0.239338 0.279835
1 0.233021 0.691981
1 0.231815 0.96437
1 0.246021 1
0.256977 0.941314 0.20444
0.256977 0.941299 0.20444
0.250248 0.929198 0.144137
0.236484 0.888655 0.0913252
0.782177 0.780819 0
1 0.621775 0.1664
1 0.366949 0.217304
1 0.227802 0.551598
1 0.249775 0.851621
0.277409 0.973312 0.411582
0.277409 0.973312 0.411582
0.277409 0.973312 0.411582
0.266468 0.975021 0.207645
0.567102 0.960357 0.0979477
0.989303 0.933913 0.000411994
1 0.904189 0.0673838
1 0.795651 0.143511
1 0.645624 0.174746
0.284993 0.971771 0.546548
0.284993 0.971771 0.546548
0.284993 0.971771 0.546548
0.284993 0.971771 0.546548
0.261387 0.9738 0.121675
0.887022 0.947097 0
1 0.946166 0.0279393
1 0.945769 0.0180972
1 0.945068 0.0184024
0.290974 0.971466 0.644984
0.290974 0.971466 0.644984
0.290974 0.971466 0.644984
0.290974 0.971466 0.644968
0.290272 0.971496 0.634028
0.747723 0.954513 0.33817
1 0.946456 0.0143282
1 0.947082 0.0610208
1 0.947982 0.0799115
0.294499 0.971328 0.701091
0.294499 0.971328 0.701091
0.294499 0.971328 0.701091
0.294499 0.971328 0.701091
0.294499 0.971328 0.701091
0.633783 0.98497 0.519295
0.987854 0.958923 0.206088
1 0.952392 0.145907
1 0.955657 0.202579
0 0.000366217 0.0341192
0.016022 0 0.0268101
0.344442 0.063508 0.072221
0.744884 0.155978 0.197848
1 0.214237 0.454353
1 0.233661 0.749126
1 0.230701 0.983642
1 0.282795 1
1 0.382635 1
0 0.00273136 0.00334173
0.00158694 0.00125124 0.00228885
0.368521 0.0704814 0.0698711
0.713985 0.151583 0.157687
1 0.214359 0.407187
1 0.233967 0.721263
1 0.230701 0.983627
1 0.28278 1
1 0.382635 1
0.0582742 0.262333 0.0128328
0.0540322 0.247517 0.0111391
0.146731 0.176257 0.000808728
0.675578 0.16907 0.122148
0.960128 0.213184 0.228061
1 0.22327 0.565621
1 0.231907 0.897215
1 0.254002 1
1 0.382635 1
0.16405 0.633417 0.0672313
0.162203 0.627604 0.0631113
0.149722 0.584512 0.0532998
0.481346 0.495064 0.00508125
0.980377 0.417365 0.18056
1 0.239322 0.280064
1 0.233021 0.692714
1 0.231815 0.964828
1 0.246082 1
0.256947 0.941207 0.204288
0.256947 0.941207 0.204288
0.250217 0.929091 0.144183
0.236423 0.888441 0.0912947
0.782238 0.780606 0
1 0.621485 0.16643
1 0.366735 0.217319
1 0.227909 0.553491
1 0.249729 0.852125
0.277409 0.973312 0.411536
0.277409 0.973312 0.411536
0.277409 0.973312 0.411536
0.266484 0.975021 0.20766
0.567208 0.960342 0.0980087
0.989319 0.933883 0.000411994
1 0.904158 0.0674296
1 0.795346 0.143664
1 0.645411 0.174777
0.284993 0.971771 0.546548
0.284993 0.971771 0.546548
0.284993 0.971771 0.546532
0.284993 0.971771 0.546532
0.261402 0.9738 0.121935
0.887266 0.947097 0
1 0.946166 0.0279088
1 0.945769 0.0180819
1 0.945068 0.0184024
0.290974 0.971466 0.644968
0.290974 0.971466 0.644968
0.290974 0.971466 0.644968
0.290974 0.971466 0.644968
0.290288 0.971496 0.634195
0.747723 0.954513 0.338155
1 0.946456 0.0143282
1 0.947082 0.060914
1 0.947982 0.079881
0.294499 0.971328 0.701091
0.294499 0.971328 0.701091
0.294499 0.971328 0.701091
0.294499 0.971328 0.701091
0.294499 0.971328 0.701091
0.633967 0.98497 0.519219
0.987793 0.958953 0.206485
1 0.952392 0.145907
1 0.955657 0.202579
0.0395819 0.106661 0.439323
0.0551766 0.103868 0.444389
0.339849 0.0884413 0.381399
0.736843 0.150118 0.463188
1 0.215824 0.527031
1 0.233661 0.749096
1 0.230701 0.983627
1 0.28278 1
1 0.382635 1
0.0344854 0.0953841 0.394827
0.0374914 0.0960708 0.402426
0.321874 0.0838483 0.361669
0.687343 0.136202 0.371542
1 0.210834 0.471489
1 0.233921 0.729671
1 0.230701 0.983627
1 0.28278 1
1 0.382635 1
0.0410773 0.179416 0.193866
0.0373388 0.166888 0.181781
0.156542 0.152667 0.181369
0.702251 0.168063 0.231754
0.979568 0.216144 0.258289
1 0.22414 0.573159
1 0.231846 0.90161
1 0.257649 1
1 0.382635 1
0.161059 0.621515 0.0727398
0.159152 0.615717 0.0673533
0.14815 0.579004 0.0526131
0.482033 0.491981 0.00383001
0.981491 0.412833 0.180758
1 0.239216 0.281147
1 0.233036 0.695598
1 0.23183 0.966003
1 0.246372 1
0.256825 0.940841 0.203754
0.256809 0.940841 0.203754
0.250141 0.928725 0.144488
0.23624 0.887831 0.0912337
0.782788 0.779675 0
1 0.620356 0.166552
1 0.363134 0.217914
1 0.228031 0.55581
1 0.249638 0.853437
0.277409 0.973312 0.411399
0.277409 0.973312 0.411399
0.277409 0.973312 0.411383
0.266499 0.975021 0.208011
0.566735 0.960372 0.0979477
0.989487 0.933806 0.000411994
1 0.904036 0.0675517
1 0.795041 0.143786
1 0.644923 0.174868
0.284993 0.971771 0.546502
0.284993 0.971771 0.546502
0.284993 0.971771 0.546502
0.284993 0.971771 0.546502
0.261387 0.9738 0.121874
0.886992 0.947097 0
1 0.946166 0.027924
1 0.945769 0.0180819
1 0.945068 0.0184024
0.290974 0.971466 0.644953
0.290974 0.971466 0.644953
0.290974 0.971466 0.644953
0.290974 0.971466 0.644953
0.290318 0.971496 0.634577
0.748058 0.954421 0.337881
1 0.946456 0.0143282
1 0.947082 0.0609598
1 0.947967 0.0798047
0.294499 0.971328 0.701091
0.294499 0.971328 0.701091
0.294499 0.971328 0.701091
0.294499 0.971328 0.701091
0.294499 0.971328 0.701091
0.633768 0.98497 0.51928
0.9879 0.958907 0.20589
1 0.952392 0.145876
1 0.955657 0.202579
0.0891737 0.221698 0.854841
0.0917525 0.218189 0.848707
0.3935 0.140307 0.84715
0.730922 0.194049 0.787167
1 0.225498 0.891737
1 0.231617 0.919234
1 0.230701 0.983612
1 0.28278 1
1 0.382635 1
0.0881361 0.219287 0.846571
0.0888228 0.216999 0.841398
0.380316 0.13727 0.844327
0.723278 0.190295 0.776761
1 0.225391 0.886107
1 0.231678 0.914534
1 0.230701 0.983597
1 0.282765 1
1 0.382635 1
0.0961624 0.236362 0.715572
0.0930495 0.229664 0.727428
0.133577 0.187411 0.76054
0.670268 0.189242 0.733745
0.983459 0.20911 0.739803
1 0.233692 0.762524
1 0.231601 0.920745
1 0.272526 1
1 0.382635 1
0.0747387 0.516533 0.544732
0.0734569 0.511101 0.538842
0.0684672 0.472999 0.506737
0.472557 0.473121 0.50837
0.964385 0.41828 0.502708
1 0.23032 0.362783
1 0.233066 0.706096
1 0.231785 0.971069
1 0.24744 1
0.259174 0.926238 0.318135
0.259098 0.92639 0.315908
0.250523 0.912154 0.233188
0.233143 0.87837 0.0900893
0.783703 0.776013 0
1 0.616281 0.167025
1 0.353399 0.21944
1 0.228717 0.568261
1 0.249241 0.859083
0.277378 0.973327 0.410864
0.277378 0.973327 0.410864
0.277378 0.973327 0.410849
0.266575 0.975021 0.209369
0.566384 0.960311 0.0981308
0.989792 0.933577 0.000396735
1 0.903517 0.068101
1 0.793027 0.144671
1 0.642771 0.175219
0.284977 0.971771 0.546365
0.284977 0.971771 0.546365
0.284977 0.971771 0.546365
0.284977 0.971771 0.546365
0.261402 0.9738 0.122011
0.887129 0.947097 0
1 0.946166 0.0279698
1 0.945769 0.0180667
1 0.945052 0.0184176
0.290974 0.971466 0.644892
0.290974 0.971466 0.644892
0.290974 0.971466 0.644892
0.290974 0.971466 0.644892
0.290394 0.971496 0.635966
0.747631 0.954498 0.337896
1 0.946441 0.0142824
1 0.947082 0.0609293
1 0.947967 0.0796826
0.294499 0.971328 0.701091
0.294499 0.971328 0.701091
0.294499 0.971328 0.701091
0.294499 0.971328 0.701091
0.294499 0.971328 0.701091
0.633387 0.98497 0.519387
0.987793 0.958953 0.20647
1 0.952407 0.145907
1 0.955657 0.202579
0.129198 0.313619 1
0.128862 0.312871 1
0.349187 0.215183 1
0.794629 0.275227 1
1 0.253498 1
1 0.250935 1
1 0.25275 1
1 0.282734 1
1 0.382635 1
0.129122 0.313466 1
0.129015 0.313176 1
0.345937 0.216693 1
0.793927 0.274891 1
1 0.253132 1
1 0.250706 1
1 0.252384 1
1 0.282734 1
1 0.382635 1
0.12694 0.308507 1
0.12697 0.308583 1
0.240894 0.258061 1
0.776318 0.264637 1
0.998611 0.250431 1
1 0.240818 1
1 0.251133 1
1 0.282719 1
1 0.382635 1
0.231083 0.554543 0.976257
0.23093 0.553811 0.976135
0.227558 0.519188 0.984924
0.428824 0.311681 0.998627
0.964889 0.261662 1
1 0.23032 0.994904
1 0.230243 0.999893
1 0.231937 0.980789
1 0.251865 1
0.140612 0.83595 0.887861
0.139834 0.83595 0.887556
0.136431 0.817304 0.870787
0.128344 0.768948 0.834012
0.737346 0.744045 0.7823
1 0.687556 0.732708
1 0.271595 0.51426
1 0.231159 0.611276
1 0.247944 0.873762
0.290791 0.973144 0.646143
0.290761 0.973144 0.645487
0.290608 0.973144 0.643168
0.283299 0.973877 0.513802
0.474479 0.967117 0.113634
0.987228 0.929763 0
1 0.901671 0.0700542
1 0.787335 0.147097
1 0.634821 0.176516
0.284947 0.971771 0.545892
0.284947 0.971771 0.545892
0.284947 0.971771 0.545892
0.284947 0.971771 0.545876
0.261433 0.9738 0.122438
0.887007 0.947097 0
1 0.946197 0.0280766
1 0.945769 0.0180362
1 0.945037 0.0184482
0.290959 0.971466 0.644678
0.290959 0.971466 0.644678
0.290959 0.971466 0.644678
0.290959 0.971466 0.644678
0.290684 0.971481 0.640467
0.746899 0.954543 0.337407
1 0.946441 0.0141756
1 0.947066 0.0607767
1 0.947936 0.0791943
0.294499 0.971328 0.701091
0.294499 0.971328 0.701091
0.294499 0.971328 0.701091
0.294499 0.971328 0.701091
0.294499 0.971328 0.701091
0.632975 0.98497 0.51931
0.987793 0.958953 0.206409
1 0.952392 0.145876
1 0.955657 0.202579
0.141772 0.341619 1
0.141772 0.341619 1
0.138857 0.335256 1
0.780896 0.265431 1
1 0.308675 1
1 0.284901 1
1 0.286427 1
1 0.286275 1
1 0.313695 1
0.141772 0.341619 1
0.141772 0.341619 1
0.139071 0.335729 1
0.779919 0.265034 1
1 0.308705 1
1 0.284886 1
1 0.286412 1
1 0.286275 1
1 0.313909 1
0.141772 0.341604 1
0.141772 0.341604 1
0.139696 0.337102 1
0.776867 0.263844 1
1 0.308873 1
1 0.284855 1
1 0.286412 1
1 0.286244 1
1 0.314611 1
0.156359 0.3729 1
0.156359 0.3729 1
0.139773 0.337209 1
0.486992 0.188891 1
0.999603 0.328328 1
1 0.27921 1
1 0.283818 1
1 0.284977 1
1 0.315099 1
0.247639 0.81796 1
0.247623 0.817945 1
0.245594 0.811124 1
0.240772 0.757351 1
0.711254 0.652796 1
1 0.477867 1
1 0.263584 1
1 0.266773 1
1 0.258732 1
0.199969 0.962585 0.999756
0.199908 0.96257 0.999756
0.199756 0.96257 0.999756
0.190051 0.955352 0.999161
0.306935 0.943618 0.978164
0.931502 0.941909 0.944945
1 0.90811 0.929931
1 0.768215 0.857237
1 0.484199 0.664912
0.0149691 0.954711 0.858534
0.0152895 0.954742 0.858549
0.0166629 0.954849 0.85861
0.022385 0.955322 0.858869
0.299077 0.971237 0.779583
0.812604 0.983001 0.670741
1 0.966278 0.344808
1 0.945754 0.0179294
1 0.944915 0.018555
0.290913 0.971466 0.643946
0.290913 0.971466 0.643946
0.290913 0.971466 0.643946
0.290913 0.971466 0.643946
0.290898 0.971466 0.643931
0.745907 0.954391 0.335073
1 0.946395 0.0137789
1 0.947021 0.0602121
1 0.947829 0.0774853
0.294499 0.971328 0.701091
0.294499 0.971328 0.701091
0.294499 0.971328 0.701091
0.294499 0.971328 0.701091
0.294499 0.971328 0.701091
0.62977 0.98497 0.51986
0.98764 0.958999 0.206989
1 0.952392 0.145739
1 0.955657 0.202579
0.190478 0.443946 1
0.190478 0.443931 1
0.187839 0.438544 1
0.483909 0.200473 1
1 0.302358 1
1 0.286717 1
1 0.286687 1
1 0.286687 1
1 0.286687 1
0.190448 0.44387 1
0.190448 0.443854 1
0.188281 0.43946 1
0.481559 0.201129 1
1 0.302358 1
1 0.286717 1
1 0.286687 1
1 0.286687 1
1 0.286687 1
0.190326 0.44361 1
0.190326 0.443595 1
0.189731 0.442405 1
0.473045 0.203479 1
1 0.302495 1
1 0.286717 1
1 0.286687 1
1 0.286687 1
1 0.286687 1
0.189883 0.442695 1
0.189868 0.442679 1
0.189853 0.442634 1
0.442115 0.211948 1
1 0.302953 1
1 0.286717 1
1 0.286687 1
1 0.286687 1
1 0.286687 1
0.253056 0.729244 1
0.253056 0.729213 1
0.253071 0.729152 1
0.261601 0.661234 1
0.766476 0.465232 1
1 0.287663 1
1 0.286687 1
1 0.286687 1
1 0.286687 1
0.305287 0.956695 1
0.305287 0.95668 1
0.305287 0.956695 1
0.302693 0.94815 1
0.289448 0.921813 1
0.912383 0.902495 0.999924
1 0.814725 1
1 0.484794 1
1 0.285298 1
0.257694 0.970443 1
0.25771 0.970443 1
0.257694 0.970443 1
0.257679 0.970443 1
0.245655 0.970596 1
0.669749 0.983658 0.937789
0.996445 0.99823 0.984558
0.999985 0.993667 0.982055
0.999985 0.987015 0.978988
0.216464 0.968338 1
0.216449 0.968338 1
0.216327 0.968338 1
0.216083 0.968338 1
0.214969 0.968322 1
0.411566 0.963043 0.866209
0.975387 0.999146 0.950957
1 0.99855 0.92163
0.999878 0.998169 0.901427
0 0.951873 0.889494
0 0.951858 0.889418
0 0.951812 0.889113
0 0.951659 0.888121
0 0.951125 0.884672
0.59173 0.983749 0.863096
0.944839 0.988296 0.737987
1 0.974533 0.509377
1 0.953048 0.159045
0.258396 0.60763 1
0.258396 0.60763 1
0.258396 0.607614 1
0.248112 0.558633 1
0.98471 0.337407 1
1 0.286687 1
1 0.286687 1
1 0.286687 1
1 0.286687 1
0.258396 0.607614 1
0.258396 0.607614 1
0.258396 0.607614 1
0.248127 0.558724 1
0.984482 0.337469 1
1 0.286687 1
1 0.286687 1
1 0.286687 1
1 0.286687 1
0.258381 0.607584 1
0.258381 0.607584 1
0.258381 0.607569 1
0.248142 0.558923 1
0.983841 0.337591 1
1 0.286687 1
1 0.286687 1
1 0.286687 1
1 0.286687 1
0.258366 0.607431 1
0.258366 0.607431 1
0.258366 0.607431 1
0.248219 0.559747 1
0.980926 0.338293 1
1 0.286687 1
1 0.286687 1
1 0.286687 1
1 0.286687 1
0.258305 0.606928 1
0.258305 0.606928 1
0.258305 0.606912 1
0.250446 0.568292 1
0.970687 0.340658 1
1 0.286687 1
1 0.286687 1
1 0.286687 1
1 0.286687 1
0.300313 0.943557 1
0.300313 0.943542 1
0.300328 0.943572 1
0.300313 0.943557 1
0.280934 0.899428 1
0.902403 0.850401 1
1 0.723949 1
1 0.321645 1
1 0.286687 1
0.272084 0.970916 1
0.272084 0.970916 1
0.272084 0.970916 1
0.272084 0.970916 1
0.272312 0.970703 1
0.645945 0.986068 0.983734
0.993698 0.994324 0.997559
1 0.983688 0.999496
1 0.968322 0.999908
0.275547 0.96936 1
0.275547 0.96936 1
0.275547 0.96936 1
0.275532 0.96936 1
0.275532 0.96936 1
0.508644 0.982376 0.995285
0.962509 0.999817 0.989853
1 1 0.993179
1 1 0.992584
0.273686 0.969192 1
0.273701 0.969192 1
0.273686 0.969192 1
0.273671 0.969192 1
0.27364 0.969192 1
0.366384 0.974395 1
0.926696 0.997665 0.978134
0.999878 0.999985 0.989883
1 1 0.988937
0.258671 0.609766 1
0.258671 0.609766 1
0.258671 0.609766 1
0.257328 0.598932 1
0.950378 0.343496 1
1 0.286687 1
1 0.286687 1
1 0.286687 1
1 0.286687 1
0.258671 0.609766 1
0.258671 0.609766 1
0.258671 0.609766 1
0.25742 0.599313 1
0.950134 0.343557 1
1 0.286687 1
1 0.286687 1
1 0.286687 1
1 0.286687 1
0.258671 0.609766 1
0.258671 0.609766 1
0.258671 0.609766 1
0.257572 0.600641 1
0.94934 0.343694 1
1 0.286687 1
1 0.286687 1
1 0.286687 1
1 0.286687 1
0.258671 0.609766 1
0.258671 0.609766 1
0.258671 0.609766 1
0.258152 0.605356 1
0.945983 0.344381 1
1 0.286687 1
1 0.286687 1
1 0.286687 1
1 0.286687 1
0.258671 0.609766 1
0.258671 0.609766 1
0.258671 0.609766 1
0.258671 0.609766 1
0.933715 0.346883 1
1 0.286687 1
1 0.286687 1
1 0.286687 1
1 0.286687 1
0.283177 0.911101 1
0.283192 0.911116 1
0.283192 0.911101 1
0.283162 0.91104 1
0.261357 0.855802 1
0.952605 0.78613 1
1 0.519417 1
1 0.286687 1
1 0.286687 1
0.27245 0.970977 1
0.27245 0.970977 1
0.27245 0.970977 1
0.27245 0.970977 1
0.273579 0.970535 1
0.652384 0.985153 0.987625
0.994003 0.991379 0.998245
1 0.97612 0.999954
1 0.953979 1
0.276951 0.969482 1
0.276951 0.969482 1
0.276951 0.969482 1
0.276951 0.969482 1
0.276951 0.969482 1
0.491157 0.981537 0.997818
0.946319 0.999405 0.985092
1 1 0.995422
1 1 0.995422
0.277485 0.969116 1
0.277485 0.969116 1
0.277485 0.969116 1
0.277485 0.969116 1
0.277485 0.969116 1
0.339773 0.972854 1
0.909407 0.996933 0.975494
0.999817 1 0.995026
1 1 0.994629
