Log3G10_RWG_to_Velvia.cube
TITLE "Generated by Resolve"
LUT_3D_SIZE 33
0 0 0
0 0 0
0 0 0
0.000137331 0.000137331 0.000137331
0.0102846 0.000244144 4.57771e-05
0.0346227 0.000885023 0
0.0759289 0.00077821 0.000503548
0.140063 0.000244144 0.00134279
0.218067 0.000183108 0.000396735
0.316075 0.000122072 0.000167849
0.421347 0 9.15541e-05
0.525154 0 0
0.659541 1.5259e-05 0.00230411
0.807858 4.57771e-05 0.0259403
0.954147 0 0.082948
0.997787 0.000213626 0.18587
1 0 0.340993
0.999573 0.000518807 0.450614
1 4.57771e-05 0.432975
0.999954 0.00456245 0.420554
0.999954 0.00456245 0.420554
0.999954 0.00456245 0.420554
0.999954 0.00456245 0.420554
0.999954 0.00456245 0.420554
0.999954 0.00456245 0.420554
0.999954 0.00456245 0.420554
0.999954 0.00456245 0.420554
0.999954 0.00456245 0.420554
0.999954 0.00456245 0.420554
0.999954 0.00456245 0.420554
0.999954 0.00456245 0.420554
0.999954 0.00456245 0.420554
0.999954 0.00456245 0.420554
0 0 0
0 0 0
0 0 0
3.0518e-05 3.0518e-05 3.0518e-05
0.00848402 0.000808728 0
0.0317998 0.000335698 0.000259403
0.0731823 0.00106813 0.000320439
0.133959 0.000579843 0.000854505
0.213855 0.000228885 0.00106813
0.314351 7.62951e-05 0.000244144
0.420966 0 9.15541e-05
0.524971 0 0
0.659281 1.5259e-05 0.00228885
0.807538 4.57771e-05 0.025864
0.954147 0 0.082948
0.997757 0.000213626 0.185641
1 0 0.340673
0.999573 0.000518807 0.450645
1 4.57771e-05 0.432975
0.999954 0.00456245 0.420554
0.999954 0.00456245 0.420554
0.999954 0.00456245 0.420554
0.999954 0.00456245 0.420554
0.999954 0.00456245 0.420554
0.999954 0.00456245 0.420554
0.999954 0.00456245 0.420554
0.999954 0.00456245 0.420554
0.999954 0.00456245 0.420554
0.999954 0.00456245 0.420554
0.999954 0.00456245 0.420554
0.999954 0.00456245 0.420554
0.999954 0.00456245 0.420554
0.999954 0.00456245 0.420554
0 0 0
0 0 0
0 0 0
0 0 0
0.00570687 0.000228885 0.000198367
0.0271763 0.00114443 0
0.0655222 0.000900282 0
0.121889 0.000534066 0.00105287
0.204395 0 1.5259e-05
0.30901 9.15541e-05 0.000137331
0.423896 1.5259e-05 0.000244144
0.543191 4.57771e-05 1.5259e-05
0.658793 1.5259e-05 0.00222782
0.807233 4.57771e-05 0.0257877
0.95404 0 0.082826
0.997757 0.000213626 0.185641
1 0 0.340673
0.999573 0.000518807 0.450645
1 4.57771e-05 0.433021
0.999954 0.00456245 0.420554
0.999954 0.00456245 0.420554
0.999954 0.00456245 0.420554
0.999954 0.00456245 0.420554
0.999954 0.00456245 0.420554
0.999954 0.00456245 0.420554
0.999954 0.00456245 0.420554
0.999954 0.00456245 0.420554
0.999954 0.00456245 0.420554
0.999954 0.00456245 0.420554
0.999954 0.00456245 0.420554
0.999954 0.00456245 0.420554
0.999954 0.00456245 0.420554
0.999954 0.00456245 0.420554
0.000762951 0.000762951 0.000762951
0.000732433 0.000732433 0.000732433
0.000686656 0.000686656 0.000686656
0.000640879 0.000640879 0.000640879
0.00323491 0.0012665 0.000274662
0.0209049 0.00158694 0.000335698
0.0628214 0.00161746 0.000137331
0.124071 0.000991836 0
0.213169 4.57771e-05 0.000122072
0.33022 4.57771e-05 0.000137331
0.457374 0 0.000167849
0.585275 9.15541e-05 0.000259403
0.712367 3.0518e-05 0.00914015
0.839445 0.000274662 0.034226
0.953918 0 0.0827039
0.997726 0.000213626 0.185428
1 0 0.340352
0.999573 0.000518807 0.450645
1 4.57771e-05 0.433021
0.999954 0.00456245 0.420554
0.999954 0.00456245 0.420554
0.999954 0.00456245 0.420554
0.999954 0.00456245 0.420554
0.999954 0.00456245 0.420554
0.999954 0.00456245 0.420554
0.999954 0.00456245 0.420554
0.999954 0.00456245 0.420554
0.999954 0.00456245 0.420554
0.999954 0.00456245 0.420554
0.999954 0.00456245 0.420554
0.999954 0.00456245 0.420554
0.999954 0.00456245 0.420554
0.999954 0.00456245 0.420554
4.57771e-05 0.00616464 0.000640879
4.57771e-05 0.00611887 0.000656138
6.10361e-05 0.00607309 0.000671397
6.10361e-05 0.0059968 0.000701915
0.000671397 0.00564584 0.00047303
0.0155642 0.00505074 0.000198367
0.0568399 0.00570687 1.5259e-05
0.125872 0.00535592 0
0.227878 0.00161746 0.00015259
0.356207 3.0518e-05 0.000167849
0.492897 0.000122072 0.000137331
0.635599 0 0
0.779431 0 0.0168612
0.92813 6.10361e-05 0.0661784
0.985122 3.0518e-05 0.130632
0.998337 0.000122072 0.194354
1 0 0.340352
0.999573 0.000518807 0.450675
1 4.57771e-05 0.433021
0.999954 0.00456245 0.420554
0.999954 0.00456245 0.420554
0.999954 0.00456245 0.420554
0.999954 0.00456245 0.420554
0.999954 0.00456245 0.420554
0.999954 0.00456245 0.420554
0.999954 0.00456245 0.420554
0.999954 0.00456245 0.420554
0.999954 0.00456245 0.420554
0.999954 0.00456245 0.420554
0.999954 0.00456245 0.420554
0.999954 0.00456245 0.420554
0.999954 0.00456245 0.420554
0.999954 0.00456245 0.420554
0.000183108 0.0217594 0.000457771
0.000183108 0.021622 0.000442512
9.15541e-05 0.0221714 0.000595102
6.10361e-05 0.0221408 0.00062562
0.000411994 0.0231174 0.000610361
0.00834669 0.0238804 0.00047303
0.045716 0.0247044 4.57771e-05
0.121431 0.0238804 0
0.233051 0.0200046 0
0.374899 0.0134279 0.00015259
0.52253 0.00230411 0.00015259
0.675532 0.000183108 0
0.847105 0.000228885 0.00636301
0.979828 0.000198367 0.0863355
0.999893 4.57771e-05 0.219547
0.999954 0 0.352697
0.999832 0.00015259 0.413626
0.999573 0.000518807 0.450706
1 4.57771e-05 0.433066
0.999954 0.00456245 0.420554
0.999954 0.00456245 0.420554
0.999954 0.00456245 0.420554
0.999954 0.00456245 0.420554
0.999954 0.00456245 0.420554
0.999954 0.00456245 0.420554
0.999954 0.00456245 0.420554
0.999954 0.00456245 0.420554
0.999954 0.00456245 0.420554
0.999954 0.00456245 0.420554
0.999954 0.00456245 0.420554
0.999954 0.00456245 0.420554
0.999954 0.00456245 0.420554
0.999954 0.00456245 0.420554
1.5259e-05 0.0597848 0.000549325
3.0518e-05 0.0595712 0.000534066
6.10361e-05 0.0597848 0.000564584
0.00015259 0.0620584 0.000747692
0.00015259 0.0616312 0.000747692
0.00303655 0.0644083 0.000274662
0.0307317 0.0641794 3.0518e-05
0.1066 0.0675975 0.000274662
0.226627 0.0635538 0.000106813
0.382773 0.0558022 0.000320439
0.53724 0.0457465 1.5259e-05
0.684291 0.0326848 0
0.831968 0.0179904 0
0.984344 0.0108644 0.0187381
0.999527 0.0364385 0.135561
0.999802 0.0177768 0.333043
0.999954 0 0.446555
0.999863 0.000183108 0.433783
1 3.0518e-05 0.433112
0.999954 0.00456245 0.420554
0.999954 0.00456245 0.420554
0.999954 0.00456245 0.420554
0.999954 0.00456245 0.420554
0.999954 0.00456245 0.420554
0.999954 0.00456245 0.420554
0.999954 0.00456245 0.420554
0.999954 0.00456245 0.420554
0.999954 0.00456245 0.420554
0.999954 0.00456245 0.420554
0.999954 0.00456245 0.420554
0.999954 0.00456245 0.420554
0.999954 0.00456245 0.420554
0.999954 0.00456245 0.420554
3.0518e-05 0.133257 3.0518e-05
3.0518e-05 0.132937 3.0518e-05
0.000122072 0.133669 3.0518e-05
7.62951e-05 0.139559 0.000213626
7.62951e-05 0.138827 0.000213626
9.15541e-05 0.140307 0.000244144
0.00624094 0.14139 0.000228885
0.0693675 0.143557 0
0.199832 0.14049 0
0.362921 0.128511 0.000106813
0.517189 0.118715 0
0.660517 0.111498 0.000350958
0.797696 0.107652 0.000335698
0.951553 0.101656 9.15541e-05
0.999939 0.100908 0.0306859
0.999069 0.102754 0.185214
0.999878 0.0676585 0.344533
0.999924 0.0236667 0.394415
0.999954 0.00456245 0.420554
0.999954 0.00456245 0.420554
0.999954 0.00456245 0.420554
0.999954 0.00456245 0.420554
0.999954 0.00456245 0.420554
0.999954 0.00456245 0.420554
0.999954 0.00456245 0.420554
0.999954 0.00456245 0.420554
0.999954 0.00456245 0.420554
0.999954 0.00456245 0.420554
0.999954 0.00456245 0.420554
0.999954 0.00456245 0.420554
0.999954 0.00456245 0.420554
0.999954 0.00456245 0.420554
0.999954 0.00456245 0.420554
0 0.261967 0
0 0.261707 0
0 0.261585 0
0 0.268177 0.00015259
0.000259403 0.275517 3.0518e-05
0.000244144 0.276204 0.00015259
0 0.26833 7.62951e-05
0.0142061 0.26334 0.000259403
0.136416 0.254276 0.000137331
0.311208 0.246387 0.000167849
0.479286 0.233478 6.10361e-05
0.62385 0.228611 4.57771e-05
0.760632 0.222614 0
0.909865 0.218311 0
0.999252 0.212192 0.000335698
0.999664 0.206699 0.0605478
0.999298 0.188846 0.216526
0.999649 0.122179 0.283452
1 0.0747082 0.33608
0.999908 0.00737011 0.416297
0.999954 0.00456245 0.420554
0.999954 0.00456245 0.420554
0.999954 0.00456245 0.420554
0.999954 0.00456245 0.420554
0.999954 0.00456245 0.420554
0.999954 0.00456245 0.420554
0.999954 0.00456245 0.420554
0.999954 0.00456245 0.420554
0.999954 0.00456245 0.420554
0.999954 0.00456245 0.420554
0.999954 0.00456245 0.420554
0.999954 0.00456245 0.420554
0.999954 0.00456245 0.420554
0 0.439399 3.0518e-05
0 0.439094 3.0518e-05
0 0.438788 3.0518e-05
1.5259e-05 0.443381 0.000411994
0.000549325 0.45832 0.000701915
0 0.446754 1.5259e-05
0 0.42797 3.0518e-05
0.000137331 0.41297 0.000381476
0.0434882 0.404944 0
0.230701 0.387091 0.000671397
0.422278 0.370001 0.000137331
0.579889 0.358953 9.15541e-05
0.718441 0.350591 0
0.863554 0.341924 0
0.997681 0.336004 0
0.999664 0.32755 0.000534066
0.999695 0.323003 0.114183
0.999451 0.262913 0.163638
0.999878 0.198291 0.213001
0.999832 0.120439 0.283268
0.999741 0.0373388 0.378775
0.999954 0.00456245 0.420554
0.999954 0.00456245 0.420554
0.999954 0.00456245 0.420554
0.999954 0.00456245 0.420554
0.999954 0.00456245 0.420554
0.999954 0.00456245 0.420554
0.999954 0.00456245 0.420554
0.999954 0.00456245 0.420554
0.999954 0.00456245 0.420554
0.999954 0.00456245 0.420554
0.999954 0.00456245 0.420554
0.999954 0.00456245 0.420554
0 0.612543 0.000518807
0 0.612543 0.000518807
0 0.612268 0.000518807
0 0.611994 0.000518807
0.000106813 0.622736 0.000274662
0.000183108 0.599298 0.000335698
0.000228885 0.575189 0.000579843
0.000213626 0.561288 0.000793469
0.00030518 0.54847 0.000839246
0.108797 0.528649 0.000656138
0.342123 0.505211 1.5259e-05
0.52488 0.487129 1.5259e-05
0.672251 0.47718 4.57771e-05
0.817151 0.464057 7.62951e-05
0.971054 0.453407 0
0.998993 0.442237 0
0.998978 0.434607 0.0158236
0.999588 0.394919 0.0849928
0.999603 0.338094 0.0971847
0.999069 0.276509 0.139071
0.999344 0.19324 0.216037
0.999954 0.08159 0.327871
0.999954 0.00456245 0.420554
0.999954 0.00456245 0.420554
0.999954 0.00456245 0.420554
0.999954 0.00456245 0.420554
0.999954 0.00456245 0.420554
0.999954 0.00456245 0.420554
0.999954 0.00456245 0.420554
0.999954 0.00456245 0.420554
0.999954 0.00456245 0.420554
0.999954 0.00456245 0.420554
0.999954 0.00456245 0.420554
0 0.770474 0.00077821
0 0.77023 0.00077821
0 0.77023 0.00077821
0 0.770001 0.000762951
0 0.769192 0.000610361
1.5259e-05 0.743206 0.0010071
4.57771e-05 0.714214 7.62951e-05
0.000274662 0.693416 0.000259403
0.000183108 0.678508 0.000427253
0.00482185 0.664958 0.000457771
0.203937 0.636988 3.0518e-05
0.440757 0.613901 0
0.615091 0.593729 0.000106813
0.764508 0.577066 4.57771e-05
0.926543 0.56286 0
0.999695 0.54725 0.000198367
0.999222 0.535225 4.57771e-05
0.999588 0.510033 0.0119478
0.999863 0.461891 0.0389105
0.999527 0.40679 0.0461128
0.999664 0.350408 0.0716259
0.999268 0.271351 0.144747
0.999908 0.138994 0.266087
0.999954 0.00456245 0.420554
0.999954 0.00456245 0.420554
0.999954 0.00456245 0.420554
0.999954 0.00456245 0.420554
0.999954 0.00456245 0.420554
0.999954 0.00456245 0.420554
0.999954 0.00456245 0.420554
0.999954 0.00456245 0.420554
0.999954 0.00456245 0.420554
0.999954 0.00456245 0.420554
0.000122072 0.887327 0.000106813
0.000122072 0.887144 0.000122072
0.000122072 0.887144 0.000122072
0.000122072 0.886961 0.000122072
0.000122072 0.886961 0.000122072
0 0.88188 0.00015259
0 0.850202 9.15541e-05
0 0.825254 4.57771e-05
0.00015259 0.806867 0.000213626
0 0.790951 1.5259e-05
0.0204013 0.772137 0.000137331
0.305547 0.730739 0.00015259
0.533242 0.694423 0
0.700557 0.669642 0.000137331
0.860792 0.649104 0
0.994186 0.634195 0.000122072
0.998764 0.630732 0
0.99913 0.615259 0.000595102
0.99939 0.570947 0
0.999054 0.522911 0.000503548
0.999069 0.473381 0.0122377
0.99968 0.423148 0.0367132
0.999741 0.347555 0.0739452
0.999786 0.225086 0.187854
0.999313 0.0312657 0.385992
0.999954 0.00456245 0.420554
0.999954 0.00456245 0.420554
0.999954 0.00456245 0.420554
0.999954 0.00456245 0.420554
0.999954 0.00456245 0.420554
0.999954 0.00456245 0.420554
0.999954 0.00456245 0.420554
0.999954 0.00456245 0.420554
0 0.997147 7.62951e-05
0 0.997131 7.62951e-05
0 0.997131 7.62951e-05
0 0.997131 7.62951e-05
0 0.997116 7.62951e-05
0 0.997116 6.10361e-05
0 0.983398 0.000335698
0 0.947677 0.000106813
0 0.922454 0.000259403
0 0.901915 0
0 0.889357 1.5259e-05
0.0559854 0.856703 0
0.394873 0.800183 0.000518807
0.61178 0.7626 0
0.78056 0.73695 1.5259e-05
0.95465 0.715816 3.0518e-05
0.999039 0.706905 0
0.999039 0.713985 0
0.999649 0.677806 0
0.999298 0.628214 0
0.999161 0.574914 0.000167849
0.999329 0.539361 0.000106813
0.999496 0.493599 0.00309758
0.999527 0.425101 0.0334783
0.9991 0.317128 0.100633
0.999634 0.109987 0.295796
0.999954 0.00456245 0.420554
0.999954 0.00456245 0.420554
0.999954 0.00456245 0.420554
0.999954 0.00456245 0.420554
0.999954 0.00456245 0.420554
0.999954 0.00456245 0.420554
0.999954 0.00456245 0.420554
0 1 0.000289921
0 1 0.000289921
0 1 0.000289921
0 1 0.000289921
0 1 0.000289921
0 1 0.000289921
0 1 0.000289921
0 1 0.000289921
0 1 0.000289921
0 1 0.000289921
0 0.992248 0.000656138
0 0.978073 0.00077821
0.104891 0.939956 1.5259e-05
0.467262 0.878614 3.0518e-05
0.683131 0.839445 0
0.868254 0.81178 0.00015259
0.997406 0.791775 1.5259e-05
0.999512 0.794827 6.10361e-05
0.999359 0.773922 0.000167849
0.999329 0.731044 0.000244144
0.999374 0.674144 0.000213626
0.999435 0.637247 0.000503548
0.999466 0.605371 0
0.999344 0.562737 0
0.999451 0.505043 0
0.999466 0.412818 0.0396277
0.999985 0.244968 0.170809
0.999954 0.00456245 0.420554
0.999954 0.00456245 0.420554
0.999954 0.00456245 0.420554
0.999954 0.00456245 0.420554
0.999954 0.00456245 0.420554
0.999954 0.00456245 0.420554
0 1 0.000289921
0 1 0.000289921
0 1 0.000289921
0 1 0.000289921
0 1 0.000289921
0 1 0.000289921
0 1 0.000289921
0 1 0.000289921
0 1 0.000289921
0 1 0.000289921
0 1 0.000289921
0 1 0.000289921
0 1 0.000289921
0.162646 0.995834 0.000122072
0.53489 0.954391 0
0.752224 0.918212 1.5259e-05
0.950591 0.888487 3.0518e-05
0.998535 0.874647 0
0.998535 0.860243 1.5259e-05
0.998825 0.821591 0
0.999084 0.775082 0
0.999237 0.72755 0.000213626
0.999527 0.70042 0.000122072
0.999222 0.669444 7.62951e-05
0.998962 0.631159 7.62951e-05
0.99942 0.580133 0
0.999969 0.50782 0.0027924
0.999985 0.390326 0.0507057
0.999817 0.142626 0.261601
0.999954 0.00456245 0.420554
0.999954 0.00456245 0.420554
0.999954 0.00456245 0.420554
0.999954 0.00456245 0.420554
0 1 0.000289921
0 1 0.000289921
0 1 0.000289921
0 1 0.000289921
0 1 0.000289921
0 1 0.000289921
0 1 0.000289921
0 1 0.000289921
0 1 0.000289921
0 1 0.000289921
0 1 0.000289921
0 1 0.000289921
0 1 0.000289921
0 1 0.000289921
0.212848 0.999786 0.000137331
0.590082 0.991821 4.57771e-05
0.812757 0.96527 0
0.982483 0.937697 0
0.999237 0.927153 9.15541e-05
0.999146 0.901457 4.57771e-05
0.999374 0.863996 1.5259e-05
0.999435 0.816205 0.000228885
0.99942 0.790036 6.10361e-05
0.999023 0.765408 3.0518e-05
0.999603 0.735058 0
0.99913 0.699077 0.000350958
0.998886 0.655055 0
0.999008 0.598245 0
0.999466 0.51928 0.000839246
0.999542 0.394705 0.0499886
0.999573 0.13843 0.266545
0.999954 0.00456245 0.420554
0.999954 0.00456245 0.420554
0 1 0.000289921
0 1 0.000289921
0 1 0.000289921
0 1 0.000289921
0 1 0.000289921
0 1 0.000289921
0 1 0.000289921
0 1 0.000289921
0 1 0.000289921
0 1 0.000289921
0 1 0.000289921
0 1 0.000289921
0 1 0.000289921
0 1 0.000289921
0 1 0.000289921
0.272496 0.999786 0.000274662
0.633463 0.999557 0.000457771
0.858518 0.987396 0.000228885
0.994659 0.967117 6.10361e-05
0.998932 0.958068 0
0.999542 0.934951 6.10361e-05
0.998901 0.89987 0.000213626
0.999207 0.86598 1.5259e-05
0.99884 0.846082 0
0.999451 0.824369 3.0518e-05
0.999008 0.8009 0.000335698
0.999298 0.769131 0
0.999207 0.73228 0.000122072
0.999451 0.686351 0
0.999054 0.634028 1.5259e-05
0.999512 0.565728 0.00015259
0.999084 0.481224 0.0109712
0.998581 0.356634 0.0681163
0 1 0.000289921
0 1 0.000289921
0 1 0.000289921
0 1 0.000289921
0 1 0.000289921
0 1 0.000289921
0 1 0.000289921
0 1 0.000289921
0 1 0.000289921
0 1 0.000289921
0 1 0.000289921
0 1 0.000289921
0 1 0.000289921
0 1 0.000289921
0 1 0.000289921
0.00169375 0.999985 0.000289921
0.357656 0.999771 0.000213626
0.668269 0.999863 0.000579843
0.897032 0.993408 0.000198367
0.999084 0.983871 0.00590524
0.999527 0.979156 0.00637827
0.999283 0.962692 0.00129702
0.999039 0.933089 4.57771e-05
0.999573 0.914992 0.000183108
0.999649 0.899901 0.000137331
0.998886 0.881071 0.00015259
0.998718 0.859876 0
0.999741 0.835355 0.000228885
0.999878 0.807538 0
0.998688 0.776089 4.57771e-05
0.998993 0.738308 0
0.999802 0.699565 0.000183108
0.999405 0.6636 0.000106813
0 1 0.000289921
0 1 0.000289921
0 1 0.000289921
0 1 0.000289921
0 1 0.000289921
0 1 0.000289921
0 1 0.000289921
0 1 0.000289921
0 1 0.000289921
0 1 0.000289921
0 1 0.000289921
0 1 0.000289921
0 1 0.000289921
0 1 0.000289921
0 1 0.000289921
0 1 0.000289921
0.039765 0.999771 0.000213626
0.464881 0.999756 0.000717174
0.716136 0.999298 0.000167849
0.92874 0.99472 0
0.999023 0.989334 0.00859083
0.998596 0.993515 0.0135805
0.998947 0.983566 0.00869764
0.998901 0.967605 0.00177005
0.999634 0.956756 0.000366217
0.999359 0.944335 0.000122072
0.999588 0.931914 0
0.999435 0.915602 7.62951e-05
0.99939 0.897658 0.000457771
0.998764 0.877165 3.0518e-05
0.998886 0.855253 1.5259e-05
0.998245 0.834638 0
0.998459 0.817334 1.5259e-05
0 1 0.000289921
0 1 0.000289921
0 1 0.000289921
0 1 0.000289921
0 1 0.000289921
0 1 0.000289921
0 1 0.000289921
0 1 0.000289921
0 1 0.000289921
0 1 0.000289921
0 1 0.000289921
0 1 0.000289921
0 1 0.000289921
0 1 0.000289921
0 1 0.000289921
0 1 0.000289921
0 1 0.000289921
0.156069 0.999634 0.000350958
0.53846 0.999161 0.00030518
0.765728 0.999496 0.000366217
0.960189 0.999908 9.15541e-05
0.999161 0.993805 0.00939956
0.999664 0.999756 0.0164645
0.998749 0.998123 0.0178683
0.999603 0.994186 0.0146181
0.999557 0.988052 0.0114748
0.999756 0.979553 0.00590524
0.998901 0.971115 0.000946059
0.998932 0.962158 9.15541e-05
0.999191 0.949111 6.10361e-05
0.998947 0.937163 0.000198367
0.999863 0.926329 0.00047303
0.99968 0.917082 0.000457771
0 1 0.000289921
0 1 0.000289921
0 1 0.000289921
0 1 0.000289921
0 1 0.000289921
0 1 0.000289921
0 1 0.000289921
0 1 0.000289921
0 1 0.000289921
0 1 0.000289921
0 1 0.000289921
0 1 0.000289921
0 1 0.000289921
0 1 0.000289921
0 1 0.000289921
0 1 0.000289921
0 1 0.000289921
0 1 0.000289921
0.329 0.999619 0.000289921
0.603922 0.999451 0
0.813107 0.999954 0.000457771
0.986481 0.999924 0.0121462
0.999817 0.999802 0.0153048
0.999954 0.999802 0.0160067
0.998596 0.999908 0.0189975
0.998596 0.999908 0.0189975
0.998596 0.999741 0.019913
0.998962 0.999664 0.0193027
0.999207 0.997482 0.0175479
0.999603 0.994354 0.0156558
0.999191 0.988159 0.0114137
0.99968 0.983108 0.00822461
0.999725 0.979278 0.00570687
0 1 0.000289921
0 1 0.000289921
0 1 0.000289921
0 1 0.000289921
0 1 0.000289921
0 1 0.000289921
0 1 0.000289921
0 1 0.000289921
0 1 0.000289921
0 1 0.000289921
0 1 0.000289921
0 1 0.000289921
0 1 0.000289921
0 1 0.000289921
0 1 0.000289921
0 1 0.000289921
0 1 0.000289921
0 1 0.000289921
0.091783 0.999527 0.000259403
0.485496 0.999649 0
0.701244 0.999802 0.000549325
0.892821 0.999863 0
0.998016 0.999298 0.0220493
0.998734 0.999573 0.0203708
0.999969 0.999893 0.0155489
0.999969 0.999863 0.0156863
0.999969 0.999832 0.0158694
0.999771 0.999603 0.0175021
0.999344 0.99971 0.0180514
0.99913 0.999771 0.0183261
0.998901 0.999741 0.0190738
0.998672 0.999573 0.0205386
0.998596 0.999619 0.0205539
0 1 0.000289921
0 1 0.000289921
0 1 0.000289921
0 1 0.000289921
0 1 0.000289921
0 1 0.000289921
0 1 0.000289921
0 1 0.000289921
0 1 0.000289921
0 1 0.000289921
0 1 0.000289921
0 1 0.000289921
0 1 0.000289921
0 1 0.000289921
0 1 0.000289921
0 1 0.000289921
0 1 0.000289921
0 1 0.000289921
0 1 0.000289921
0.324071 0.999557 0.000335698
0.604898 0.999649 0.000411994
0.807187 0.999832 0
0.970977 0.999802 0.0126802
0.998718 0.999344 0.0225834
0.999908 0.999573 0.017319
0.999969 0.999893 0.0155337
0.999969 0.999893 0.0155337
0.999969 0.999893 0.0155337
0.999969 0.999893 0.0155337
0.999969 0.999893 0.0155337
0.999969 0.999832 0.0158236
0.999969 0.99968 0.0166476
0.999969 0.999634 0.0168307
0 1 0.000289921
0 1 0.000289921
0 1 0.000289921
0 1 0.000289921
0 1 0.000289921
0 1 0.000289921
0 1 0.000289921
0 1 0.000289921
0 1 0.000289921
0 1 0.000289921
0 1 0.000289921
0 1 0.000289921
0 1 0.000289921
0 1 0.000289921
0 1 0.000289921
0 1 0.000289921
0 1 0.000289921
0 1 0.000289921
0 1 0.000289921
0.0623941 0.999985 0.00030518
0.487373 0.999649 3.0518e-05
0.714153 0.999725 0.000366217
0.90695 0.999741 0.00213626
0.998566 0.999725 0.023743
0.998596 0.999863 0.0192416
0.999969 0.999832 0.0157931
0.999969 0.999893 0.0155337
0.999969 0.999893 0.0155337
0.999969 0.999893 0.0155337
0.999969 0.999893 0.0155337
0.999969 0.999893 0.0155337
0.999969 0.999893 0.0155337
0.999969 0.999893 0.0155337
0 1 0.000289921
0 1 0.000289921
0 1 0.000289921
0 1 0.000289921
0 1 0.000289921
0 1 0.000289921
0 1 0.000289921
0 1 0.000289921
0 1 0.000289921
0 1 0.000289921
0 1 0.000289921
0 1 0.000289921
0 1 0.000289921
0 1 0.000289921
0 1 0.000289921
0 1 0.000289921
0 1 0.000289921
0 1 0.000289921
0 1 0.000289921
0 1 0.000289921
0.312352 0.999786 0.000396735
0.615869 0.999649 0.000289921
0.82446 0.999771 0.000167849
0.979034 0.999756 0.015259
0.998856 0.99968 0.0215305
0.999634 0.999878 0.0164797
0.999969 0.999893 0.0155337
0.999969 0.999893 0.0155337
0.999969 0.999893 0.0155337
0.999969 0.999893 0.0155337
0.999969 0.999893 0.0155337
0.999969 0.999893 0.0155337
0.999969 0.999893 0.0155337
0 1 0.000289921
0 1 0.000289921
0 1 0.000289921
0 1 0.000289921
0 1 0.000289921
0 1 0.000289921
0 1 0.000289921
0 1 0.000289921
0 1 0.000289921
0 1 0.000289921
0 1 0.000289921
0 1 0.000289921
0 1 0.000289921
0 1 0.000289921
0 1 0.000289921
0 1 0.000289921
0 1 0.000289921
0 1 0.000289921
0 1 0.000289921
0 1 0.000289921
0.049073 0.999786 0.000427253
0.495003 0.999924 0.000411994
0.731121 0.999451 0.000167849
0.926543 0.99968 0.00315862
0.999069 0.999725 0.0223545
0.998886 0.99968 0.0194247
0.999969 0.999893 0.0155337
0.999969 0.999893 0.0155337
0.999969 0.999893 0.0155337
0.999969 0.999893 0.0155337
0.999969 0.999893 0.0155337
0.999969 0.999893 0.0155337
0.999969 0.999893 0.0155337
0 1 0.000289921
0 1 0.000289921
0 1 0.000289921
0 1 0.000289921
0 1 0.000289921
0 1 0.000289921
0 1 0.000289921
0 1 0.000289921
0 1 0.000289921
