Log3G10_RWG_to_PROVIA.cube
TITLE "Generated by Resolve"
LUT_3D_SIZE 9
0 0 0
0.0482948 0.00192264 0.00357061
0.255848 0.00283818 0.0215457
0.617945 3.0518e-05 0.0671855
0.993454 0.000167849 0.315267
1 0 0.37641
1 0 0.37641
1 0 0.37641
1 0 0.37641
0.000122072 0.0379644 0
0.0187381 0.0365301 0.000198367
0.264302 0.0315862 0.00979629
0.721645 3.0518e-05 0.0889754
0.993439 0.000167849 0.314839
1 0 0.37641
1 0 0.37641
1 0 0.37641
1 0 0.37641
0.000183108 0.265461 0.000381476
0 0.275807 0.000122072
0.186038 0.259846 6.10361e-05
0.719509 0.228199 1.5259e-05
0.999481 0.151537 0.258183
1 0 0.37641
1 0 0.37641
1 0 0.37641
1 0 0.37641
0 0.841337 0.000534066
0 0.84094 0.000534066
7.62951e-05 0.752102 0.00047303
0.529458 0.67837 0.000335698
0.999619 0.609201 0.000167849
0.999359 0.423117 0.128222
0.99968 0.0179904 0.355108
1 0 0.37641
1 0 0.37641
0 1 0.000289921
0 1 0.000289921
0 1 0.000289921
0 1 0.000289921
0.822019 0.949264 0
0.999237 0.856489 0.00251774
0.999298 0.723064 0.0472572
0.999725 0.474968 0.113848
1 0 0.37641
0 1 0.000289921
0 1 0.000289921
0 1 0.000289921
0 1 0.000289921
0 1 0.000289921
0.924193 0.999207 0.0263828
0.9991 0.98117 0.0268864
0.999283 0.944533 0.000167849
0.999115 0.901823 0.00343328
0 1 0.000289921
0 1 0.000289921
0 1 0.000289921
0 1 0.000289921
0 1 0.000289921
0.549783 0.999741 7.62951e-05
0.983352 0.999573 0.0607614
0.982559 0.999557 0.0543679
0.982559 0.999557 0.0543679
0 1 0.000289921
0 1 0.000289921
0 1 0.000289921
0 1 0.000289921
0 1 0.000289921
0 1 0.000289921
0.924147 0.999847 0.0419165
0.982559 0.999557 0.0543679
0.982559 0.999557 0.0543679
0 1 0.000289921
0 1 0.000289921
0 1 0.000289921
0 1 0.000289921
0 1 0.000289921
0 1 0.000289921
0.793439 0.999786 0.00175479
0.982559 0.999557 0.0543679
0.982559 0.999557 0.0543679
0 0.00218204 0.0266728
0.0475929 0.00277714 0.0185855
0.26865 0.00288396 0.0225681
0.626047 1.5259e-05 0.068864
0.993439 0.000167849 0.314839
1 0 0.37641
1 0 0.37641
1 0 0.37641
1 0 0.37641
0.000213626 0.028397 0.0320897
0.0227359 0.0229953 0.0230564
0.27599 0.0150607 0.0175784
0.690471 0.000167849 0.0810254
0.993408 0.000167849 0.314412
1 0 0.37641
1 0 0.37641
1 0 0.37641
1 0 0.37641
0.000427253 0.25243 0.00062562
0 0.260029 0.000259403
0.187396 0.247761 0.000122072
0.720851 0.215854 4.57771e-05
0.999954 0.134874 0.268818
1 0 0.37641
1 0 0.37641
1 0 0.37641
1 0 0.37641
0 0.836927 0.00047303
0 0.83653 0.00047303
9.15541e-05 0.74818 0.000350958
0.530098 0.674205 0.000320439
0.999664 0.605127 0.000183108
0.99939 0.418418 0.12958
0.999649 0.0100252 0.361242
1 0 0.37641
1 0 0.37641
0 1 0.000289921
0 1 0.000289921
0 1 0.000289921
0 1 0.000289921
0.822599 0.948775 0
0.999268 0.855772 0.00254826
0.999298 0.722057 0.0475624
0.99971 0.472358 0.114427
1 0 0.37641
0 1 0.000289921
0 1 0.000289921
0 1 0.000289921
0 1 0.000289921
0 1 0.000289921
0.924285 0.999207 0.0263676
0.9991 0.981094 0.0268254
0.999283 0.944396 0.000167849
0.9991 0.901503 0.00349432
0 1 0.000289921
0 1 0.000289921
0 1 0.000289921
0 1 0.000289921
0 1 0.000289921
0.549432 0.999756 7.62951e-05
0.983352 0.999573 0.0607614
0.982559 0.999557 0.0543679
0.982559 0.999557 0.0543679
0 1 0.000289921
0 1 0.000289921
0 1 0.000289921
0 1 0.000289921
0 1 0.000289921
0 1 0.000289921
0.924147 0.999847 0.0419165
0.982559 0.999557 0.0543679
0.982559 0.999557 0.0543679
0 1 0.000289921
0 1 0.000289921
0 1 0.000289921
0 1 0.000289921
0 1 0.000289921
0 1 0.000289921
0.793439 0.999786 0.00175479
0.982559 0.999557 0.0543679
0.982559 0.999557 0.0543679
0.00350958 0.0104219 0.152667
0.0233616 0.0108339 0.136889
0.304128 0.00750744 0.151827
0.770764 0.00030518 0.221378
0.999969 4.57771e-05 0.383963
1 0 0.37641
1 0 0.37641
1 0 0.37641
1 0 0.37641
0.00276188 0.0107118 0.146517
0.0124666 0.0106355 0.12961
0.297169 0.00738537 0.143969
0.764218 0.000259403 0.209201
0.999725 0.000213626 0.382391
1 0 0.37641
1 0 0.37641
1 0 0.37641
1 0 0.37641
0.000534066 0.294118 0.340764
0.000289921 0.289067 0.324331
0.218875 0.219623 0.219074
0.775555 0.16141 0.176196
0.999451 0.0693523 0.313878
1 0 0.37641
1 0 0.37641
1 0 0.37641
1 0 0.37641
0.000198367 0.817594 0.000381476
0 0.816907 0.000198367
0 0.733654 9.15541e-05
0.532677 0.658808 0.000244144
0.999756 0.589731 0.00283818
0.999466 0.401038 0.13463
1 0 0.37641
1 0 0.37641
1 0 0.37641
0 1 0.000289921
0 1 0.000289921
0 1 0.000289921
0 1 0.000289921
0.824537 0.947051 0
0.999298 0.85275 0.00300603
0.999298 0.717891 0.0487984
0.999664 0.462593 0.116655
1 0 0.37641
0 1 0.000289921
0 1 0.000289921
0 1 0.000289921
0 1 0.000289921
0 1 0.000289921
0.924758 0.999222 0.0263676
0.9991 0.980621 0.0263981
0.999298 0.943816 0.000198367
0.999084 0.900542 0.00367742
0 1 0.000289921
0 1 0.000289921
0 1 0.000289921
0 1 0.000289921
0 1 0.000289921
0.548684 0.999756 7.62951e-05
0.983352 0.999573 0.0607614
0.982559 0.999557 0.0543679
0.982559 0.999557 0.0543679
0 1 0.000289921
0 1 0.000289921
0 1 0.000289921
0 1 0.000289921
0 1 0.000289921
0 1 0.000289921
0.923964 0.999847 0.0418402
0.982559 0.999557 0.0543679
0.982559 0.999557 0.0543679
0 1 0.000289921
0 1 0.000289921
0 1 0.000289921
0 1 0.000289921
0 1 0.000289921
0 1 0.000289921
0.79321 0.999786 0.00170901
0.982559 0.999557 0.0543679
0.982559 0.999557 0.0543679
0.0112459 0.0276341 0.399176
0.0112154 0.0275731 0.39852
0.304631 0.0238041 0.401831
0.867353 0.00276188 0.568215
0.999985 0.0458381 0.649134
0.999817 0.0181582 0.438346
1 0 0.37641
1 0 0.37641
1 0 0.37641
0.0110781 0.0273747 0.395895
0.0110475 0.0273289 0.395239
0.297337 0.0233158 0.396735
0.864591 0.00230411 0.563012
1 0.0443122 0.646326
0.999802 0.0158694 0.430961
1 0 0.37641
1 0 0.37641
1 0 0.37641
0.000274662 0.0838026 0.534371
0.000335698 0.0807202 0.526986
0.290166 0.0565194 0.60647
0.930983 0.00984207 0.688945
1 0.0385748 0.635645
0.999741 0.0061799 0.40383
1 0 0.37641
1 0 0.37641
1 0 0.37641
0.000198367 0.797299 0.897154
0.000183108 0.796719 0.895918
0.000411994 0.706676 0.753613
0.57731 0.577615 0.577371
0.999588 0.483848 0.51664
0.999817 0.292287 0.168261
1 0 0.37641
1 0 0.37641
1 0 0.37641
0.000244144 0.999603 0.0399176
0.000213626 0.99971 0.0298161
6.10361e-05 1 0.00103761
0 1 0.000289921
0.832319 0.940566 0
0.999298 0.841138 0.00555428
0.999298 0.702586 0.0532998
0.999313 0.425147 0.124987
1 0 0.37641
0 1 0.000289921
0 1 0.000289921
0 1 0.000289921
0 1 0.000289921
9.15541e-05 1 0.000289921
0.926497 0.999268 0.0263981
0.999084 0.978958 0.0249332
0.999313 0.941863 0.000213626
0.999008 0.897017 0.00433356
0 1 0.000289921
0 1 0.000289921
0 1 0.000289921
0 1 0.000289921
0 1 0.000289921
0.546273 0.999786 7.62951e-05
0.983352 0.999573 0.0607004
0.982559 0.999557 0.0543679
0.982559 0.999557 0.0543679
0 1 0.000289921
0 1 0.000289921
0 1 0.000289921
0 1 0.000289921
0 1 0.000289921
0 1 0.000289921
0.923629 0.999847 0.0416876
0.982559 0.999557 0.0543679
0.982559 0.999557 0.0543679
0 1 0.000289921
0 1 0.000289921
0 1 0.000289921
0 1 0.000289921
0 1 0.000289921
0 1 0.000289921
0.792325 0.999786 0.00154116
0.982559 0.999557 0.0543679
0.982559 0.999557 0.0543679
0.0263676 0.0753338 0.762509
0.0263523 0.0753033 0.762325
0.0262913 0.0751049 0.761273
0.883574 0.0701762 0.953536
0.999741 0.172473 0.91075
0.999756 0.156558 0.818738
0.999878 0.100938 0.638163
1 0 0.37641
1 0 0.37641
0.0262913 0.0751049 0.761273
0.026276 0.0750744 0.76109
0.0262303 0.0749065 0.760204
0.881193 0.0698558 0.95172
0.999756 0.171969 0.910307
0.999756 0.156191 0.817761
0.999878 0.100526 0.636454
1 0 0.37641
1 0 0.37641
0.0260471 0.0743114 0.756832
0.0260319 0.0742657 0.756664
0.0259709 0.0740826 0.755596
0.872755 0.0686503 0.944747
0.999771 0.170077 0.908736
0.999741 0.154971 0.814374
0.999832 0.0991379 0.630045
1 0 0.37641
1 0 0.37641
0.000381476 0.582269 0.999603
0.000350958 0.58117 0.999603
0.000259403 0.57731 0.999634
0.706691 0.377691 0.999573
0.999741 0.249546 0.998779
0.999695 0.150408 0.801816
0.999695 0.0936904 0.604608
1 0 0.37641
1 0 0.37641
0.000671397 0.937575 1
0.000671397 0.937575 1
0.000671397 0.937621 1
0.000198367 0.920668 0.972869
0.833524 0.836194 0.834379
0.999588 0.724773 0.714122
0.999664 0.586831 0.337377
0.99939 0.227192 0.210498
1 0 0.37641
6.10361e-05 0.999969 0.512078
6.10361e-05 0.999969 0.51017
9.15541e-05 0.999954 0.503059
0.000244144 0.999908 0.476524
0 0.999954 0.0288701
0.932937 0.999405 0.0265507
0.999023 0.972946 0.0196078
0.999405 0.9346 0.000259403
0.998886 0.884291 0.00823987
0 1 0.000289921
0 1 0.000289921
0 1 0.000289921
0 1 0.000289921
0 1 0.000289921
0.537362 0.999863 4.57771e-05
0.983307 0.999634 0.0604868
0.982559 0.999557 0.0543679
0.982559 0.999557 0.0543679
0 1 0.000289921
0 1 0.000289921
0 1 0.000289921
0 1 0.000289921
0 1 0.000289921
0 1 0.000289921
0.922423 0.999817 0.0411536
0.982559 0.999557 0.0543679
0.982559 0.999557 0.0543679
0 1 0.000289921
0 1 0.000289921
0 1 0.000289921
0 1 0.000289921
0 1 0.000289921
0 1 0.000289921
0.789441 0.999771 0.000976577
0.982559 0.999557 0.0543679
0.982559 0.999557 0.0543679
0.0516213 0.19678 0.999115
0.0516213 0.19678 0.999115
0.051606 0.196612 0.999115
0.0457465 0.194598 0.999725
0.999771 0.294133 0.999374
0.999908 0.276249 0.998871
0.999924 0.242176 0.997314
0.999756 0.188388 0.895186
0.999039 0.108186 0.664942
0.051606 0.196612 0.999115
0.051606 0.196612 0.999115
0.0515908 0.196521 0.999115
0.045655 0.19147 0.999786
0.999786 0.293919 0.99939
0.999908 0.276143 0.998871
0.999924 0.242069 0.997299
0.999756 0.188235 0.89482
0.999039 0.107927 0.663935
0.0515297 0.196002 0.999115
0.0515297 0.196002 0.999115
0.0514992 0.195834 0.999115
0.0443275 0.180163 1
0.999802 0.293126 0.999435
0.999908 0.275731 0.998871
0.999924 0.241596 0.997177
0.999771 0.18761 0.893233
0.999039 0.106981 0.660197
0.0512551 0.193774 0.99913
0.0512551 0.193774 0.99913
0.0512398 0.193698 0.99913
0.0511788 0.193179 0.999146
0.999863 0.290211 0.999588
0.999893 0.274357 0.998901
0.999924 0.239963 0.99678
0.999802 0.185367 0.88751
0.999084 0.103319 0.64567
1.5259e-05 0.76939 0.999268
1.5259e-05 0.769146 0.999268
3.0518e-05 0.768429 0.999298
6.10361e-05 0.765972 0.999374
0.838453 0.627619 0.999527
1 0.491524 0.999222
0.999908 0.233799 0.99324
0.999939 0.176806 0.866453
0.999283 0.0864729 0.584695
0.00213626 0.990723 1
0.00213626 0.990723 1
0.00213626 0.990723 1
0.00213626 0.990723 1
0.000228885 0.969436 0.999802
0.92311 0.926421 0.923674
0.999817 0.862318 0.832471
0.999466 0.816846 0.671031
0.99855 0.830549 0.0238193
0.000137331 0.996536 0.955245
0.000137331 0.996551 0.955032
0.00015259 0.996612 0.954162
0.000167849 0.996857 0.950988
0.000122072 0.997955 0.937865
0.491905 0.999863 0.479271
0.982284 0.999741 0.0626535
0.982559 0.999557 0.0543679
0.982559 0.999557 0.0543679
0 1 0.000289921
0 1 0.000289921
0 1 0.000289921
0 1 0.000289921
0 1 0.000289921
0 1 0.000289921
0.918044 0.999756 0.0392767
0.982559 0.999557 0.0543679
0.982559 0.999557 0.0543679
0 1 0.000289921
0 1 0.000289921
0 1 0.000289921
0 1 0.000289921
0 1 0.000289921
0 1 0.000289921
0.778134 0.999771 4.57771e-05
0.982559 0.999557 0.0543679
0.982559 0.999557 0.0543679
0.0860456 0.349493 0.999725
0.0860456 0.349493 0.999725
0.0860761 0.349447 0.999725
0.0861067 0.349416 0.999725
0.708721 0.442573 0.999863
0.999939 0.37847 0.999435
0.99971 0.36173 0.999146
1 0.338125 0.999283
0.999969 0.315511 0.999451
0.0860761 0.349447 0.999725
0.0860761 0.349447 0.999725
0.0860761 0.349447 0.999725
0.0861372 0.349371 0.999725
0.705943 0.442252 0.999847
0.999939 0.378439 0.999435
0.99971 0.361715 0.999146
1 0.338125 0.999283
0.999969 0.315465 0.999451
0.0861372 0.349371 0.999725
0.0861372 0.349371 0.999725
0.0861677 0.349325 0.99971
0.0861982 0.349279 0.99971
0.695705 0.441169 0.999741
0.999939 0.378424 0.999451
0.99971 0.361654 0.99913
1 0.337972 0.999283
0.999969 0.315312 0.999466
0.0863966 0.349035 0.99971
0.0863966 0.349035 0.99971
0.0864271 0.348989 0.99971
0.0864729 0.348943 0.999695
0.655467 0.436316 0.999466
0.999939 0.378302 0.999466
0.999695 0.361425 0.9991
1 0.337484 0.999283
0.999954 0.314748 0.999496
0.0873274 0.347845 0.999649
0.0873579 0.347799 0.999649
0.0873579 0.347799 0.999649
0.0874189 0.347723 0.999649
0.417914 0.407202 1
0.999908 0.377829 0.999527
0.999619 0.360601 0.998962
1 0.335698 0.999283
0.999924 0.312825 0.999588
0.00030518 0.940475 1
0.00030518 0.940475 1
0.00030518 0.940368 1
0.00030518 0.939925 1
0.000274662 0.938506 1
0.946578 0.77258 0.999603
0.999725 0.676036 0.999146
0.999954 0.562814 0.999268
0.999817 0.305821 0.999939
0.00213626 0.990723 1
0.00213626 0.990723 1
0.00213626 0.990723 1
0.00213626 0.990723 1
0.00213626 0.990723 1
0.00350958 0.990021 1
0.982834 0.991119 0.987488
0.996948 0.971176 0.937011
0.998672 0.95877 0.889693
0.00213626 0.990723 1
0.00213626 0.990723 1
0.00213626 0.990723 1
0.00213626 0.990723 1
0.00213626 0.990723 1
0.00213626 0.990723 1
0.840192 0.999878 0.844511
0.982757 0.999741 0.67895
0.980224 0.999939 0.434806
0 1 0.000289921
0 1 0.000289921
0 1 0.000289921
0 1 0.000289921
0 1 0.000289921
0 1 0.000289921
0.738125 0.999847 0.000381476
0.982559 0.999557 0.0543679
0.982559 0.999557 0.0543679
0.0149691 0.409888 1
0.0149691 0.409888 1
0.0149996 0.409857 1
0.0149996 0.409857 1
0.0150759 0.409781 1
1 0.392309 1
1 0.392309 1
1 0.392309 1
1 0.392309 1
0.0149996 0.409857 1
0.0149996 0.409857 1
0.0149996 0.409857 1
0.0149996 0.409857 1
0.0151217 0.409751 1
1 0.392309 1
1 0.392309 1
1 0.392309 1
1 0.392309 1
0.0149996 0.409857 1
0.0150454 0.409812 1
0.0150454 0.409812 1
0.0150454 0.409812 1
0.0151675 0.40972 1
1 0.392309 1
1 0.392309 1
1 0.392309 1
1 0.392309 1
0.0151217 0.409751 1
0.0151675 0.40972 1
0.0151675 0.40972 1
0.0151675 0.40972 1
0.0152895 0.409613 1
1 0.392309 1
1 0.392309 1
1 0.392309 1
1 0.392309 1
0.0155642 0.409384 1
0.0155642 0.409384 1
0.0155642 0.409384 1
0.01561 0.409354 1
0.0156863 0.409277 1
1 0.392309 1
1 0.392309 1
1 0.392309 1
1 0.392309 1
0.0171054 0.408103 1
0.0171054 0.408103 1
0.0171054 0.408103 1
0.0171511 0.408072 1
0.0172274 0.408011 1
1 0.392309 1
1 0.392309 1
1 0.392309 1
1 0.392309 1
0.00213626 0.990723 1
0.00213626 0.990723 1
0.00213626 0.990723 1
0.00213626 0.990723 1
0.00213626 0.990723 1
0.00213626 0.991058 0.999115
0.998947 0.911696 0.999603
0.999817 0.871031 0.999695
0.999603 0.841443 0.999908
0.00213626 0.990723 1
0.00213626 0.990723 1
0.00213626 0.990723 1
0.00213626 0.990723 1
0.00213626 0.990723 1
0.00213626 0.990723 1
0.674952 0.999283 0.992035
1 1 1
1 1 1
0.00213626 0.990723 1
0.00213626 0.990723 1
0.00213626 0.990723 1
0.00213626 0.990723 1
0.00213626 0.990723 1
0.00213626 0.990723 1
0.144976 0.999969 0.999969
1 1 1
0.999481 1 0.996719
0.00260929 0.420035 0.999878
0.00260929 0.420035 0.999878
0.00260929 0.420035 0.999878
0.00260929 0.420035 0.999878
0.00260929 0.420035 0.999878
0.00260929 0.420035 0.999878
1 0.392309 1
1 0.392309 1
1 0.392309 1
0.00260929 0.420035 0.999878
0.00260929 0.420035 0.999878
0.00260929 0.420035 0.999878
0.00260929 0.420035 0.999878
0.00260929 0.420035 0.999878
0.00260929 0.420035 0.999878
1 0.392309 1
1 0.392309 1
1 0.392309 1
0.00260929 0.420035 0.999878
0.00260929 0.420035 0.999878
0.00260929 0.420035 0.999878
0.00260929 0.420035 0.999878
0.00260929 0.420035 0.999878
0.00260929 0.420035 0.999878
1 0.392309 1
1 0.392309 1
1 0.392309 1
0.00260929 0.420035 0.999878
0.00260929 0.420035 0.999878
0.00260929 0.420035 0.999878
0.00260929 0.420035 0.999878
0.00260929 0.420035 0.999878
0.00260929 0.420035 0.999878
1 0.392309 1
1 0.392309 1
1 0.392309 1
0.00260929 0.420035 0.999878
0.00260929 0.420035 0.999878
0.00260929 0.420035 0.999878
0.00260929 0.420035 0.999878
0.00260929 0.420035 0.999878
0.00260929 0.420035 0.999878
1 0.392309 1
1 0.392309 1
1 0.392309 1
0.00260929 0.420035 0.999878
0.00260929 0.420035 0.999878
0.00260929 0.420035 0.999878
0.00260929 0.420035 0.999878
0.00260929 0.420035 0.999878
0.00260929 0.420035 0.999878
1 0.392309 1
1 0.392309 1
1 0.392309 1
0.00260929 0.420035 0.999878
0.00260929 0.420035 0.999878
0.00260929 0.420035 0.999878
0.00260929 0.420035 0.999878
0.00260929 0.420035 0.999878
0.00260929 0.420035 0.999878
1 0.392309 1
1 0.392309 1
1 0.392309 1
0.00213626 0.990723 1
0.00213626 0.990723 1
0.00213626 0.990723 1
0.00213626 0.990723 1
0.00213626 0.990723 1
0.00213626 0.990723 1
0.537469 0.999481 0.995727
1 1 1
1 1 1
0.00213626 0.990723 1
0.00213626 0.990723 1
0.00213626 0.990723 1
0.00213626 0.990723 1
0.00213626 0.990723 1
0.00213626 0.990723 1
0.00350958 0.990021 1
0.998398 0.999969 0.999435
1 1 1
