Log3G10_RWG_to_ClasssicNeg.cube
TITLE "Generated by Resolve"
LUT_3D_SIZE 33
0.0104677 0.0158694 0.0142367
0.0131228 0.0156405 0.0137484
0.0172274 0.0154116 0.0130617
0.023209 0.0153506 0.0120089
0.0325017 0.0157626 0.0108186
0.0534676 0.0206912 0.0116426
0.104051 0.0304265 0.0129244
0.175937 0.0426184 0.0131533
0.267445 0.061265 0.0144961
0.38854 0.084535 0.0159609
0.528466 0.110643 0.0178836
0.667369 0.136675 0.0205234
0.793683 0.161273 0.0264897
0.891463 0.182116 0.037995
0.954818 0.198123 0.061677
0.985702 0.208301 0.103883
0.999237 0.213626 0.158572
1 0.212711 0.219013
1 0.21973 0.288121
1 0.247257 0.363668
1 0.282399 0.439475
1 0.321019 0.516716
1 0.355581 0.585748
1 0.37525 0.640253
1 0.388128 0.679988
1 0.401892 0.712657
1 0.418357 0.740963
1 0.436271 0.765011
1 0.455848 0.781216
1 0.473747 0.794491
1 0.491981 0.804288
1 0.506706 0.812207
1 0.510613 0.814313
0.00906386 0.0186618 0.0152132
0.0114748 0.0177462 0.0144503
0.01561 0.0173342 0.0137179
0.0218814 0.0172427 0.0125277
0.0320592 0.016434 0.0108492
0.0510109 0.0209201 0.0114595
0.101015 0.0312505 0.0132296
0.173434 0.0437629 0.0137331
0.267567 0.0613565 0.0142061
0.383017 0.0834363 0.0151522
0.521737 0.109255 0.0166781
0.6607 0.135225 0.0190127
0.787381 0.159777 0.0246586
0.886427 0.180682 0.0356451
0.951797 0.197009 0.0577707
0.983886 0.207492 0.0987106
0.997772 0.213169 0.153216
1 0.212741 0.212573
1 0.217639 0.283207
1 0.247196 0.363546
1 0.282399 0.43946
1 0.321019 0.516701
1 0.355581 0.585733
1 0.37525 0.640253
1 0.388128 0.679988
1 0.401892 0.712642
1 0.418357 0.740963
1 0.436271 0.765011
1 0.455848 0.781216
1 0.473747 0.794491
1 0.491981 0.804288
1 0.506706 0.812207
1 0.510613 0.814313
0.00686656 0.0233463 0.0170291
0.00885023 0.0228885 0.016495
0.0130922 0.0209049 0.0150149
0.0208286 0.0208743 0.0141756
0.0320745 0.0193332 0.0120546
0.0475929 0.0203555 0.0106508
0.0918441 0.0303044 0.0125429
0.16582 0.0441901 0.0141756
0.268437 0.0617685 0.014023
0.377951 0.0823682 0.0140688
0.513741 0.107622 0.0153658
0.651759 0.133272 0.0169833
0.778729 0.157717 0.0220798
0.879469 0.178683 0.0322728
0.947234 0.195361 0.0527047
0.981414 0.206455 0.0914473
0.996658 0.21265 0.145617
1 0.213092 0.204425
1 0.215473 0.273503
1 0.242725 0.353689
1 0.280705 0.435966
1 0.321004 0.516701
1 0.355581 0.585733
1 0.37525 0.640253
1 0.388128 0.679988
1 0.401892 0.712642
1 0.418357 0.740963
1 0.436271 0.765011
1 0.455848 0.781216
1 0.473747 0.794491
1 0.491981 0.804288
1 0.506706 0.812207
1 0.510613 0.814313
0.00349432 0.0300908 0.0196384
0.00488289 0.0298772 0.0192569
0.00836194 0.0296483 0.018555
0.016083 0.0276799 0.0166781
0.0303502 0.0264744 0.0150454
0.0496529 0.0224155 0.0122225
0.0795758 0.0287785 0.0117037
0.150561 0.0429999 0.0136416
0.258457 0.0620279 0.014374
0.371695 0.0810407 0.012726
0.500725 0.104921 0.0127871
0.641321 0.130922 0.0141299
0.767712 0.154879 0.0176547
0.870115 0.175845 0.026978
0.940749 0.193027 0.0456245
0.97763 0.204898 0.0816205
0.994614 0.21181 0.134997
1 0.213367 0.193606
1 0.212589 0.260838
1 0.236683 0.340169
1 0.274586 0.423133
1 0.316808 0.508949
1 0.355581 0.585733
1 0.375235 0.640253
1 0.388128 0.679988
1 0.401892 0.712642
1 0.418341 0.740963
1 0.436271 0.765011
1 0.455848 0.781216
1 0.473747 0.794476
1 0.491966 0.804288
1 0.506706 0.812207
1 0.510613 0.814313
0.000366217 0.0410163 0.0247349
0.000961318 0.0408484 0.0243839
0.00230411 0.0405737 0.0238651
0.00767529 0.0395972 0.0225834
0.0207675 0.0374609 0.0200351
0.0491798 0.0338445 0.0166934
0.0798199 0.0314031 0.0138094
0.122667 0.0416571 0.0135653
0.223987 0.0588235 0.013077
0.361852 0.0808881 0.0115969
0.488029 0.102205 0.00936904
0.612787 0.124727 0.00750744
0.752224 0.150942 0.0113375
0.857725 0.172137 0.0196841
0.930983 0.189425 0.0365148
0.971954 0.202213 0.0679484
0.991226 0.21033 0.119036
1 0.213596 0.177798
1 0.211765 0.243809
1 0.229313 0.321736
1 0.266178 0.405509
1 0.307713 0.490852
1 0.349767 0.572992
1 0.374731 0.638498
1 0.388128 0.679988
1 0.401892 0.712642
1 0.418341 0.740963
1 0.436255 0.765011
1 0.455848 0.781216
1 0.473747 0.794476
1 0.491966 0.804288
1 0.506691 0.812207
1 0.510613 0.814313
0 0.0622568 0.0345617
0 0.0615549 0.0336919
0 0.0609751 0.0331121
0.000228885 0.0604105 0.0323796
0.00601205 0.0579843 0.0301366
0.0284886 0.0519417 0.0251011
0.0790875 0.0489357 0.0209506
0.126909 0.0487831 0.0181888
0.191104 0.064744 0.0177768
0.311223 0.0801709 0.0125429
0.456474 0.0993362 0.00733959
0.600656 0.122683 0.00451667
0.720272 0.14342 0.00184634
0.832425 0.165118 0.00747692
0.917372 0.183963 0.0220798
0.963363 0.197726 0.0484016
0.984527 0.207218 0.0940566
0.997803 0.213199 0.153399
1 0.212421 0.216571
1 0.22005 0.2925
1 0.25388 0.378607
1 0.294682 0.464836
1 0.339971 0.552148
1 0.369467 0.622415
1 0.386252 0.674479
1 0.401892 0.712642
1 0.418341 0.740963
1 0.436255 0.765011
1 0.455848 0.781216
1 0.473732 0.794476
1 0.491966 0.804288
1 0.506691 0.812207
1 0.510613 0.814313
0 0.0959029 0.0521859
0 0.0948959 0.0507515
0 0.0934005 0.0492561
0 0.0916609 0.048188
0 0.0897078 0.0467994
0.00727855 0.0847181 0.0423133
0.0421759 0.0738384 0.0331731
0.110597 0.0745403 0.0280766
0.198505 0.0800793 0.0261845
0.31371 0.0983444 0.0222477
0.428046 0.110689 0.0159457
0.564157 0.123812 0.00698863
0.696117 0.141466 0.00283818
0.808072 0.159213 0.00144961
0.892271 0.175341 0.00320439
0.952789 0.191318 0.0248417
0.976043 0.202472 0.063447
0.992035 0.21059 0.121157
1 0.213458 0.184909
1 0.211719 0.253803
1 0.235706 0.338262
1 0.275975 0.426078
1 0.321218 0.51725
1 0.360906 0.59791
1 0.380499 0.657084
1 0.396368 0.700648
1 0.416983 0.739132
1 0.436255 0.765011
1 0.455833 0.781216
1 0.473732 0.794476
1 0.491966 0.804288
1 0.506691 0.812207
1 0.510613 0.814313
0 0.140841 0.0763104
0 0.13962 0.074876
0 0.137697 0.0727703
0 0.135119 0.0708934
0 0.13164 0.0690776
0 0.128145 0.0667124
0.0146792 0.119402 0.059144
0.0612345 0.107607 0.0471656
0.159747 0.106905 0.0401617
0.299779 0.122118 0.038117
0.459037 0.138231 0.0281834
0.56997 0.146304 0.0188144
0.679774 0.150484 0.00604257
0.789563 0.159167 0.000228885
0.873457 0.170962 0.000366217
0.932692 0.183078 0.00453193
0.967056 0.195422 0.0321508
0.982605 0.206134 0.0854047
0.998383 0.213214 0.150729
1 0.212573 0.216144
1 0.219699 0.293324
1 0.256703 0.384726
1 0.298604 0.472862
1 0.34313 0.559167
1 0.371649 0.628367
1 0.387976 0.678264
1 0.405966 0.719539
1 0.428351 0.75581
1 0.454658 0.780392
1 0.473732 0.794476
1 0.491966 0.804288
1 0.506691 0.812207
1 0.510613 0.814313
0 0.204486 0.110399
0 0.203037 0.109087
0 0.200793 0.106935
0 0.197269 0.103685
0 0.19263 0.100999
0 0.184939 0.0969711
0.00030518 0.180072 0.0934462
0.0219425 0.168551 0.0829786
0.0896162 0.155627 0.067277
0.235569 0.150713 0.0573587
0.407904 0.177142 0.0604257
0.597345 0.186831 0.0407721
0.708492 0.186175 0.0235142
0.797955 0.18027 0.00549325
0.869581 0.174502 0
0.921798 0.179644 0.00062562
0.951675 0.187259 0.00698863
0.971786 0.197803 0.0422522
0.989578 0.209155 0.109133
0.999268 0.214054 0.175509
1 0.211398 0.245823
1 0.235294 0.336996
1 0.277623 0.429526
1 0.322057 0.51838
1 0.359838 0.595087
1 0.378851 0.650233
1 0.393835 0.692378
1 0.410819 0.728542
1 0.433188 0.759319
1 0.457359 0.783123
1 0.482902 0.799207
1 0.506691 0.812207
1 0.510613 0.814313
0 0.290654 0.156405
0 0.289403 0.155398
0 0.286915 0.153521
0 0.283085 0.15024
0 0.276799 0.145113
0 0.268299 0.140597
0 0.254673 0.133471
0.00125124 0.248585 0.128435
0.0364385 0.231922 0.114122
0.135592 0.218189 0.0930648
0.335409 0.207507 0.0788281
0.516014 0.242191 0.090013
0.714351 0.242878 0.0627909
0.824689 0.229053 0.0335393
0.885542 0.209415 0.009308
0.925963 0.188235 0.000442512
0.950439 0.184787 0.00077821
0.962249 0.189914 0.0091249
0.973999 0.198947 0.0496986
0.993393 0.211048 0.12694
1 0.212772 0.196063
1 0.216602 0.280644
1 0.25539 0.381933
1 0.299306 0.474174
1 0.342138 0.557351
1 0.368917 0.621225
1 0.385031 0.667704
1 0.398886 0.703243
1 0.416022 0.733928
1 0.433143 0.758679
1 0.450385 0.775601
1 0.467338 0.789578
1 0.477485 0.796582
0 0.392172 0.211139
0 0.392157 0.211139
0 0.389624 0.209079
0 0.386038 0.206149
0 0.380041 0.201266
0 0.370794 0.194232
0 0.356649 0.186831
0 0.339208 0.177707
0.00296025 0.331685 0.170748
0.0627909 0.308766 0.151278
0.207538 0.297276 0.123964
0.453651 0.283696 0.107393
0.625605 0.315343 0.120684
0.801343 0.310079 0.0990616
0.89604 0.274296 0.0530861
0.933501 0.238331 0.0198672
0.949874 0.200275 0.00221256
0.958267 0.18526 0
0.965286 0.191684 0.0149386
0.975952 0.200946 0.0576181
0.993912 0.211673 0.136065
1 0.212741 0.215335
1 0.228794 0.315953
1 0.273136 0.41976
1 0.319112 0.512413
1 0.355718 0.586557
1 0.376455 0.640574
1 0.390341 0.680247
1 0.40528 0.711955
1 0.419242 0.737377
1 0.433448 0.755993
1 0.44535 0.770382
1 0.450172 0.775555
0 0.501884 0.271031
0 0.501869 0.271031
0 0.501244 0.270512
0 0.497505 0.267491
0 0.492302 0.263172
0 0.483314 0.255909
0 0.471427 0.246967
0 0.45391 0.237736
0 0.434424 0.227314
0.00653086 0.423697 0.217014
0.110964 0.392782 0.191165
0.29572 0.388479 0.156283
0.580682 0.379507 0.143954
0.736263 0.395712 0.150835
0.845212 0.387228 0.146761
0.921111 0.325154 0.089189
0.943282 0.268132 0.0415045
0.953048 0.213428 0.00686656
0.959792 0.188067 0.000671397
0.966217 0.192432 0.0177462
0.974273 0.199771 0.0510109
0.993515 0.211398 0.135821
1 0.212818 0.231739
1 0.23975 0.346532
1 0.289464 0.453651
1 0.333196 0.540627
1 0.363745 0.605646
1 0.380972 0.652338
1 0.395804 0.68838
1 0.40882 0.715953
1 0.421454 0.736629
1 0.431968 0.752636
1 0.435569 0.758038
0 0.60824 0.331029
0 0.60824 0.331014
0 0.608225 0.331014
0 0.60647 0.329458
0 0.60145 0.324773
0 0.594629 0.318532
0 0.583505 0.308476
0 0.570871 0.29897
0 0.551934 0.289036
0 0.532448 0.278355
0.0216373 0.519646 0.263325
0.181491 0.485954 0.231861
0.389578 0.486549 0.189578
0.699565 0.486595 0.185519
0.842313 0.474479 0.178485
0.883848 0.454475 0.183185
0.911482 0.380087 0.135653
0.936248 0.306401 0.0752575
0.950774 0.232959 0.0195926
0.959152 0.193225 0.00280766
0.966842 0.193423 0.021561
0.971481 0.198001 0.0404364
0.993774 0.211185 0.130739
1 0.213779 0.243977
1 0.251041 0.372122
1 0.300847 0.477134
1 0.343725 0.559899
1 0.36965 0.616831
1 0.385809 0.65832
1 0.399237 0.69102
1 0.41146 0.714748
1 0.421439 0.733608
1 0.424628 0.739025
0 0.699535 0.384878
0 0.699535 0.384878
0 0.699519 0.384878
0 0.699519 0.384863
0 0.696651 0.381826
0 0.691005 0.375998
0 0.682185 0.366522
0 0.671183 0.354894
0 0.657801 0.344442
0 0.640085 0.33518
0 0.623667 0.325353
0.0542763 0.608667 0.304967
0.28336 0.589868 0.270787
0.522744 0.596719 0.21883
0.805875 0.590387 0.22504
0.93727 0.549798 0.204227
0.922255 0.516701 0.21091
0.894606 0.441566 0.18294
0.920272 0.359579 0.122606
0.943648 0.271992 0.0522927
0.956191 0.206119 0.00856031
0.966003 0.194278 0.0213016
0.969635 0.196338 0.0332799
0.991012 0.209506 0.114717
0.999084 0.211292 0.240452
1 0.254612 0.375296
1 0.304784 0.482872
1 0.34641 0.56321
1 0.3738 0.621302
1 0.3888 0.659297
1 0.401373 0.688334
1 0.411109 0.70901
1 0.414084 0.715557
0 0.769314 0.431449
0 0.769314 0.431449
0 0.769314 0.431449
0 0.769314 0.431449
0 0.769299 0.431449
0 0.765759 0.42681
0 0.759487 0.418021
0 0.74963 0.404318
0 0.739925 0.391791
0 0.727977 0.381186
0 0.712581 0.373129
0.000839246 0.700618 0.364034
0.12546 0.680812 0.336355
0.415396 0.676844 0.299443
0.654276 0.693477 0.252522
0.886091 0.682612 0.259739
0.983169 0.647089 0.247929
0.972641 0.573388 0.231052
0.915267 0.502113 0.214847
0.899321 0.423789 0.174624
0.923903 0.342184 0.111482
0.94548 0.255009 0.0419623
0.96083 0.206958 0.02121
0.96817 0.195651 0.0285496
0.986099 0.206165 0.0953384
0.997925 0.215061 0.21857
1 0.245243 0.355291
1 0.301656 0.474739
1 0.346151 0.556802
1 0.374578 0.61413
1 0.390478 0.652567
1 0.401938 0.680018
1 0.404852 0.687129
0 0.818448 0.472068
0 0.818448 0.472068
0 0.818448 0.472068
0 0.818448 0.472068
0 0.818448 0.472068
0 0.818448 0.472068
0 0.814466 0.464164
0 0.807538 0.450767
0 0.798489 0.432975
0 0.790845 0.419089
0 0.780713 0.408774
0 0.768566 0.402274
0.0062562 0.76202 0.392401
0.244724 0.74406 0.356329
0.54403 0.765911 0.320928
0.759075 0.768841 0.27834
0.942229 0.760082 0.286595
0.998856 0.732692 0.284276
0.995361 0.656855 0.269978
0.958068 0.564309 0.242115
0.911788 0.493462 0.215869
0.905257 0.425864 0.17467
0.921767 0.341131 0.110613
0.948638 0.253513 0.0492866
0.96405 0.197543 0.0196231
0.977951 0.200626 0.0640421
0.998489 0.217502 0.169894
0.999908 0.239033 0.322332
1 0.292973 0.444312
1 0.34049 0.536446
1 0.366278 0.589258
1 0.387823 0.632807
1 0.393423 0.644724
0 0.84625 0.507012
0 0.84625 0.506996
0 0.84625 0.506996
0 0.84625 0.506996
0 0.84625 0.506996
0 0.84625 0.506996
0 0.84625 0.506996
0 0.84268 0.494484
0 0.835889 0.474266
0 0.829252 0.451652
0 0.82356 0.43595
0 0.815915 0.427192
0 0.808881 0.423026
0.0300755 0.807416 0.408881
0.406088 0.790646 0.366384
0.653849 0.830716 0.330724
0.836118 0.826856 0.297704
0.972259 0.82359 0.305379
0.997726 0.805768 0.308507
0.999908 0.751995 0.309224
0.990707 0.662593 0.287129
0.959335 0.579202 0.254276
0.928176 0.50901 0.221881
0.905913 0.433921 0.1785
0.923735 0.334188 0.109453
0.957458 0.20795 0.0133059
0.964508 0.192935 0.0150912
0.98764 0.207584 0.100832
0.998337 0.236271 0.224155
0.999374 0.271534 0.368414
1 0.314794 0.468956
1 0.349981 0.533608
1 0.36112 0.55436
0 0.856336 0.537408
0 0.856336 0.537408
0 0.856336 0.537408
0 0.856336 0.537408
0 0.856336 0.537408
0 0.856336 0.537408
0 0.856336 0.537392
0 0.856336 0.537392
0 0.852949 0.518471
0 0.847623 0.490486
0 0.841901 0.461128
0 0.837461 0.442191
0 0.834226 0.436774
0 0.832166 0.433875
0.128557 0.836744 0.413001
0.55964 0.850996 0.368002
0.733135 0.869841 0.331136
0.895933 0.870481 0.311116
0.982147 0.872007 0.315969
0.991928 0.862455 0.320058
0.995483 0.834119 0.330938
0.998764 0.773037 0.329198
0.99556 0.700252 0.304967
0.974945 0.613779 0.269642
0.943709 0.526986 0.228046
0.891554 0.449821 0.194919
0.934981 0.29807 0.0747234
0.950561 0.245212 0.0416876
0.964523 0.197574 0.0222477
0.981109 0.214527 0.0915541
0.988785 0.234424 0.16051
0.990677 0.267918 0.274357
0.99147 0.278584 0.311223
0 0.858518 0.566049
0 0.858518 0.566049
0 0.858518 0.566049
0 0.858518 0.566049
0 0.858518 0.566049
0 0.858518 0.566049
0 0.858518 0.566049
0 0.858518 0.566049
0 0.858518 0.566049
0 0.854429 0.537591
0 0.848585 0.500694
0 0.842283 0.463218
0 0.838895 0.441505
0 0.838575 0.439017
0 0.842313 0.435813
0.336965 0.841093 0.403571
0.69485 0.895216 0.361959
0.803418 0.896254 0.323964
0.937377 0.901457 0.320043
0.9794 0.90222 0.322621
0.983917 0.897368 0.325994
0.986938 0.88719 0.335576
0.992142 0.86038 0.343908
0.996277 0.817868 0.3411
0.999817 0.752163 0.325902
0.993393 0.655207 0.286
0.942779 0.567666 0.249989
0.944915 0.455558 0.177356
0.920928 0.359167 0.125963
0.933028 0.296681 0.0786603
0.950851 0.232242 0.0250401
0.959152 0.234607 0.0505989
0.961532 0.23714 0.0610056
0 0.860136 0.595346
0 0.860136 0.595346
0 0.860136 0.595346
0 0.860136 0.595346
0 0.860136 0.595346
0 0.860136 0.595346
0 0.860136 0.595346
0 0.860136 0.595346
0 0.860136 0.595346
0 0.860136 0.595346
0 0.853941 0.554498
0 0.846143 0.507088
0 0.838407 0.460487
0 0.835187 0.438239
0 0.836652 0.438148
0.0518502 0.849439 0.42916
0.546563 0.864561 0.384237
0.766659 0.904143 0.34197
0.870573 0.911315 0.322606
0.958373 0.917769 0.328786
0.973312 0.917266 0.327642
0.97554 0.914931 0.330602
0.97792 0.911284 0.336736
0.982025 0.902541 0.340398
0.987137 0.885924 0.343633
0.992645 0.854566 0.344244
0.996551 0.797696 0.333333
0.987091 0.731807 0.314153
0.985534 0.632715 0.275502
0.962142 0.550408 0.236851
0.911528 0.480049 0.20798
0.898878 0.425772 0.174563
0.903593 0.408911 0.160586
0.00325017 0.863661 0.626688
0.00325017 0.863661 0.626688
0.00325017 0.863661 0.626688
0.00325017 0.863661 0.626688
0.00325017 0.863661 0.626688
0.00325017 0.863661 0.626688
0.00325017 0.863661 0.626688
0.00325017 0.863661 0.626688
0.00325017 0.863661 0.626688
0.00325017 0.863661 0.626673
0.00292973 0.863294 0.624567
0 0.8542 0.570123
0 0.843626 0.508644
0 0.834318 0.454734
0 0.831708 0.437018
0 0.834699 0.435996
0.272572 0.838804 0.412161
0.713069 0.901976 0.364904
0.82501 0.90631 0.326314
0.930816 0.919203 0.325002
0.966537 0.922774 0.332998
0.970077 0.922621 0.330755
0.970352 0.922316 0.332753
0.971298 0.920943 0.336568
0.973617 0.917769 0.338293
0.977188 0.911955 0.339544
0.981567 0.901381 0.341039
0.986267 0.884169 0.341482
0.991608 0.861723 0.343923
0.994354 0.811307 0.330953
0.997818 0.767437 0.325643
0.991012 0.727352 0.31722
0.978012 0.708858 0.309712
0.0138857 0.868803 0.657969
0.0138857 0.868803 0.657969
0.0138857 0.868803 0.657969
0.0138857 0.868803 0.657969
0.0138857 0.868803 0.657969
0.0138857 0.868803 0.657969
0.0138857 0.868803 0.657969
0.0138857 0.868803 0.657969
0.0138857 0.868803 0.657969
0.0138857 0.868803 0.657954
0.0138857 0.868803 0.657954
0.00981155 0.867262 0.649378
0 0.855283 0.581933
0 0.841428 0.504448
0 0.831174 0.447013
0 0.829602 0.436576
0.0340276 0.83888 0.429892
0.535637 0.86215 0.386114
0.791974 0.901091 0.333379
0.907149 0.913512 0.319295
0.960113 0.91931 0.330632
0.970092 0.922118 0.335424
0.970382 0.922454 0.33286
0.969772 0.922866 0.333288
0.969192 0.923445 0.335454
0.969467 0.92314 0.336599
0.970657 0.921691 0.337224
0.972427 0.919234 0.338003
0.975265 0.915267 0.338766
0.978439 0.907362 0.339895
0.981598 0.901854 0.340551
0.984192 0.896529 0.340978
0.985153 0.885023 0.339712
0.0278172 0.873854 0.686183
0.0278172 0.873854 0.686183
0.0278172 0.873854 0.686183
0.0278172 0.873854 0.686183
0.0278172 0.873854 0.686183
0.0278172 0.873854 0.686183
0.0278172 0.873854 0.686183
0.0278172 0.873854 0.686183
0.0278172 0.873854 0.686183
0.0278172 0.873854 0.686183
0.0278172 0.873854 0.686183
0.0278172 0.873854 0.686183
0.016083 0.869627 0.66273
0 0.856123 0.587701
0 0.838972 0.492531
0 0.82948 0.44004
0 0.830488 0.43566
0.284291 0.824277 0.409812
0.739391 0.897658 0.357748
0.882567 0.9075 0.317662
0.950759 0.914412 0.327901
0.971496 0.917205 0.332998
0.972747 0.919646 0.337896
0.972305 0.920043 0.335134
0.971511 0.920409 0.333684
0.970489 0.921508 0.334279
0.969757 0.922469 0.334951
0.96939 0.923033 0.335454
0.969238 0.923323 0.335988
0.969757 0.922698 0.336492
0.970306 0.922118 0.337026
0.970733 0.921645 0.337453
0.971481 0.920394 0.337621
0.0422065 0.878965 0.714519
0.0422065 0.878965 0.714519
0.0422065 0.878965 0.714519
0.0422065 0.878965 0.714519
0.0422065 0.878965 0.714519
0.0422065 0.878965 0.714519
0.0422065 0.878965 0.714519
0.0422065 0.878965 0.714519
0.0422065 0.878965 0.714519
0.0422065 0.878965 0.714519
0.0422065 0.878965 0.714519
0.0422065 0.878965 0.714519
0.0422065 0.878965 0.714519
0.0196078 0.870939 0.669993
0 0.855131 0.582254
0 0.835523 0.473487
0 0.828885 0.436896
0.0800793 0.839643 0.427329
0.604715 0.881102 0.383047
0.830488 0.899214 0.32639
0.939193 0.911192 0.324926
0.969314 0.914 0.331609
0.975464 0.915297 0.334768
0.974823 0.917372 0.340505
0.974182 0.917601 0.337682
0.97351 0.917739 0.334783
0.972686 0.918517 0.334203
0.971939 0.919478 0.334142
0.971359 0.920272 0.334188
0.970916 0.920882 0.33434
0.970321 0.921675 0.334585
0.969848 0.922332 0.334783
0.96997 0.922194 0.334936
0.0574044 0.884352 0.744442
0.0574044 0.884352 0.744442
0.0574044 0.884352 0.744442
0.0574044 0.884352 0.744442
0.0574044 0.884352 0.744442
0.0573892 0.884352 0.744442
0.0573892 0.884352 0.744442
0.0573892 0.884352 0.744442
0.0573892 0.884352 0.744442
0.0573892 0.884352 0.744427
0.0573892 0.884352 0.744427
0.0573892 0.884352 0.744427
0.0573892 0.884352 0.744427
0.0573892 0.884352 0.744427
0.0209506 0.871397 0.672557
0 0.852583 0.568139
0 0.8327 0.457923
0.00497444 0.831769 0.440742
0.380362 0.850294 0.400061
0.77258 0.894408 0.338888
0.919661 0.909102 0.32192
0.963821 0.912444 0.329305
0.975479 0.913588 0.334508
0.976989 0.914168 0.336736
0.976043 0.915877 0.342916
0.975464 0.915969 0.340627
0.975006 0.915862 0.33727
0.974517 0.916167 0.335714
0.974044 0.916747 0.334966
0.973602 0.917311 0.3346
0.973266 0.917723 0.334417
0.972961 0.91812 0.334325
0.972778 0.918379 0.334401
0.0720226 0.88954 0.773144
0.0720226 0.88954 0.773144
0.0720226 0.88954 0.773144
0.0720226 0.88954 0.773144
0.0720226 0.88954 0.773144
0.0720226 0.88954 0.773144
0.0720226 0.88954 0.773144
0.0720226 0.88954 0.773144
0.0720226 0.88954 0.773144
0.0720226 0.88954 0.773144
0.0720226 0.88954 0.773144
0.0720226 0.88954 0.773144
0.0720226 0.88954 0.773144
0.0720226 0.88954 0.773129
0.0720226 0.88954 0.773129
0.0185092 0.870527 0.667659
0 0.847044 0.537362
0 0.83537 0.471015
0.148058 0.834943 0.439567
0.702068 0.888487 0.371588
0.89398 0.907057 0.318914
0.955688 0.911727 0.327459
0.973785 0.913039 0.332937
0.977142 0.913497 0.336446
0.977447 0.913832 0.338582
0.976623 0.915084 0.344594
0.976226 0.914977 0.342916
0.975952 0.914702 0.339742
0.975692 0.914824 0.338384
0.975357 0.915175 0.337575
0.975158 0.915389 0.336904
0.974945 0.915648 0.336583
0.974838 0.915785 0.336507
0.0862745 0.894545 0.800671
0.0862745 0.894545 0.800671
0.0862745 0.894545 0.800671
0.0862745 0.894545 0.800671
0.0862745 0.894545 0.800671
0.0862745 0.894545 0.800671
0.0862745 0.894545 0.800671
0.0862745 0.894545 0.800671
0.0862745 0.894545 0.800671
0.0862745 0.894545 0.800671
0.0862745 0.894545 0.800671
0.0862745 0.894545 0.800671
0.0862745 0.894545 0.800671
0.0862745 0.894545 0.800671
0.0862745 0.894545 0.800656
0.0675212 0.887953 0.764309
0.0103761 0.86685 0.647272
0 0.846464 0.534234
0.0146029 0.846036 0.497826
0.554406 0.865187 0.433951
0.845777 0.904784 0.345235
0.944472 0.911711 0.332097
0.971481 0.912978 0.332418
0.976608 0.913359 0.335714
0.977569 0.913573 0.337652
0.977401 0.91397 0.341115
0.976791 0.914778 0.34612
0.976547 0.914504 0.344152
0.976333 0.914504 0.344411
0.976135 0.91458 0.343267
0.976165 0.91429 0.340444
0.976013 0.914458 0.33991
0.975937 0.914534 0.339635
0.0995499 0.899199 0.826062
0.0995499 0.899199 0.826062
0.0995499 0.899199 0.826062
0.0995499 0.899199 0.826062
0.0995499 0.899199 0.826062
0.0995499 0.899199 0.826062
0.0995499 0.899199 0.826062
0.0995499 0.899199 0.826062
0.0995499 0.899199 0.826062
