Log3G10_RWG_to_709FLog2.cube
TITLE "Generated by Resolve"
LUT_3D_SIZE 9
0.00709544 0.00515755 0.00529488
0.224598 0 0
0.42089 0 0
0.598352 0 0
0.77052 0 0
0.938384 0 0
1 0 0
1 0 0
1 0 0
0 0.182742 0
0.149447 0.168002 0
0.388785 0.129458 0
0.583185 0.0217899 0
0.770367 0 0
0.938308 0 0
1 0 0
1 0 0
1 0 0
0 0.348516 0
0 0.343145 0
0.309697 0.325307 0
0.533867 0.295293 0
0.730632 0.225589 0
0.938155 0 0
1 0 0
1 0 0
1 0 0
0 0.498131 0
0 0.498009 0
0.0874495 0.485359 0
0.45536 0.467262 0
0.676112 0.439521 0
0.87306 0.381399 0
1 0 0
1 0 0
1 0 0
0 0.643091 0
0 0.643091 0
0 0.642954 0
0.284962 0.623346 0
0.59675 0.604898 0
0.814221 0.578592 0
0.996201 0.530159 0
1 0.401923 0
1 0 0
0 0.784421 0
0 0.784421 0
0 0.784421 0
0 0.784298 0
0.446342 0.757626 0
0.734768 0.739025 0
0.940337 0.715145 0
1 0.681819 0
1 0.64712 0
0 0.916915 0
0 0.916915 0
0 0.916915 0
0 0.916854 0
0 0.907713 0
0.604456 0.882506 0
0.864012 0.864683 0
1 0.846052 0
1 0.832746 0
0 1 0
0 1 0
0 1 0
0 1 0
0 1 0
0.236667 0.997482 0
0.767086 0.983032 0
0.970336 0.968109 0
1 0.959106 0
0 1 0
0 1 0
0 1 0
0 1 0
0 1 0
0 1 0
0.688609 1 0
0.934752 1 0
1 1 0
0 0 0.192721
0.207874 0 0.185397
0.415366 0 0.158511
0.597482 0 0.0103151
0.770367 0 0
0.938308 0 0
1 0 0
1 0 0
1 0 0
0 0.156588 0.152255
0.14139 0.141329 0.141421
0.390646 0.09308 0.105058
0.587716 0 0
0.770214 0 0
0.938308 0 0
1 0 0
1 0 0
1 0 0
0 0.343221 0
0 0.338277 0
0.309804 0.319783 0
0.535164 0.288823 0
0.732128 0.21561 0
0.938079 0 0
1 0 0
1 0 0
1 0 0
0 0.496712 0
0 0.496574 0
0.081117 0.484077 0
0.45536 0.465812 0
0.676493 0.437888 0
0.873487 0.379065 0
1 0 0
1 0 0
1 0 0
0 0.642695 0
0 0.642695 0
0 0.642573 0
0.283909 0.622995 0
0.596765 0.604501 0
0.814282 0.57818 0
0.996292 0.529625 0
1 0.400565 0
1 0 0
0 0.78436 0
0 0.78436 0
0 0.784298 0
0 0.784161 0
0.446082 0.757504 0
0.734737 0.738888 0
0.940368 0.715068 0
1 0.681682 0
1 0.646906 0
0 0.916854 0
0 0.916854 0
0 0.916854 0
0 0.916777 0
0 0.907713 0
0.604349 0.882521 0
0.864012 0.864683 0
1 0.845991 0
1 0.832746 0
0 1 0
0 1 0
0 1 0
0 1 0
0 1 0
0.236149 0.997497 0
0.767086 0.983032 0
0.970336 0.968109 0
1 0.959106 0
0 1 0
0 1 0
0 1 0
0 1 0
0 1 0
0 1 0
0.688609 1 0
0.934752 1 0
1 1 0
0 0 0.358038
0.148486 0 0.356039
0.39939 0 0.349218
0.588602 0 0.327626
0.767071 0 0.2056
0.938155 0 0
1 0 0
1 0 0
1 0 0
0 0.00448615 0.351629
0.131533 1.5259e-05 0.349767
0.397162 0 0.342641
0.588266 0 0.319738
0.767254 0 0.181292
0.938155 0 0
1 0 0
1 0 0
1 0 0
0 0.32015 0.309041
0 0.316991 0.306966
0.296315 0.296254 0.29633
0.533959 0.260212 0.26746
0.737667 0.169909 0
0.937926 0 0
1 0 0
1 0 0
1 0 0
0 0.491463 0
0 0.491356 0
0.0582895 0.479438 0
0.455421 0.460472 0
0.677943 0.431708 0
0.875212 0.370398 0
1 0 0
1 0 0
1 0 0
0 0.641337 0
0 0.641276 0
0 0.641154 0
0.280049 0.621714 0
0.59678 0.603052 0
0.814694 0.576562 0
0.996612 0.527474 0
1 0.395438 0
1 0 0
0 0.783978 0
0 0.783978 0
0 0.783902 0
0 0.78378 0
0.445167 0.757153 0
0.734752 0.738491 0
0.940459 0.71458 0
1 0.681102 0
1 0.646235 0
0 0.916716 0
0 0.916716 0
0 0.916716 0
0 0.916716 0
0 0.90779 0
0.604105 0.882399 0
0.863981 0.864561 0
1 0.845853 0
1 0.832609 0
0 1 0
0 1 0
0 1 0
0 1 0
0 1 0
0.234714 0.997467 0
0.766979 0.983032 0
0.970367 0.968032 0
1 0.95903 0
0 1 0
0 1 0
0 1 0
0 1 0
0 1 0
0 1 0
0.688487 1 0
0.934752 1 0
1 1 0
0 0 0.506859
0 0 0.506539
0.353552 0 0.503563
0.573144 0 0.496941
0.757168 0 0.476646
0.93196 0 0.373846
1 0 0
1 0 0
1 0 0
0 0 0.505257
0 0 0.504936
0.350332 0 0.501976
0.572534 0 0.495201
0.757092 0 0.474617
0.932006 0 0.368933
1 0 0
1 0 0
1 0 0
0 0.154879 0.495445
0 0.152026 0.495216
0.308095 0.102907 0.492576
0.559915 0 0.486732
0.756771 0 0.467079
0.932326 0 0.349111
1 0 0
1 0 0
1 0 0
0 0.468879 0.451255
0 0.468681 0.450797
0 0.458869 0.447852
0.437293 0.437278 0.437308
0.673457 0.40441 0.410361
0.879499 0.332036 0.176913
1 0 0
1 0 0
1 0 0
0 0.635752 0.142107
0 0.635767 0.136324
0 0.635615 0.113115
0.261509 0.616907 0
0.596994 0.597635 0
0.81622 0.570489 0
0.997848 0.519539 0
1 0.37496 0
1 0 0
0 0.782559 0
0 0.782483 0
0 0.782483 0
0 0.782361 0
0.44181 0.755886 0
0.734768 0.736965 0
0.940932 0.712901 0
1 0.679149 0
1 0.643778 0
0 0.916335 0
0 0.916335 0
0 0.916274 0
0 0.916274 0
0 0.908171 0
0.603296 0.881987 0
0.864027 0.864088 0
1 0.845365 0
1 0.832044 0
0 1 0
0 1 0
0 1 0
0 1 0
0 1 0
0.228977 0.997421 0
0.766781 0.982849 0
0.970367 0.967834 0
1 0.958892 0
0 1 0
0 1 0
0 1 0
0 1 0
0 1 0
0 1 0
0.688014 1 0
0.934661 1 0
1 1 0
0 0 0.651057
0 0 0.65098
0 0 0.650599
0.530861 0 0.646693
0.741787 0 0.640024
0.921569 0 0.620768
1 0 0.539254
1 0 0
1 0 0
0 0 0.650599
0 0 0.650538
0 0 0.650217
0.530007 0 0.64625
0.74165 0 0.639567
0.921508 0 0.620188
1 0 0.53814
1 0 0
1 0 0
0 0 0.648997
0 0 0.648936
0 0 0.648554
0.526986 0 0.644602
0.741115 0 0.637888
0.921431 0 0.618173
1 0 0.534066
1 0 0
1 0 0
0 0.321752 0.634318
0 0.321096 0.634226
0 0.318807 0.633997
0.45153 0.270253 0.630396
0.705058 0.176883 0.624765
0.921126 0 0.610697
1 0 0.518151
1 0 0
1 0 0
0 0.613291 0.58941
0 0.613214 0.589288
0 0.613031 0.58883
0.113298 0.596429 0.584772
0.574487 0.574136 0.574487
0.808179 0.543389 0.548775
0.998734 0.484306 0.392645
1 0.254765 0
1 0 0
0 0.77644 0.335607
0 0.776379 0.334691
0 0.776394 0.331182
0 0.776242 0.317769
0.418616 0.750469 0.241352
0.734829 0.731487 0
0.942473 0.706859 0
1 0.671901 0
1 0.634531 0
0 0.914717 0
0 0.914717 0
0 0.914717 0
0 0.914656 0
0 0.91107 0
0.600366 0.880583 0
0.864027 0.86244 0
1 0.843565 0
1 0.830137 0
0 1 0
0 1 0
0 1 0
0 1 0
0 1 0
0.207904 0.997208 0
0.766094 0.982315 0
0.970291 0.967239 0
1 0.958206 0
0 1 0
0 1 0
0 1 0
0 1 0
0 1 0
0 1 0
0.686488 1 0
0.934249 1 0
1 1 0
0 0 0.791592
0 0 0.791592
0 0 0.791455
0.14519 0 0.7906
0.701915 0 0.78616
0.906294 0 0.779583
1 0 0.762387
1 0 0.714733
1 0 0.593301
0 0 0.791455
0 0 0.791455
0 0 0.791394
0.131609 0 0.790509
0.701686 0 0.786023
0.90631 0 0.779461
1 0 0.762249
1 0 0.714549
1 0 0.59263
0 0 0.791012
0 0 0.791012
0 0 0.790875
0.067216 0 0.790173
0.700847 0 0.78558
0.906096 0 0.778943
1 0 0.761669
1 0 0.713695
1 0 0.590188
0 0 0.789334
0 0 0.789334
0 0 0.789273
0 0 0.788891
0.697841 0 0.783932
0.905486 0 0.777203
1 0 0.759655
1 0 0.710628
1 0 0.581018
0 0.478599 0.76907
0 0.478401 0.769085
0 0.477806 0.768978
0 0.475792 0.768765
0.588525 0.423133 0.76408
0.841581 0.352316 0.75848
1 0 0.752194
1 0 0.699062
1 0 0.54052
0 0.754147 0.724102
0 0.754086 0.724041
0 0.754086 0.723918
0 0.753902 0.723461
0.315587 0.730129 0.718349
0.708095 0.707683 0.708064
0.930388 0.679896 0.685512
1 0.640223 0.607614
1 0.595865 0
0 0.907591 0.534905
0 0.907591 0.534768
0 0.907591 0.534188
0 0.907546 0.532097
0 0.907439 0.524315
0.57055 0.874037 0.483665
0.859464 0.856016 0.147402
1 0.837217 0
1 0.823209 0
0 1 0
0 1 0
0 1 0
0 1 0
0 1 0
0.101839 0.996689 0
0.763516 0.980301 0
0.970382 0.965057 0
1 0.955917 0
0 1 0
0 1 0
0 1 0
0 1 0
0 1 0
0 1 0
0.680858 1 0
0.932921 1 0
1 1 0
0 0 0.923323
0 0 0.923323
0 0 0.923262
0 0 0.923201
0.475593 0 0.92108
0.870985 0 0.916701
1 0 0.910292
1 0 0.89778
1 0 0.881086
0 0 0.923262
0 0 0.923262
0 0 0.923262
0 0 0.923125
0.474479 0 0.921019
0.870909 0 0.91664
1 0 0.910231
1 0 0.89778
1 0 0.881025
0 0 0.923125
0 0 0.923125
0 0 0.923064
0 0 0.923003
0.470451 0 0.920913
0.87068 0 0.916518
1 0 0.910109
1 0 0.897581
1 0 0.880827
0 0 0.922621
0 0 0.922621
0 0 0.92256
0 0 0.922484
0.45478 0 0.920485
0.869825 0 0.915999
1 0 0.90959
1 0 0.897002
1 0 0.88011
0 0 0.920821
0 0 0.92076
0 0 0.92076
0 0 0.920623
0.378195 0 0.91899
0.866926 0 0.914168
1 0 0.907652
1 0 0.894865
1 0 0.877653
0 0.643824 0.893324
0 0.643824 0.893324
0 0.643687 0.893324
0 0.643168 0.893233
0 0.641474 0.892943
0.717769 0.585641 0.887022
0.95845 0.534981 0.8813
1 0.415213 0.871778
1 0 0.868666
0 0.886137 0.850324
0 0.886137 0.850324
0 0.886137 0.850248
0 0.886076 0.850126
0 0.885878 0.849607
0.496132 0.85417 0.843183
0.833356 0.832929 0.833326
1 0.811154 0.817365
1 0.795239 0.792676
0 1 0.741131
0 1 0.741054
0 1 0.740993
0 1 0.740642
0 1 0.739452
0 0.997711 0.732387
0.727916 0.971618 0.712261
0.951919 0.95584 0.665583
1 0.946624 0.559152
0 1 0
0 1 0
0 1 0
0 1 0
0 1 0
0 1 0
0.662043 1 0
0.928817 1 0
1 1 0
0 0 1
0 0 1
0 0 1
0 0 1
0 0 1
0.762951 0 1
1 0 1
1 0 1
1 0 1
0 0 1
0 0 1
0 0 1
0 0 1
0 0 1
0.762783 0 1
1 0 1
1 0 1
1 0 1
0 0 1
0 0 1
0 0 1
0 0 1
0 0 1
0.762295 0 1
1 0 1
1 0 1
1 0 1
0 0 1
0 0 1
0 0 1
0 0 1
0 0 1
0.760601 0 1
1 0 1
1 0 1
1 0 1
0 0 1
0 0 1
0 0 1
0 0 1
0 0 1
0.754147 0 1
1 0 1
1 0 1
1 0 1
0 0 1
0 0 1
0 0 1
0 0 1
0 0 1
0.729335 0 1
1 0 1
1 0 1
1 0 1
0 0.817411 0.990906
0 0.817411 0.990906
0 0.817411 0.990906
0 0.817273 0.990845
0 0.816953 0.990662
0.0650492 0.795422 0.987869
0.835447 0.757946 0.98262
1 0.728206 0.97705
1 0.70164 0.971054
0 0.993835 0.954192
0 0.993835 0.954192
0 0.993835 0.954131
0 0.99382 0.954131
0 0.99379 0.953933
0 0.993683 0.953216
0.686793 0.953292 0.945083
0.936217 0.936049 0.936202
1 0.924407 0.929091
0 1 0.909178
0 1 0.909178
0 1 0.909178
0 1 0.909117
0 1 0.908843
0 1 0.907881
0.554864 1 0.89897
0.886152 1 0.888426
1 1 0.875914
0 0 1
0 0 1
0 0 1
0 0 1
0 0 1
0 0 1
0.996216 0 1
1 0 1
1 0 1
0 0 1
0 0 1
0 0 1
0 0 1
0 0 1
0 0 1
0.996185 0 1
1 0 1
1 0 1
0 0 1
0 0 1
0 0 1
0 0 1
0 0 1
0 0 1
0.996155 0 1
1 0 1
1 0 1
0 0 1
0 0 1
0 0 1
0 0 1
0 0 1
0 0 1
0.996033 0 1
1 0 1
1 0 1
0 0 1
0 0 1
0 0 1
0 0 1
0 0 1
0 0 1
0.995651 0 1
1 0 1
1 0 1
0 0 1
0 0 1
0 0 1
0 0 1
0 0 1
0 0 1
0.994217 0 1
1 0 1
1 0 1
0 0 1
0 0 1
0 0 1
0 0 1
0 0 1
0 0 1
0.984344 0 1
1 0 1
1 0 1
0 0.965118 1
0 0.965118 1
0 0.965118 1
0 0.965118 1
0 0.964996 1
0 0.96466 1
0.638712 0.925246 1
0.936751 0.903655 1
1 0.890364 1
0 1 1
0 1 1
0 1 1
0 1 1
0 1 1
0 1 1
0.412741 1 1
0.863081 1 1
1 1 1
