Log3G10_RWG_to_ProNeg_Hi.cube
TITLE "Generated by Resolve"
LUT_3D_SIZE 33
0 0 0
0 0 0
0 0 0
0.00199893 0 0
0.0196384 0 0
0.0794537 0.00454719 0.00376898
0.174334 0.0243076 0.0208133
0.274922 0.0481727 0.0420844
0.370016 0.0707713 0.0627756
0.462089 0.0925765 0.0854353
0.553887 0.114046 0.112352
0.647059 0.135409 0.145464
0.746883 0.157366 0.189471
0.840848 0.176638 0.240681
0.929473 0.193301 0.302663
0.99382 0.207401 0.377127
1 0.214038 0.451698
1 0.219089 0.526299
1 0.227253 0.605859
1 0.232685 0.679545
1 0.233661 0.749126
1 0.232914 0.817777
1 0.232059 0.884398
1 0.231312 0.944381
1 0.230701 0.983642
1 0.231159 0.997421
1 0.238331 1
1 0.252872 1
1 0.282795 1
1 0.313512 1
1 0.348135 1
1 0.37615 1
1 0.382635 1
0 0 0
0 0 0
0 0 0
0.0010071 0 0
0.0171359 0 0
0.0754253 0.00404364 0.00308232
0.173251 0.0240635 0.0204318
0.275013 0.0482032 0.0420539
0.370413 0.0708934 0.0625925
0.458259 0.0917372 0.0834974
0.549538 0.113146 0.109377
0.642344 0.134493 0.141558
0.741527 0.15642 0.184588
0.835904 0.175952 0.235325
0.924727 0.192737 0.29604
0.990555 0.206912 0.369787
1 0.213916 0.444892
1 0.218158 0.518273
1 0.226886 0.601572
1 0.232685 0.679408
1 0.233661 0.749126
1 0.232914 0.817777
1 0.232059 0.884382
1 0.231312 0.944381
1 0.230701 0.983642
1 0.231159 0.997421
1 0.238331 1
1 0.252872 1
1 0.282795 1
1 0.313512 1
1 0.348135 1
1 0.37615 1
1 0.382635 1
0 0 0
0 0 0
0 0 0
0.00047303 0 0
0.0124514 0 0
0.0643473 0.00241093 0.00141909
0.160494 0.0213779 0.0171359
0.267445 0.0464179 0.0402533
0.372808 0.0714733 0.062974
0.455665 0.0911574 0.0821088
0.544182 0.112001 0.10605
0.636027 0.133242 0.136431
0.734264 0.155154 0.177707
0.829129 0.175067 0.227634
0.918273 0.192004 0.286915
0.987869 0.20647 0.359915
1 0.214084 0.43621
1 0.21738 0.508324
1 0.225803 0.591363
1 0.23241 0.67042
1 0.233722 0.746044
1 0.232914 0.817761
1 0.232059 0.884382
1 0.231312 0.944381
1 0.230701 0.983627
1 0.231159 0.997421
1 0.238331 1
1 0.252872 1
1 0.282795 1
1 0.313512 1
1 0.348135 1
1 0.37615 1
1 0.382635 1
0 0.00077821 0
0 0.000717174 0
0 0.000701915 0
0 0.000427253 0
0.0090486 0 0
0.0488594 0.00175479 0.000228885
0.134676 0.0165255 0.0106813
0.250507 0.0426795 0.035935
0.365682 0.0697948 0.0610666
0.451438 0.0902266 0.0797436
0.537499 0.110582 0.101579
0.628855 0.131868 0.129824
0.724926 0.153658 0.167041
0.820203 0.174044 0.21622
0.909407 0.191043 0.274266
0.98291 0.205844 0.346151
1 0.214267 0.423621
1 0.217029 0.495521
1 0.224659 0.578439
1 0.23183 0.657725
1 0.233829 0.734478
1 0.233005 0.810819
1 0.232059 0.884382
1 0.231312 0.944366
1 0.230701 0.983627
1 0.231159 0.997421
1 0.238331 1
1 0.252872 1
1 0.28278 1
1 0.313512 1
1 0.348135 1
1 0.37615 1
1 0.382635 1
0 0.00859083 0
0 0.00840772 0
0 0.00807202 0
0 0.00698863 0
0.00201419 0.00448615 0
0.0398871 0.00596628 0.00015259
0.114504 0.0174258 0.00646983
0.212634 0.0361486 0.026688
0.3364 0.0632944 0.0534218
0.446983 0.0892348 0.0776837
0.528634 0.10869 0.0957351
0.611429 0.128298 0.116594
0.712993 0.151629 0.153124
0.807309 0.172198 0.199069
0.897154 0.189868 0.256306
0.974884 0.205005 0.325551
1 0.214359 0.40412
1 0.21677 0.477394
1 0.222675 0.558709
1 0.230701 0.640375
1 0.233997 0.718898
1 0.233219 0.795193
1 0.232227 0.871778
1 0.231327 0.942504
1 0.230701 0.983627
1 0.231159 0.997421
1 0.238331 1
1 0.252872 1
1 0.28278 1
1 0.313512 1
1 0.348135 1
1 0.37615 1
1 0.382635 1
0.00108339 0.0410468 0
0.000991836 0.0399786 0
0.000961318 0.0390631 0
0.000885023 0.0377203 0
0.00112917 0.0326696 0
0.0128634 0.02121 0
0.0994583 0.027863 0.00325017
0.20209 0.0452277 0.0233005
0.303792 0.0620737 0.0454261
0.411551 0.0821241 0.068986
0.511681 0.104723 0.0904097
0.604471 0.126848 0.111055
0.687999 0.146685 0.131151
0.785 0.168704 0.170489
0.881346 0.1888 0.228214
0.962264 0.204349 0.29453
1 0.215 0.372717
1 0.216861 0.449149
1 0.21912 0.525109
1 0.228 0.612268
1 0.233433 0.694286
1 0.233478 0.772595
1 0.232486 0.85127
1 0.231556 0.924636
1 0.230777 0.980728
1 0.231159 0.997421
1 0.238331 1
1 0.252857 1
1 0.28278 1
1 0.313497 1
1 0.348135 1
1 0.376135 1
1 0.382635 1
0.0125582 0.099382 0
0.0122377 0.0979477 0
0.0116121 0.095613 0
0.0108339 0.092607 0
0.00985733 0.0889143 0
0.0119478 0.0776532 0
0.0438239 0.0586557 0
0.158572 0.0621805 0.0059968
0.306523 0.085008 0.0433661
0.411963 0.0943465 0.0675364
0.491997 0.105028 0.0856641
0.580453 0.121614 0.105089
0.671977 0.142916 0.126619
0.762585 0.164294 0.150698
0.852461 0.184848 0.184482
0.949493 0.204639 0.25417
0.998322 0.216602 0.332067
1 0.219348 0.41294
1 0.218128 0.487846
1 0.224216 0.572152
1 0.231952 0.656962
1 0.233845 0.738308
1 0.232883 0.819272
1 0.231891 0.897749
1 0.231037 0.965301
1 0.230625 0.995529
1 0.237263 1
1 0.252857 1
1 0.28278 1
1 0.313497 1
1 0.348135 1
1 0.376135 1
1 0.382635 1
0.0334325 0.174884 0.00303655
0.0329137 0.173114 0.00291447
0.0321202 0.170321 0.00273136
0.0309606 0.166186 0.00241093
0.0293126 0.160418 0.00195315
0.0275425 0.154314 0.00140383
0.0398871 0.135714 0.000259403
0.0868849 0.110689 0
0.232563 0.108934 0.0106661
0.398688 0.129366 0.0606394
0.50985 0.129427 0.087129
0.581399 0.133547 0.103716
0.658869 0.141772 0.121401
0.747036 0.160861 0.142641
0.829374 0.180041 0.16846
0.916625 0.199725 0.20499
0.990799 0.218128 0.282811
1 0.222812 0.36965
1 0.219089 0.449516
1 0.219409 0.525597
1 0.22829 0.614771
1 0.2336 0.701411
1 0.233402 0.780575
1 0.23238 0.859419
1 0.231449 0.932036
1 0.230716 0.982696
1 0.232776 1
1 0.244358 1
1 0.281437 1
1 0.313497 1
1 0.348119 1
1 0.376135 1
1 0.382635 1
0.0597543 0.267552 0.0134432
0.059205 0.265644 0.0132296
0.0584115 0.262867 0.0129397
0.0571145 0.258335 0.0124514
0.0552682 0.25185 0.0116732
0.0521553 0.240879 0.0102998
0.0513466 0.233051 0.00918593
0.0768902 0.210361 0.00466926
0.146334 0.180224 0.0011902
0.320455 0.169574 0.0177615
0.476646 0.185672 0.0720226
0.597833 0.176623 0.103273
0.676646 0.171069 0.122194
0.752377 0.169635 0.14052
0.825772 0.179675 0.159304
0.89369 0.195209 0.185489
0.958556 0.212726 0.226719
1 0.227283 0.308309
1 0.223713 0.403159
1 0.217838 0.477989
1 0.223041 0.563638
1 0.23183 0.65713
1 0.233799 0.742275
1 0.232868 0.821591
1 0.231922 0.895796
1 0.231128 0.957885
1 0.23093 0.993255
1 0.23331 1
1 0.252476 1
1 0.286305 1
1 0.335012 1
1 0.37612 1
1 0.382635 1
0.0873426 0.364691 0.0258946
0.0870069 0.363546 0.0255436
0.0863203 0.361135 0.0251926
0.0853132 0.357626 0.0247807
0.0836805 0.351888 0.0241703
0.0810864 0.342779 0.0230564
0.0766766 0.32723 0.0211032
0.0803845 0.319051 0.019501
0.126772 0.293751 0.0134585
0.222431 0.261662 0.00283818
0.406699 0.246647 0.0235142
0.554223 0.24828 0.0751507
0.679988 0.237293 0.117906
0.776364 0.219883 0.140841
0.844755 0.203082 0.158892
0.906371 0.199344 0.175204
0.959976 0.211612 0.200946
0.993454 0.225147 0.243671
1 0.231632 0.323476
1 0.222629 0.424598
1 0.218936 0.503151
1 0.227329 0.602869
1 0.233646 0.698833
1 0.233402 0.781643
1 0.23241 0.857618
1 0.231556 0.924407
1 0.230869 0.973144
1 0.23093 0.998764
1 0.237415 0.999969
1 0.252827 1
1 0.278065 1
1 0.305379 1
1 0.322744 1
0.112978 0.454795 0.038117
0.112963 0.45478 0.038117
0.112383 0.452781 0.0374151
0.111543 0.449897 0.0365606
0.110185 0.445228 0.0357519
0.108049 0.437736 0.0349279
0.104662 0.425772 0.0334478
0.100389 0.410742 0.0315709
0.112352 0.401572 0.0290227
0.191592 0.374182 0.0234379
0.310384 0.345251 0.00486763
0.48513 0.333181 0.0281834
0.634501 0.314794 0.074403
0.757122 0.311406 0.12987
0.862318 0.277607 0.156024
0.933227 0.244953 0.175311
0.977172 0.222583 0.191348
0.996918 0.227085 0.211368
1 0.233173 0.26154
1 0.232593 0.338643
1 0.22179 0.434699
1 0.220279 0.526528
1 0.230243 0.636774
1 0.233646 0.733761
1 0.232929 0.816526
1 0.232029 0.887312
1 0.231281 0.946029
1 0.230808 0.988373
1 0.233402 0.997116
1 0.240345 1
1 0.254994 1
1 0.26833 1
1 0.27422 1
0.137926 0.542382 0.0508888
0.137926 0.542367 0.0508736
0.137758 0.541863 0.0505379
0.136904 0.53901 0.0493935
0.135744 0.535088 0.0479133
0.133837 0.528496 0.046128
0.131197 0.51928 0.0451362
0.127184 0.505119 0.0433814
0.122744 0.489509 0.0414282
0.151583 0.477073 0.0367742
0.268345 0.446525 0.0364385
0.398199 0.422599 0.00721752
0.562188 0.413199 0.0326543
0.712551 0.386236 0.0768292
0.83534 0.382849 0.13196
0.93521 0.346975 0.16878
0.992172 0.293462 0.189609
1 0.245594 0.205509
1 0.237278 0.222873
1 0.237903 0.272496
1 0.234058 0.332006
1 0.222049 0.436088
1 0.222004 0.548074
1 0.231937 0.668116
1 0.233539 0.76463
1 0.232593 0.843259
1 0.231769 0.90753
1 0.231205 0.958297
1 0.231876 0.989441
1 0.235294 0.999451
1 0.244144 1
1 0.252049 1
1 0.254932 1
0.164309 0.634363 0.0674144
0.164309 0.634348 0.0673991
0.164309 0.634348 0.0673991
0.163821 0.632792 0.0663462
0.162448 0.628458 0.0632181
0.160678 0.62269 0.0600443
0.157855 0.613077 0.0567788
0.154696 0.602029 0.0554971
0.149981 0.585412 0.0534218
0.145693 0.568566 0.0512551
0.209232 0.549966 0.0435798
0.352071 0.517357 0.0390021
0.481132 0.495933 0.00544747
0.63801 0.488624 0.0377966
0.786969 0.459373 0.0804456
0.906126 0.452796 0.136751
0.980011 0.418738 0.180484
1 0.347845 0.196323
1 0.26833 0.212467
1 0.242313 0.228443
1 0.239338 0.279835
1 0.235843 0.318151
1 0.222812 0.432959
1 0.222751 0.563088
1 0.233021 0.691981
1 0.233341 0.786496
1 0.232349 0.862058
1 0.231647 0.91957
1 0.231815 0.96437
1 0.233982 0.991653
1 0.23917 0.996933
1 0.244266 0.999786
1 0.246021 1
0.191699 0.72903 0.0882887
0.191699 0.72903 0.0882887
0.191699 0.72903 0.0882887
0.191699 0.729015 0.0882887
0.190661 0.725933 0.0851453
0.188785 0.720119 0.0801862
0.185885 0.711162 0.0727703
0.182467 0.699825 0.0677195
0.178622 0.68632 0.066041
0.173327 0.667689 0.0637217
0.174472 0.649866 0.0608835
0.285206 0.623148 0.0544289
0.437415 0.590127 0.0332341
0.55964 0.568933 0.00242618
0.715541 0.562554 0.0440681
0.853925 0.533578 0.0885634
0.967651 0.511818 0.138491
0.999771 0.479713 0.183169
1 0.409171 0.198001
1 0.307713 0.212451
1 0.248524 0.226474
1 0.239429 0.27895
1 0.237873 0.299413
1 0.223774 0.415717
1 0.224308 0.566049
1 0.2327 0.699184
1 0.23328 0.793591
1 0.232349 0.865553
1 0.232197 0.923766
1 0.233204 0.964279
1 0.236561 0.98526
1 0.239567 0.996582
1 0.240269 0.999405
0.217914 0.817853 0.117128
0.217914 0.817853 0.117128
0.217914 0.817853 0.117128
0.217914 0.817853 0.117128
0.217914 0.817838 0.117128
0.216342 0.813413 0.111223
0.213672 0.805982 0.100221
0.209735 0.794614 0.0860456
0.206348 0.78381 0.078645
0.201984 0.768597 0.0763561
0.196475 0.749203 0.0739147
0.211063 0.731487 0.0698253
0.38027 0.696025 0.068925
0.522683 0.663188 0.0394903
0.637827 0.643641 0.0009308
0.788571 0.63566 0.048188
0.913725 0.607065 0.0968338
0.999359 0.561425 0.137758
1 0.528893 0.179278
1 0.46978 0.197223
1 0.385351 0.206867
1 0.287785 0.218189
1 0.248554 0.26006
1 0.238407 0.292012
1 0.226764 0.39118
1 0.226246 0.543282
1 0.23093 0.682567
1 0.233356 0.787305
1 0.233173 0.862119
1 0.234104 0.91606
1 0.236744 0.958267
1 0.239094 0.982727
1 0.239612 0.988022
0.240513 0.891524 0.156634
0.240513 0.891524 0.156634
0.240513 0.891524 0.156634
0.240513 0.891524 0.156634
0.240513 0.891524 0.156634
0.240513 0.891508 0.156619
0.238315 0.886336 0.143023
0.234791 0.877699 0.122728
0.230564 0.867277 0.0986954
0.22742 0.857984 0.0880293
0.223072 0.842878 0.0856336
0.217914 0.82472 0.0833753
0.268025 0.806119 0.0758373
0.484321 0.76347 0.0839704
0.600092 0.736095 0.0401312
0.712734 0.715175 0
0.854444 0.706523 0.0476387
0.963577 0.67393 0.103212
1 0.614206 0.139193
1 0.56788 0.171099
1 0.524224 0.191058
1 0.467643 0.198688
1 0.377707 0.209094
1 0.290211 0.235843
1 0.24007 0.271717
1 0.231373 0.350927
1 0.224018 0.491142
1 0.232486 0.658518
1 0.234409 0.76083
1 0.236286 0.839033
1 0.238758 0.891722
1 0.240757 0.934462
1 0.241184 0.942931
0.256977 0.941314 0.20444
0.256977 0.941299 0.20444
0.256977 0.941299 0.20444
0.256977 0.941299 0.20444
0.256977 0.941299 0.20444
0.256977 0.941299 0.204425
0.256977 0.941299 0.204425
0.254368 0.936828 0.179965
0.250248 0.929198 0.144137
0.246433 0.922576 0.108614
0.243732 0.915496 0.0951858
0.239979 0.902449 0.0930953
0.236484 0.888655 0.0913252
0.357229 0.86685 0.0799573
0.577371 0.822919 0.104311
0.67129 0.802823 0.0265965
0.782177 0.780819 0
0.913161 0.77203 0.0446632
0.994751 0.741878 0.106645
1 0.685756 0.142412
1 0.621775 0.1664
1 0.573877 0.176791
1 0.533578 0.188754
1 0.468864 0.197345
1 0.366949 0.217304
1 0.247593 0.243351
1 0.239094 0.276417
1 0.22504 0.400092
1 0.227802 0.551598
1 0.239628 0.702129
1 0.245335 0.779858
1 0.249058 0.836301
1 0.249775 0.851621
0.266804 0.965835 0.258595
0.266804 0.965835 0.258595
0.266804 0.965835 0.258595
0.266804 0.965835 0.258595
0.266804 0.965835 0.258595
0.266804 0.965835 0.258579
0.266804 0.965835 0.258579
0.266804 0.965835 0.258579
0.263874 0.963012 0.220295
0.259937 0.959518 0.166888
0.256199 0.956024 0.117708
0.253971 0.951598 0.099321
0.251652 0.943511 0.0982376
0.254856 0.934112 0.0964828
0.47306 0.909331 0.0837568
0.65742 0.870985 0.112444
0.737057 0.857588 0.0108949
0.845136 0.837263 0
0.96527 0.82948 0.0412604
1 0.805951 0.10132
1 0.763424 0.135744
1 0.702815 0.162112
1 0.647883 0.16965
1 0.58967 0.173907
1 0.543099 0.184222
1 0.472862 0.200381
1 0.316564 0.215778
1 0.283253 0.231571
1 0.237095 0.284733
1 0.228305 0.381567
1 0.233783 0.484565
1 0.246143 0.597498
1 0.249271 0.628031
0.272068 0.973846 0.313115
0.272068 0.973846 0.313115
0.272068 0.973846 0.313115
0.272068 0.973846 0.313115
0.272068 0.973846 0.313115
0.272068 0.973846 0.313115
0.272068 0.973846 0.313115
0.272068 0.973846 0.313115
0.272068 0.973846 0.3131
0.268742 0.972915 0.258305
0.264561 0.972 0.188006
0.260578 0.970794 0.122774
0.258961 0.969223 0.10135
0.257801 0.965209 0.100954
0.297139 0.959213 0.0962387
0.586755 0.930709 0.108293
0.724941 0.905257 0.0773785
0.799741 0.899046 0.00123598
0.903456 0.883452 0
0.994629 0.876371 0.0357214
1 0.858747 0.0845655
1 0.835859 0.114137
1 0.794293 0.142565
1 0.742596 0.157717
1 0.680034 0.166949
1 0.610758 0.168811
1 0.560632 0.180377
1 0.466789 0.191638
1 0.394766 0.207889
1 0.327153 0.216327
1 0.265248 0.231876
1 0.261311 0.285222
1 0.259968 0.298451
0.27509 0.974533 0.364172
0.27509 0.974533 0.364172
0.27509 0.974533 0.364172
0.27509 0.974533 0.364172
0.27509 0.974533 0.364172
0.27509 0.974533 0.364172
0.27509 0.974533 0.364172
0.27509 0.974533 0.364157
0.27509 0.974533 0.364157
0.27509 0.974533 0.364157
0.271214 0.975113 0.292103
0.2663 0.97525 0.203357
0.261799 0.975448 0.12192
0.260609 0.975082 0.102113
0.261082 0.973922 0.101915
0.414633 0.965896 0.0863966
0.677729 0.937118 0.132418
0.781445 0.928466 0.016022
0.858595 0.925994 0
0.957259 0.915785 0
0.999603 0.910414 0.0272221
1 0.898817 0.0610208
1 0.884947 0.0833295
1 0.863645 0.103975
1 0.834058 0.127138
1 0.787869 0.147005
1 0.723095 0.158206
1 0.669047 0.169177
1 0.597833 0.170062
1 0.541222 0.184482
1 0.499794 0.19704
1 0.446006 0.202823
1 0.431159 0.204105
0.277409 0.973312 0.411582
0.277409 0.973312 0.411582
0.277409 0.973312 0.411582
0.277409 0.973312 0.411582
0.277409 0.973312 0.411582
0.277409 0.973312 0.411582
0.277409 0.973312 0.411582
0.277409 0.973312 0.411582
0.277409 0.973312 0.411582
0.277409 0.973312 0.411566
0.277195 0.973373 0.407721
0.272557 0.974273 0.320089
0.266468 0.975021 0.207645
0.261555 0.975647 0.116747
0.260838 0.975921 0.102159
0.280919 0.975189 0.100114
0.567102 0.960357 0.0979477
0.750408 0.940536 0.0966049
0.830198 0.94081 0
0.914977 0.940261 0
0.989303 0.933913 0.000411994
1 0.930678 0.0201419
1 0.925246 0.0389258
1 0.916472 0.0528115
1 0.904189 0.0673838
1 0.887694 0.0843824
1 0.863645 0.104112
1 0.829969 0.122667
1 0.795651 0.143511
1 0.741238 0.151705
1 0.690852 0.162753
1 0.654612 0.172198
1 0.645624 0.174746
0.279713 0.972305 0.452644
0.279713 0.972305 0.452644
0.279713 0.972305 0.452644
0.279713 0.972305 0.452628
0.279713 0.972305 0.452628
0.279713 0.972305 0.452628
0.279713 0.972305 0.452628
0.279713 0.972305 0.452628
0.279713 0.972305 0.452628
0.279713 0.972305 0.452628
0.279713 0.972305 0.452628
0.278981 0.972396 0.439643
0.273442 0.973205 0.340124
0.265751 0.97406 0.199786
0.260884 0.974716 0.109087
0.260868 0.975082 0.101976
0.377508 0.971115 0.0907912
0.679973 0.948653 0.141222
0.808423 0.944991 0
0.879896 0.946639 0
0.964294 0.946136 0
0.998489 0.942626 0.00291447
1 0.940627 0.0166171
1 0.938796 0.0250553
1 0.934752 0.0315557
1 0.928191 0.0398108
1 0.919539 0.049958
1 0.908156 0.0624399
1 0.896101 0.0758984
1 0.876982 0.0911116
1 0.862913 0.104631
1 0.841031 0.114931
1 0.830274 0.11751
0.281621 0.972045 0.486305
0.281621 0.972045 0.486305
0.281621 0.972045 0.486305
0.281621 0.972045 0.486305
0.281621 0.972045 0.486305
0.281621 0.972045 0.486305
0.281621 0.972045 0.486305
0.281621 0.972045 0.486305
0.281621 0.972045 0.486305
0.281621 0.972045 0.486305
0.281621 0.972045 0.486305
0.281621 0.972045 0.486305
0.279942 0.972198 0.456031
0.273899 0.972778 0.347341
0.264454 0.973617 0.176837
0.260349 0.973968 0.102937
0.280919 0.973404 0.100008
0.56083 0.960067 0.103349
0.766461 0.944244 0.0741894
0.858747 0.946975 0
0.931151 0.948272 0
0.989929 0.94725 0
1 0.945907 0.0112154
1 0.944778 0.0171969
1 0.944106 0.019089
1 0.942779 0.0209659
1 0.940291 0.0242313
1 0.936767 0.0288701
1 0.933639 0.0330663
1 0.927474 0.0404059
1 0.922011 0.0471504
1 0.915831 0.0539254
1 0.912779 0.0569009
0.283299 0.971923 0.516274
0.283299 0.971923 0.516274
0.283299 0.971923 0.516274
0.283299 0.971923 0.516274
0.283299 0.971923 0.516274
0.283299 0.971923 0.516274
0.283299 0.971923 0.516274
0.283299 0.971923 0.516274
0.283299 0.971923 0.516274
0.283299 0.971923 0.516274
0.283299 0.971923 0.516274
0.283299 0.971923 0.516274
0.283299 0.971923 0.516258
0.280415 0.972152 0.464546
0.273411 0.972763 0.338018
0.26276 0.973693 0.146044
0.260243 0.973877 0.101793
0.410056 0.968551 0.0882734
0.70721 0.944503 0.152941
0.833707 0.945754 0
0.909407 0.947677 0
0.972396 0.947524 0
0.998627 0.946517 0.00373846
1 0.946456 0.0200351
1 0.945846 0.0198672
1 0.945556 0.0183261
1 0.945266 0.0180362
1 0.944625 0.0187381
1 0.944076 0.0193179
1 0.942733 0.0210575
1 0.942123 0.0218357
1 0.940337 0.0240482
1 0.939147 0.0255283
0.284993 0.971771 0.546548
0.284993 0.971771 0.546548
0.284993 0.971771 0.546548
0.284993 0.971771 0.546548
0.284993 0.971771 0.546548
0.284993 0.971771 0.546548
0.284993 0.971771 0.546548
0.284993 0.971771 0.546548
0.284993 0.971771 0.546548
0.284993 0.971771 0.546548
0.284993 0.971771 0.546548
0.284993 0.971771 0.546548
0.284993 0.971771 0.546548
0.284993 0.971771 0.546548
0.280522 0.972152 0.46627
0.271794 0.972915 0.308721
0.261387 0.9738 0.121675
0.293538 0.972763 0.101854
0.619852 0.953735 0.126986
0.800717 0.94464 0.00103761
0.887022 0.947097 0
0.950591 0.947326 0
0.994156 0.94641 0.000732433
1 0.945541 0.0123598
1 0.946166 0.0279393
1 0.9458 0.0244755
1 0.945663 0.0209354
1 0.945678 0.0191653
1 0.945769 0.0180972
1 0.945525 0.0180819
1 0.945495 0.0179446
1 0.94522 0.0182193
1 0.945068 0.0184024
0.28658 0.971649 0.574487
0.28658 0.971649 0.574487
0.28658 0.971649 0.574487
0.28658 0.971649 0.574487
0.28658 0.971649 0.574487
0.28658 0.971649 0.574487
0.28658 0.971649 0.574487
0.28658 0.971649 0.574487
0.28658 0.971649 0.574487
0.28658 0.971649 0.574487
0.28658 0.971649 0.574487
0.28658 0.971649 0.574487
0.28658 0.971649 0.574487
0.28658 0.971649 0.574487
0.28658 0.971649 0.574472
0.28011 0.972198 0.458839
0.268727 0.973175 0.253437
0.264012 0.97377 0.144274
0.479698 0.96556 0.121202
0.754498 0.944747 0.0812848
0.863188 0.94641 0
0.93106 0.947433 0
0.982696 0.9467 0
1 0.945525 0.00579843
1 0.944961 0.0207065
1 0.94583 0.0328069
1 0.945541 0.0284733
1 0.945373 0.0242466
1 0.945418 0.0223697
1 0.94551 0.0213626
1 0.945602 0.0204166
1 0.945571 0.0202487
1 0.945571 0.0202182
0.288121 0.971557 0.600198
0.288121 0.971557 0.600198
0.288121 0.971557 0.600198
0.288121 0.971557 0.600198
0.288121 0.971557 0.600198
0.288121 0.971557 0.600198
0.288121 0.971557 0.600198
0.288121 0.971557 0.600198
0.288121 0.971557 0.600198
0.288121 0.971557 0.600198
0.288121 0.971557 0.600198
0.288121 0.971557 0.600198
0.288121 0.971557 0.600198
0.288121 0.971557 0.600198
0.288121 0.971557 0.600198
0.286 0.971695 0.564324
0.278538 0.97232 0.430503
0.269078 0.973251 0.246998
0.35938 0.975189 0.195941
0.682567 0.952636 0.181933
0.835615 0.947005 0.00624094
0.913588 0.947585 0
0.968475 0.947066 0
0.997131 0.945953 0.00216678
1 0.945022 0.0143587
1 0.944961 0.0272984
1 0.945632 0.0352941
1 0.945281 0.0307164
1 0.945235 0.0306706
1 0.94522 0.0284123
1 0.945113 0.0252995
1 0.94519 0.0245365
1 0.94522 0.0242466
0.289647 0.971511 0.624231
0.289647 0.971511 0.624231
0.289647 0.971511 0.624231
0.289647 0.971511 0.624231
0.289647 0.971511 0.624231
0.289647 0.971511 0.624231
0.289647 0.971511 0.624231
0.289647 0.971511 0.624231
0.289647 0.971511 0.624231
