Log3G10_RWG_to_ProNeg_Std.cube
TITLE "Generated by Resolve"
LUT_3D_SIZE 9
0.0216831 0.0213779 0.0215305
0.0729992 0.0278019 0.029572
0.372244 0.0802625 0.0967575
0.730465 0.154788 0.223056
1 0.209537 0.45359
1 0.241108 0.731579
1 0.250568 0.971572
1 0.327062 1
1 0.407767 1
0.0173495 0.0608835 0.0168307
0.0445106 0.0517128 0.0123293
0.338659 0.0834821 0.0801099
0.699229 0.150362 0.190265
0.998306 0.20853 0.412055
1 0.239399 0.700389
1 0.250568 0.971572
1 0.327047 1
1 0.407767 1
0.0662394 0.282872 0.0428168
0.063035 0.269703 0.0321355
0.173953 0.210773 0.00727855
0.653544 0.195987 0.141985
0.944381 0.203601 0.260075
1 0.221027 0.554528
1 0.245991 0.877806
1 0.296651 1
1 0.407767 1
0.148119 0.633173 0.106661
0.146654 0.627314 0.0999619
0.136217 0.584482 0.0691691
0.455589 0.500664 0.012665
0.950561 0.418585 0.215518
1 0.226154 0.307454
1 0.236728 0.674708
1 0.257816 0.945754
1 0.28986 0.999985
0.218524 0.928313 0.237339
0.218524 0.928313 0.237339
0.214878 0.916716 0.185016
0.211505 0.879194 0.103243
0.742382 0.78613 0.00265507
0.998627 0.639582 0.239567
0.999191 0.368353 0.258549
1 0.237797 0.543709
1 0.285389 0.829587
0.239063 0.967376 0.407874
0.239063 0.967376 0.407874
0.239063 0.967376 0.407874
0.233799 0.96582 0.240421
0.527565 0.954253 0.107805
0.943557 0.931548 0
1 0.912596 0.0607309
1 0.816846 0.176104
0.996674 0.664744 0.237079
0.243915 0.968338 0.52987
0.243915 0.968338 0.52987
0.243915 0.968338 0.52987
0.243915 0.968338 0.52987
0.234806 0.965942 0.159075
0.832639 0.948516 0
0.998657 0.948806 0.0150301
1 0.946548 0.0039826
1 0.945068 0.00454719
0.248356 0.969039 0.626673
0.248356 0.969039 0.626673
0.248356 0.969039 0.626673
0.248356 0.969039 0.626673
0.24773 0.968948 0.615808
0.721706 0.942992 0.370153
0.970886 0.95111 0.00560006
1 0.951141 0.0564736
1 0.952056 0.0788586
0.251377 0.969451 0.682216
0.251377 0.969451 0.682216
0.251377 0.969451 0.682216
0.251377 0.969451 0.682216
0.251377 0.969451 0.682216
0.607217 0.979889 0.516396
0.941985 0.962707 0.188663
0.999237 0.95581 0.14641
0.999634 0.958434 0.201968
0.0269474 0.0311437 0.085893
0.0729076 0.0261234 0.0831922
0.348867 0.0727703 0.110384
0.728435 0.153582 0.230274
1 0.209781 0.455985
1 0.241108 0.731563
1 0.250568 0.971572
1 0.327062 1
1 0.407767 1
0.0150149 0.0499428 0.0509041
0.0458686 0.0453498 0.0473335
0.369039 0.0903182 0.108186
0.69987 0.150103 0.194644
0.998795 0.208606 0.414694
1 0.239521 0.702876
1 0.250568 0.971572
1 0.327047 1
1 0.407767 1
0.0652476 0.278462 0.0434882
0.0621805 0.266056 0.031693
0.17435 0.207645 0.00610361
0.652537 0.194018 0.141802
0.946151 0.203952 0.26125
1 0.221302 0.556344
1 0.246021 0.879194
1 0.298116 1
1 0.407767 1
0.147906 0.632242 0.106432
0.146456 0.626459 0.0998398
0.136004 0.583597 0.0690623
0.455711 0.49987 0.011841
0.950927 0.41735 0.215457
1 0.226139 0.307622
1 0.236774 0.675425
1 0.257877 0.946273
1 0.289952 0.999985
0.218509 0.928222 0.237217
0.218509 0.928222 0.237217
0.214862 0.916609 0.185061
0.211475 0.879011 0.103212
0.742428 0.785931 0.00260929
0.998611 0.639216 0.239597
0.999207 0.368154 0.258549
1 0.238025 0.545419
1 0.285374 0.830106
0.239063 0.967376 0.407843
0.239063 0.967376 0.407843
0.239063 0.967376 0.407843
0.233799 0.96582 0.240436
0.527672 0.954238 0.107866
0.943587 0.931533 0
1 0.912566 0.0607767
1 0.816556 0.176379
0.996658 0.664515 0.23711
0.243915 0.968338 0.52987
0.243915 0.968338 0.52987
0.243915 0.968338 0.529854
0.243915 0.968338 0.529854
0.234821 0.965942 0.159365
0.832837 0.948547 0
0.998642 0.948806 0.0149996
1 0.946548 0.00396735
1 0.945068 0.00454719
0.248356 0.969039 0.626673
0.248356 0.969039 0.626673
0.248356 0.969039 0.626673
0.248356 0.969039 0.626673
0.24773 0.968948 0.615961
0.721706 0.942992 0.370138
0.970855 0.95111 0.00560006
1 0.951125 0.0563363
1 0.952056 0.0788128
0.251377 0.969451 0.682216
0.251377 0.969451 0.682216
0.251377 0.969451 0.682216
0.251377 0.969451 0.682216
0.251377 0.969451 0.682216
0.607401 0.979889 0.516335
0.941833 0.962737 0.188998
0.999237 0.95581 0.14641
0.999634 0.958434 0.201968
0.0510414 0.126467 0.422217
0.0918288 0.115862 0.428489
0.361105 0.102235 0.381613
0.734981 0.1617 0.460502
1 0.21323 0.52108
1 0.241093 0.731533
1 0.250568 0.971572
1 0.327047 1
1 0.407767 1
0.045182 0.123873 0.382177
0.0637217 0.112734 0.390249
0.342138 0.103609 0.36199
0.686137 0.146471 0.382574
0.999695 0.207385 0.471229
1 0.24004 0.711437
1 0.250568 0.971557
1 0.327047 1
1 0.407767 1
0.0421454 0.210742 0.214405
0.0399786 0.200229 0.204501
0.194003 0.191745 0.212833
0.686625 0.195621 0.25893
0.965316 0.206607 0.286976
1 0.2224 0.563195
1 0.246143 0.883528
1 0.302296 1
1 0.407767 1
0.145388 0.620569 0.11545
0.143923 0.614801 0.10837
0.134722 0.578073 0.0684215
0.456092 0.497047 0.00889601
0.951949 0.413291 0.215198
1 0.226078 0.308537
1 0.236988 0.678325
1 0.25803 0.947631
1 0.290333 0.999985
0.218418 0.927886 0.236774
0.218418 0.927871 0.236759
0.214786 0.916289 0.185336
0.211292 0.878462 0.103166
0.742901 0.785092 0.00238041
0.998581 0.637858 0.239719
0.999237 0.364675 0.25893
1 0.238239 0.547494
1 0.285328 0.831434
0.239063 0.967376 0.407721
0.239063 0.967376 0.407721
0.239063 0.967376 0.407721
0.233783 0.96582 0.240726
0.52723 0.954238 0.107851
0.943786 0.931441 0
1 0.91249 0.0609293
1 0.816266 0.176593
0.996628 0.663951 0.237156
0.243915 0.968338 0.529824
0.243915 0.968338 0.529824
0.243915 0.968338 0.529824
0.243915 0.968338 0.529824
0.234821 0.965942 0.159289
0.832609 0.948516 0
0.998642 0.948806 0.0150149
1 0.946548 0.00396735
1 0.945068 0.00454719
0.248356 0.969039 0.626657
0.248356 0.969039 0.626657
0.248356 0.969039 0.626657
0.248356 0.969039 0.626642
0.247761 0.968948 0.616342
0.722042 0.94287 0.370001
0.970825 0.95111 0.00560006
1 0.951141 0.0563821
1 0.952041 0.0787366
0.251377 0.969451 0.682216
0.251377 0.969451 0.682216
0.251377 0.969451 0.682216
0.251377 0.969451 0.682216
0.251377 0.969451 0.682216
0.607202 0.979889 0.516381
0.942061 0.962692 0.188495
0.999237 0.95581 0.14638
0.999634 0.958434 0.201968
0.0740063 0.260334 0.813413
0.0985885 0.252186 0.808118
0.41004 0.180484 0.818845
0.751324 0.19585 0.774334
1 0.240192 0.87303
1 0.246632 0.900908
1 0.250568 0.971542
1 0.327047 1
1 0.407767 1
0.0720836 0.257343 0.805646
0.0905165 0.252628 0.800549
0.397925 0.177768 0.816083
0.743465 0.192157 0.764401
1 0.239887 0.867475
1 0.246509 0.896269
1 0.250568 0.971542
1 0.327031 1
1 0.407767 1
0.0820783 0.279011 0.684031
0.0793317 0.274067 0.695094
0.162921 0.218967 0.727657
0.688685 0.194018 0.719188
0.981109 0.223316 0.723613
1 0.241947 0.744961
1 0.246677 0.902403
1 0.317678 1
1 0.407767 1
0.148211 0.535073 0.560693
0.146227 0.529442 0.554711
0.129931 0.487861 0.518456
0.473335 0.476875 0.506889
0.952361 0.419654 0.504524
1 0.221164 0.378103
1 0.23772 0.688869
1 0.258305 0.952743
1 0.291707 1
0.217334 0.915724 0.330037
0.217319 0.915831 0.328237
0.212955 0.90222 0.261006
0.203113 0.869902 0.102724
0.743587 0.781704 0.00167849
0.998444 0.632898 0.240177
0.999329 0.355306 0.259876
1 0.239567 0.558663
1 0.285145 0.837171
0.239017 0.967376 0.407279
0.239017 0.967376 0.407279
0.239017 0.967376 0.407263
0.233783 0.96582 0.241856
0.526955 0.954116 0.108095
0.944076 0.931197 0
1 0.912123 0.0615854
1 0.814359 0.178225
0.996475 0.661448 0.23743
0.2439 0.968338 0.529702
0.2439 0.968338 0.529702
0.2439 0.968338 0.529702
0.2439 0.968338 0.529686
0.234821 0.965942 0.159411
0.832715 0.948531 0
0.998672 0.948806 0.0150607
1 0.946532 0.00395209
1 0.945037 0.00456245
0.248356 0.969039 0.626596
0.248356 0.969039 0.626596
0.248356 0.969039 0.626596
0.248356 0.969039 0.626581
0.247837 0.968963 0.617716
0.721584 0.943008 0.369848
0.970916 0.951095 0.00556954
1 0.951125 0.0563668
1 0.952041 0.078584
0.251377 0.969451 0.682216
0.251377 0.969451 0.682216
0.251377 0.969451 0.682216
0.251377 0.969451 0.682216
0.251377 0.969451 0.682216
0.606806 0.979889 0.516472
0.941833 0.962737 0.188983
0.999237 0.95581 0.14641
0.999634 0.958434 0.201968
0.0947585 0.361791 1
0.0946059 0.360906 1
0.361166 0.25034 1
0.801572 0.322133 1
1 0.245441 1
1 0.25301 1
1 0.253056 1
1 0.327001 1
1 0.407767 1
0.094728 0.361624 1
0.0946822 0.361273 1
0.358099 0.251591 1
0.80087 0.321767 1
1 0.245106 1
1 0.25301 1
1 0.25304 1
1 0.327001 1
1 0.407767 1
0.0934768 0.356542 1
0.0935073 0.356634 1
0.257038 0.293935 1
0.78323 0.310628 1
1 0.24271 1
1 0.252705 1
1 0.25301 1
1 0.326986 1
1 0.407767 1
0.158358 0.557961 0.936202
0.158236 0.557229 0.936065
0.152667 0.520363 0.951873
0.42977 0.356756 0.980682
0.979171 0.262425 0.998428
1 0.249195 0.991608
1 0.249668 0.999802
1 0.260395 0.970459
1 0.297322 1
0.243381 0.85803 0.901228
0.243259 0.858 0.901015
0.239307 0.840482 0.884672
0.228916 0.793225 0.846708
0.736477 0.747738 0.780102
1 0.684962 0.74081
1 0.279515 0.509468
1 0.24419 0.597269
1 0.284291 0.851865
0.244923 0.968063 0.627604
0.244892 0.968063 0.626947
0.244785 0.968048 0.624659
0.237675 0.966033 0.498665
0.442649 0.958022 0.151369
0.938796 0.927352 0
1 0.910796 0.06392
1 0.808988 0.182696
0.995941 0.652293 0.238392
0.2439 0.968322 0.529229
0.2439 0.968322 0.529229
0.2439 0.968322 0.529229
0.2439 0.968322 0.529229
0.234821 0.965942 0.159808
0.832547 0.948531 0
0.998718 0.948791 0.0151675
1 0.946502 0.00392157
1 0.944991 0.00460822
0.248341 0.969024 0.626368
0.248341 0.969024 0.626368
0.248341 0.969024 0.626368
0.248341 0.969024 0.626368
0.248096 0.968994 0.622202
0.720806 0.94316 0.369116
0.970825 0.951095 0.00552377
1 0.951125 0.0561837
1 0.95201 0.0780041
0.251377 0.969451 0.682216
0.251377 0.969451 0.682216
0.251377 0.969451 0.682216
0.251377 0.969451 0.682216
0.251377 0.969451 0.682216
0.606378 0.979873 0.516396
0.941833 0.962737 0.188907
0.999237 0.955795 0.14638
0.999634 0.958434 0.201968
0.102068 0.389258 1
0.102068 0.389258 1
0.104845 0.38349 1
0.792264 0.311177 1
1 0.304112 1
1 0.268894 1
1 0.270832 1
1 0.270649 1
1 0.324575 1
0.102068 0.389258 1
0.102068 0.389258 1
0.104677 0.383902 1
0.791379 0.310735 1
1 0.304143 1
1 0.268879 1
1 0.270832 1
1 0.270634 1
1 0.324804 1
0.102068 0.389242 1
0.102068 0.389242 1
0.104311 0.385153 1
0.788525 0.309316 1
1 0.304341 1
1 0.268833 1
1 0.270817 1
1 0.270619 1
1 0.325551 1
0.110369 0.415244 1
0.110369 0.415229 1
0.100847 0.385138 1
0.494316 0.23769 1
0.999878 0.326207 1
1 0.262181 1
1 0.267475 1
1 0.268956 1
1 0.32549 1
0.220935 0.828107 1
0.220935 0.828092 1
0.215091 0.820142 1
0.169848 0.76141 0.999969
0.711299 0.669306 0.998734
1 0.478065 1
1 0.253407 1
1 0.253803 1
1 0.264134 1
0.282185 0.977142 1
0.28217 0.977142 1
0.28217 0.977142 1
0.278126 0.969406 0.999939
0.400183 0.956603 0.991913
0.927367 0.937713 0.941924
1 0.905623 0.929519
1 0.766842 0.859312
0.994736 0.498268 0.667231
0.105257 0.955306 0.860868
0.104997 0.955291 0.860716
0.103929 0.9552 0.860075
0.0998093 0.954833 0.857542
0.215854 0.966445 0.74818
0.797192 0.976013 0.670497
0.985153 0.965728 0.328664
1 0.94641 0.00384527
1 0.944778 0.00477607
0.248295 0.969024 0.62565
0.248295 0.969024 0.62565
0.248295 0.969024 0.62565
0.248295 0.969024 0.625635
0.248295 0.969024 0.625635
0.719631 0.943221 0.366461
0.970962 0.951034 0.0053254
1 0.95108 0.0554971
1 0.951904 0.0760052
0.251377 0.969451 0.682216
0.251377 0.969451 0.682216
0.251377 0.969451 0.682216
0.251377 0.969451 0.682216
0.251377 0.969451 0.682216
0.603006 0.979858 0.516869
0.941512 0.962783 0.18938
0.999222 0.955795 0.146242
0.999634 0.958434 0.201968
0.129046 0.472969 1
0.129046 0.472953 1
0.127596 0.46865 1
0.491783 0.246937 1
1 0.29691 1
1 0.271366 1
1 0.271183 1
1 0.271183 1
1 0.271183 1
0.12903 0.472908 1
0.12903 0.472892 1
0.12784 0.469383 1
0.489494 0.247578 1
1 0.29691 1
1 0.271366 1
1 0.271183 1
1 0.271183 1
1 0.271183 1
0.128954 0.472694 1
0.128954 0.472694 1
0.128634 0.471733 1
0.481224 0.249836 1
1 0.297108 1
1 0.271366 1
1 0.271183 1
1 0.271183 1
1 0.271183 1
0.128725 0.471962 1
0.12871 0.471946 1
0.128695 0.471916 1
0.451148 0.25803 1
1 0.297765 1
1 0.271366 1
1 0.271183 1
1 0.271183 1
1 0.271183 1
0.155245 0.732418 1
0.155245 0.732387 1
0.155245 0.732341 1
0.17348 0.665095 1
0.775799 0.494743 1
1 0.275196 1
1 0.271183 1
1 0.271183 1
1 0.271183 1
0.295476 0.979767 1
0.295491 0.979751 1
0.295476 0.979751 1
0.298192 0.974548 1
0.308904 0.956069 1
0.9093 0.905104 0.996841
1 0.815641 1
1 0.489204 1
1 0.269352 1
0.297322 0.991241 1
0.297322 0.991241 1
0.297322 0.991241 1
0.297337 0.991241 1
0.293812 0.989563 1
0.790768 0.991608 0.998734
0.988602 0.991226 0.982956
1 0.986099 0.980346
1 0.978897 0.975296
0.296147 0.988357 1
0.296147 0.988357 1
0.296132 0.988357 1
0.296101 0.988342 1
0.295949 0.988266 1
0.62443 0.981857 0.959045
0.967224 0.996796 0.950149
0.994079 0.996963 0.917876
0.994919 0.995834 0.900008
0.225849 0.967102 0.933959
0.225772 0.967102 0.933898
0.225498 0.967056 0.933639
0.224613 0.966903 0.932815
0.221439 0.966384 0.929915
0.499626 0.972992 0.824643
0.923095 0.987686 0.746853
0.979706 0.976684 0.489372
1 0.956313 0.16173
0.173495 0.609125 1
0.173495 0.60911 1
0.173495 0.60911 1
0.160388 0.556268 1
0.987243 0.345937 1
1 0.271183 1
1 0.271183 1
1 0.271183 1
1 0.271183 1
0.173495 0.60911 1
0.173495 0.60911 1
0.173495 0.609094 1
0.160418 0.556374 1
0.98706 0.346105 1
1 0.271183 1
1 0.271183 1
1 0.271183 1
1 0.271183 1
0.17348 0.609064 1
0.17348 0.609064 1
0.17348 0.609049 1
0.16051 0.55668 1
0.986496 0.346578 1
1 0.271183 1
1 0.271183 1
1 0.271183 1
1 0.271183 1
0.173449 0.608911 1
0.173449 0.608911 1
0.173449 0.608896 1
0.160861 0.557855 1
0.983963 0.348852 1
1 0.271183 1
1 0.271183 1
1 0.271183 1
1 0.271183 1
0.173358 0.608347 1
0.173358 0.608347 1
0.173358 0.608347 1
0.163943 0.567483 1
0.975082 0.356786 1
1 0.271183 1
1 0.271183 1
1 0.271183 1
1 0.271183 1
0.301427 0.97293 1
0.301427 0.97293 1
0.301427 0.972946 1
0.301427 0.97293 1
0.294301 0.929488 1
0.900542 0.857877 1
1 0.723995 1
1 0.312078 1
1 0.271183 1
0.296376 0.992096 1
0.296376 0.992096 1
0.296376 0.992096 1
0.296376 0.992096 1
0.293675 0.990753 1
0.728557 0.992248 1
0.985901 0.987396 0.996216
1 0.977066 0.999481
1 0.963058 0.999863
0.301869 0.992752 1
0.301869 0.992752 1
0.301869 0.992752 1
0.301885 0.992752 1
0.301915 0.992752 1
0.577508 0.99501 1
0.960769 0.997147 0.992004
0.996368 0.998672 0.992905
0.999329 0.997971 0.992615
0.307759 0.992447 1
0.307774 0.992447 1
0.307759 0.992447 1
0.307759 0.992447 1
0.307744 0.992447 1
0.424094 0.99292 1
0.93846 0.996063 0.986694
0.995239 0.999176 0.988617
0.998169 0.999496 0.986755
0.173907 0.611444 1
0.173907 0.611444 1
0.173907 0.611444 1
0.172229 0.599863 1
0.955367 0.373938 1
1 0.271183 1
1 0.271183 1
1 0.271183 1
1 0.271183 1
0.173907 0.611444 1
0.173907 0.611444 1
0.173907 0.611444 1
0.172457 0.600351 1
0.955139 0.374151 1
1 0.271183 1
1 0.271183 1
1 0.271183 1
1 0.271183 1
0.173907 0.611444 1
0.173907 0.611444 1
0.173907 0.611444 1
0.172641 0.60177 1
0.954437 0.374762 1
1 0.271183 1
1 0.271183 1
1 0.271183 1
1 0.271183 1
0.173907 0.611444 1
0.173907 0.611444 1
0.173907 0.611444 1
0.173281 0.60679 1
0.951415 0.377432 1
1 0.271183 1
1 0.271183 1
1 0.271183 1
1 0.271183 1
0.173907 0.611444 1
0.173907 0.611444 1
0.173907 0.611444 1
0.173907 0.611444 1
0.940383 0.387213 1
1 0.271183 1
1 0.271183 1
1 0.271183 1
1 0.271183 1
0.295476 0.943511 1
0.295491 0.943526 1
0.295491 0.943526 1
0.295445 0.94345 1
0.250431 0.871427 1
0.947005 0.792187 1
1 0.518486 1
1 0.271183 1
1 0.271183 1
0.295766 0.991897 1
0.295766 0.991897 1
0.295766 0.991897 1
0.295766 0.991897 1
0.293248 0.990509 1
0.727428 0.991379 1
0.98674 0.984817 0.997131
1 0.970047 0.999939
1 0.949813 1
0.300618 0.99292 1
0.300618 0.99292 1
0.300618 0.99292 1
0.300618 0.99292 1
0.300618 0.99292 1
0.550408 0.995148 1
0.958984 0.997726 0.996735
0.996414 0.998108 0.996429
0.999863 0.996796 0.996643
0.301869 0.992874 1
0.301869 0.992874 1
0.301869 0.992874 1
0.301869 0.992874 1
0.301869 0.992874 1
0.386007 0.9935 1
0.940963 0.997894 0.997299
0.99498 0.999481 0.995453
0.997086 0.999573 0.994141
