Log3G10_RWG_to_Astia.cube
TITLE "Generated by Resolve"
LUT_3D_SIZE 33
0 0 0
0 0 0
0 0 0
0.0116274 0.00117494 0.000381476
0.0381476 0.00241093 0.000656138
0.0675822 0.00225834 0.000289921
0.106981 0.00341802 0
0.16321 0.00390631 0.00129702
0.230808 0.00486763 0.000350958
0.312184 0.00479133 4.57771e-05
0.394614 0.00384527 0
0.486915 0.00241093 0
0.60766 0.000167849 0.00511177
0.719417 9.15541e-05 0.0252232
0.842512 0.000167849 0.0707256
0.963119 0.000518807 0.152285
0.999908 3.0518e-05 0.283742
0.999924 0.000595102 0.380728
0.999176 0 0.377798
1 0.00030518 0.372946
1 0.00030518 0.372946
1 0.00030518 0.372946
1 0.00030518 0.372946
1 0.00030518 0.372946
1 0.00030518 0.372946
1 0.00030518 0.372946
1 0.00030518 0.372946
1 0.00030518 0.372946
1 0.00030518 0.372946
1 0.00030518 0.372946
1 0.00030518 0.372946
1 0.00030518 0.372946
1 0.00030518 0.372946
0 0 0
0 0 0
0 0 0
0.0109407 0.00111391 0.000427253
0.035111 0.00221256 1.5259e-05
0.0645609 0.00209049 0.000167849
0.10338 0.00349432 0.000106813
0.157153 0.00427253 0.000640879
0.224979 0.00471504 0.000137331
0.310307 0.00469978 3.0518e-05
0.394308 0.00386053 0
0.486748 0.00241093 0
0.607477 0.000167849 0.00508125
0.719203 9.15541e-05 0.0251621
0.842512 0.000167849 0.0707256
0.96289 0.000518807 0.152117
0.999893 3.0518e-05 0.283467
0.999924 0.000610361 0.380743
0.999176 0 0.377798
1 0.00030518 0.372946
1 0.00030518 0.372946
1 0.00030518 0.372946
1 0.00030518 0.372946
1 0.00030518 0.372946
1 0.00030518 0.372946
1 0.00030518 0.372946
1 0.00030518 0.372946
1 0.00030518 0.372946
1 0.00030518 0.372946
1 0.00030518 0.372946
1 0.00030518 0.372946
1 0.00030518 0.372946
1 0.00030518 0.372946
0 0 0
0 0 0
0 0 0
0.00527962 0.000167849 0.000198367
0.0296635 0.00128176 0
0.0599069 0.00260929 0.00138857
0.0972915 0.00341802 0.00210575
0.148714 0.00387579 0.000427253
0.216373 0.00515755 0
0.306554 0.00469978 1.5259e-05
0.398245 0.00430304 0
0.502647 0.00155642 0.000137331
0.607095 0.000167849 0.00500496
0.71899 9.15541e-05 0.0250858
0.842298 0.000167849 0.0706035
0.96289 0.000518807 0.152117
0.999893 3.0518e-05 0.283467
0.999924 0.000610361 0.380743
0.999176 0 0.377813
1 0.00030518 0.372946
1 0.00030518 0.372946
1 0.00030518 0.372946
1 0.00030518 0.372946
1 0.00030518 0.372946
1 0.00030518 0.372946
1 0.00030518 0.372946
1 0.00030518 0.372946
1 0.00030518 0.372946
1 0.00030518 0.372946
1 0.00030518 0.372946
1 0.00030518 0.372946
1 0.00030518 0.372946
1 0.00030518 0.372946
0.00062562 0.0131685 0.000106813
0.00062562 0.0129854 0.000106813
0.000640879 0.0126955 9.15541e-05
0.00283818 0.0118105 0.000503548
0.0256962 0.00967422 0.000137331
0.0547799 0.00712596 6.10361e-05
0.0962844 0.00421149 0.000137331
0.1505 0.005066 0.000335698
0.227878 0.00415045 9.15541e-05
0.324666 0.00387579 3.0518e-05
0.427222 0.00381476 0
0.541665 0.00117494 0.00015259
0.650172 0.00015259 0.0133059
0.746014 0.000183108 0.0339818
0.842084 0.000167849 0.0704967
0.962661 0.000503548 0.151949
0.999893 3.0518e-05 0.283192
0.999924 0.000610361 0.380743
0.999176 0 0.377813
1 0.00030518 0.372946
1 0.00030518 0.372946
1 0.00030518 0.372946
1 0.00030518 0.372946
1 0.00030518 0.372946
1 0.00030518 0.372946
1 0.00030518 0.372946
1 0.00030518 0.372946
1 0.00030518 0.372946
1 0.00030518 0.372946
1 0.00030518 0.372946
1 0.00030518 0.372946
1 0.00030518 0.372946
1 0.00030518 0.372946
0.000457771 0.0355383 0
0.000442512 0.0352636 0
4.57771e-05 0.0323186 0
0 0.0316777 1.5259e-05
0.0205234 0.0335851 0.000167849
0.0522316 0.0307317 0.000228885
0.0966201 0.0284428 1.5259e-05
0.156878 0.0273289 0.000213626
0.244556 0.0220951 0
0.345052 0.0156252 6.10361e-05
0.458106 0.00422675 0.000396735
0.581308 0.000793469 0.0011902
0.701518 0.000106813 0.019852
0.815534 0.000259403 0.0593881
0.907103 1.5259e-05 0.110613
0.970703 0.00047303 0.159274
0.999893 3.0518e-05 0.283192
0.999924 0.000610361 0.380743
0.999176 0 0.377813
1 0.00030518 0.372946
1 0.00030518 0.372946
1 0.00030518 0.372946
1 0.00030518 0.372946
1 0.00030518 0.372946
1 0.00030518 0.372946
1 0.00030518 0.372946
1 0.00030518 0.372946
1 0.00030518 0.372946
1 0.00030518 0.372946
1 0.00030518 0.372946
1 0.00030518 0.372946
1 0.00030518 0.372946
1 0.00030518 0.372946
0 0.0608225 6.10361e-05
0 0.0606241 6.10361e-05
0 0.0626078 1.5259e-05
0 0.0629435 0
0.0128634 0.0622263 0.000106813
0.0467536 0.061677 0.000320439
0.0908217 0.0598459 3.0518e-05
0.159518 0.0564736 0.000503548
0.249378 0.0520485 0.000808728
0.362127 0.0450294 0
0.484794 0.0324102 1.5259e-05
0.615305 0.0136568 0.000198367
0.747494 1.5259e-05 0.0223239
0.878447 0.000289921 0.0824292
0.982635 0.000106813 0.184741
0.999924 6.10361e-05 0.296361
0.999954 0.000228885 0.345281
0.999924 0.000610361 0.380758
0.999176 0 0.377813
1 0.00030518 0.372946
1 0.00030518 0.372946
1 0.00030518 0.372946
1 0.00030518 0.372946
1 0.00030518 0.372946
1 0.00030518 0.372946
1 0.00030518 0.372946
1 0.00030518 0.372946
1 0.00030518 0.372946
1 0.00030518 0.372946
1 0.00030518 0.372946
1 0.00030518 0.372946
1 0.00030518 0.372946
1 0.00030518 0.372946
0 0.104784 0
0 0.10457 1.5259e-05
7.62951e-05 0.104738 0.000198367
0.000534066 0.106645 0.00111391
0.000915541 0.104921 0.000320439
0.0346075 0.10486 0.000534066
0.0829633 0.102281 0.00015259
0.151446 0.101076 0.000289921
0.2495 0.0952773 6.10361e-05
0.367773 0.0869917 7.62951e-05
0.493523 0.0757763 0.000228885
0.621683 0.0585184 0.00015259
0.742565 0.0334783 0.00112917
0.863447 0.00363165 0.0553292
0.97998 7.62951e-05 0.154604
0.999863 0.00015259 0.302968
0.999115 9.15541e-05 0.378515
0.999008 0 0.378088
0.999161 0 0.377829
1 0.00030518 0.372946
1 0.00030518 0.372946
1 0.00030518 0.372946
1 0.00030518 0.372946
1 0.00030518 0.372946
1 0.00030518 0.372946
1 0.00030518 0.372946
1 0.00030518 0.372946
1 0.00030518 0.372946
1 0.00030518 0.372946
1 0.00030518 0.372946
1 0.00030518 0.372946
1 0.00030518 0.372946
1 0.00030518 0.372946
0.000259403 0.170626 0.000488289
0.000274662 0.170336 0.000488289
0.000244144 0.171679 0.000396735
0.000167849 0.177844 0.000518807
0.00015259 0.177249 0.000518807
0.0145113 0.176715 0.000106813
0.0636606 0.174075 0.000213626
0.133654 0.171221 0.000335698
0.235203 0.164065 0.000579843
0.355123 0.152819 0.000244144
0.47599 0.141024 0
0.60592 0.124254 0.000122072
0.724224 0.102037 9.15541e-05
0.839017 0.0711223 0.0181888
0.957671 0.0264134 0.100542
0.999985 0.000320439 0.239307
0.999176 4.57771e-05 0.355596
0.999374 0.000244144 0.367697
1 0.00030518 0.372946
1 0.00030518 0.372946
1 0.00030518 0.372946
1 0.00030518 0.372946
1 0.00030518 0.372946
1 0.00030518 0.372946
1 0.00030518 0.372946
1 0.00030518 0.372946
1 0.00030518 0.372946
1 0.00030518 0.372946
1 0.00030518 0.372946
1 0.00030518 0.372946
1 0.00030518 0.372946
1 0.00030518 0.372946
1 0.00030518 0.372946
0.000122072 0.277699 0.000259403
0.000106813 0.277501 0.000259403
0.000106813 0.277394 0.000244144
6.10361e-05 0.283345 0.000686656
0.000198367 0.288228 0.000228885
0 0.288182 0.000885023
0.03299 0.282063 0.000198367
0.107332 0.271168 0.00077821
0.207782 0.261128 0.000274662
0.330297 0.250233 0.000411994
0.457954 0.234806 0.000213626
0.585458 0.219425 0.00015259
0.702434 0.197696 0.000122072
0.815229 0.170443 0.000198367
0.927657 0.131487 0.0504921
0.999557 0.0664378 0.165209
0.999374 0.00408942 0.316182
0.999298 0 0.342046
0.999847 0.000213626 0.354986
0.999863 0.000228885 0.372335
1 0.00030518 0.372946
1 0.00030518 0.372946
1 0.00030518 0.372946
1 0.00030518 0.372946
1 0.00030518 0.372946
1 0.00030518 0.372946
1 0.00030518 0.372946
1 0.00030518 0.372946
1 0.00030518 0.372946
1 0.00030518 0.372946
1 0.00030518 0.372946
1 0.00030518 0.372946
1 0.00030518 0.372946
0 0.418418 0
0 0.418143 0
0 0.417868 0
0 0.422461 1.5259e-05
0.000122072 0.434073 0.000228885
0.000198367 0.424247 0.000488289
0.0031281 0.405737 0.000106813
0.0678569 0.392569 0.000167849
0.172717 0.381689 0.000122072
0.300465 0.367422 1.5259e-05
0.43032 0.353902 0.000213626
0.560678 0.339223 0
0.679179 0.322759 1.5259e-05
0.789914 0.299443 1.5259e-05
0.899763 0.26717 0.00453193
0.995071 0.209354 0.0964828
0.999619 0.127062 0.245853
0.999634 0.0479438 0.286793
0.999619 0.00300603 0.317128
0.999786 6.10361e-05 0.342641
0.999741 0.000106813 0.364797
1 0.00030518 0.372946
1 0.00030518 0.372946
1 0.00030518 0.372946
1 0.00030518 0.372946
1 0.00030518 0.372946
1 0.00030518 0.372946
1 0.00030518 0.372946
1 0.00030518 0.372946
1 0.00030518 0.372946
1 0.00030518 0.372946
1 0.00030518 0.372946
1 0.00030518 0.372946
0 0.585595 0
0 0.585595 0
0 0.585306 0
0 0.585016 0
3.0518e-05 0.596078 9.15541e-05
0.000274662 0.572244 0.000503548
7.62951e-05 0.54548 0.000442512
0.019028 0.527916 0.000885023
0.127306 0.51107 1.5259e-05
0.262928 0.495583 0.000274662
0.401007 0.481163 0
0.535286 0.466835 4.57771e-05
0.656001 0.451225 0
0.765957 0.431373 3.0518e-05
0.870939 0.406134 0.000106813
0.978943 0.367056 0.0201267
0.999817 0.305364 0.149279
0.998993 0.219242 0.22858
0.999893 0.136309 0.243198
0.999313 0.060029 0.27306
0.999939 0.00271611 0.319539
0.99942 1.5259e-05 0.35288
1 0.00030518 0.372946
1 0.00030518 0.372946
1 0.00030518 0.372946
1 0.00030518 0.372946
1 0.00030518 0.372946
1 0.00030518 0.372946
1 0.00030518 0.372946
1 0.00030518 0.372946
1 0.00030518 0.372946
1 0.00030518 0.372946
1 0.00030518 0.372946
0 0.739361 0.000671397
0 0.739132 0.000671397
0 0.739132 0.000671397
0 0.738918 0.000671397
4.57771e-05 0.738247 0.000640879
9.15541e-05 0.714397 0
0 0.687434 0.000122072
4.57771e-05 0.666575 0.000656138
0.0689708 0.648707 0.000350958
0.20911 0.632273 0.000457771
0.361059 0.616434 7.62951e-05
0.502464 0.599054 0.000213626
0.629129 0.583032 6.10361e-05
0.739895 0.563058 0.000244144
0.841459 0.540536 0.000228885
0.947265 0.508034 0.000442512
0.999222 0.463539 0.0623026
0.999634 0.399405 0.164446
0.999527 0.325551 0.189136
0.999435 0.237522 0.202594
0.999817 0.150744 0.224567
0.999664 0.0547341 0.276097
0.999451 1.5259e-05 0.337713
1 0.00030518 0.372946
1 0.00030518 0.372946
1 0.00030518 0.372946
1 0.00030518 0.372946
1 0.00030518 0.372946
1 0.00030518 0.372946
1 0.00030518 0.372946
1 0.00030518 0.372946
1 0.00030518 0.372946
1 0.00030518 0.372946
0.000457771 0.848188 0.000900282
0.000457771 0.848005 0.000900282
0.000457771 0.848005 0.000900282
0.000457771 0.847822 0.000900282
0.000457771 0.847822 0.000900282
0 0.841276 7.62951e-05
0 0.812818 0
0 0.788891 0
0.00404364 0.770397 9.15541e-05
0.135271 0.75314 0
0.305547 0.73547 0
0.459251 0.718608 0.000289921
0.59411 0.701488 0.000366217
0.707424 0.684031 4.57771e-05
0.811612 0.662104 0.000289921
0.913512 0.637919 6.10361e-05
0.996597 0.603769 0.00263981
0.998962 0.557015 0.099382
0.999756 0.494026 0.13518
0.99913 0.418936 0.152529
0.999344 0.343908 0.169726
0.999557 0.263447 0.193088
0.9991 0.147112 0.226093
0.999939 0.0157931 0.303029
0.999664 0.000183108 0.365972
1 0.00030518 0.372946
1 0.00030518 0.372946
1 0.00030518 0.372946
1 0.00030518 0.372946
1 0.00030518 0.372946
1 0.00030518 0.372946
1 0.00030518 0.372946
1 0.00030518 0.372946
0 0.945159 0
0 0.945006 0
0 0.945006 0
0 0.945006 0
0 0.944839 0
0 0.944671 0
0 0.932052 0.000564584
0 0.900923 0.000198367
0 0.879103 0.000823987
0.0348821 0.860441 0
0.224002 0.842634 3.0518e-05
0.39826 0.823331 1.5259e-05
0.55024 0.803357 0.000289921
0.672374 0.784131 9.15541e-05
0.779492 0.767926 7.62951e-05
0.879606 0.747906 0
0.983841 0.720745 3.0518e-05
0.999512 0.686854 0.039353
0.999466 0.640421 0.0860304
0.998901 0.577981 0.110307
0.999405 0.500999 0.128862
0.998962 0.445975 0.141024
0.999847 0.374456 0.162356
0.999695 0.26772 0.190433
0.999161 0.108095 0.24538
0.999237 0 0.345251
1 0.00030518 0.372946
1 0.00030518 0.372946
1 0.00030518 0.372946
1 0.00030518 0.372946
1 0.00030518 0.372946
1 0.00030518 0.372946
1 0.00030518 0.372946
0 1 0.000289921
0 1 0.000289921
0 1 0.000289921
0 1 0.000289921
0 1 0.000289921
0 1 0.000289921
0 1 0.000289921
0 1 0.000289921
0 0.981552 0.000289921
3.0518e-05 0.96141 0.000274662
0.0981308 0.9411 0.000656138
0.311498 0.911803 0.000488289
0.487907 0.887953 6.10361e-05
0.62707 0.867201 1.5259e-05
0.740993 0.850202 1.5259e-05
0.844358 0.83621 0
0.949584 0.821439 0
0.999603 0.796262 0.000213626
0.999557 0.756329 0.036286
0.998825 0.702403 0.0733196
0.999542 0.638743 0.0961013
0.999588 0.592859 0.10808
0.999741 0.545571 0.117327
0.999634 0.481849 0.133211
0.999512 0.390738 0.159167
0.999588 0.247074 0.197513
0.999359 0.0291905 0.292195
1 0.00030518 0.372946
1 0.00030518 0.372946
1 0.00030518 0.372946
1 0.00030518 0.372946
1 0.00030518 0.372946
1 0.00030518 0.372946
0 1 0.000289921
0 1 0.000289921
0 1 0.000289921
0 1 0.000289921
0 1 0.000289921
0 1 0.000289921
0 1 0.000289921
0 1 0.000289921
0 1 0.000289921
0 1 0.000289921
0.000991836 0.999985 0.000320439
0.177157 0.992798 0.000701915
0.395926 0.973068 0.000411994
0.566995 0.948928 0.000289921
0.695949 0.929091 0
0.805905 0.912932 0
0.909834 0.89807 1.5259e-05
0.99353 0.884627 0.000244144
0.998749 0.853773 1.5259e-05
0.99942 0.806287 0.0336156
0.999588 0.750713 0.0669108
0.999252 0.700282 0.0846265
0.999542 0.671092 0.0905165
0.999527 0.633951 0.0990921
0.999359 0.583154 0.108095
0.999237 0.507912 0.126452
0.99942 0.396841 0.154849
0.999878 0.211948 0.20676
1 1.5259e-05 0.338537
1 0.00030518 0.372946
1 0.00030518 0.372946
1 0.00030518 0.372946
1 0.00030518 0.372946
0 1 0.000289921
0 1 0.000289921
0 1 0.000289921
0 1 0.000289921
0 1 0.000289921
0 1 0.000289921
0 1 0.000289921
0 1 0.000289921
0 1 0.000289921
0 1 0.000289921
0 1 0.000289921
0.010132 0.999878 0.000518807
0.248051 0.999588 0.000198367
0.465309 0.999832 0.000396735
0.626947 0.994339 0.000350958
0.749783 0.980606 0.000442512
0.852842 0.961593 9.15541e-05
0.95491 0.942412 0.000137331
0.996155 0.927855 0.000320439
0.999176 0.893477 0.0012665
0.999222 0.845838 0.0355993
0.999237 0.794324 0.06392
0.999176 0.765057 0.0716564
0.999527 0.739544 0.0769818
0.999268 0.708385 0.0816968
0.99913 0.669795 0.0907301
0.999512 0.615061 0.10135
0.9991 0.536156 0.120287
1 0.414908 0.153048
0.999451 0.2177 0.204898
0.999619 1.5259e-05 0.33843
1 0.00030518 0.372946
1 0.00030518 0.372946
0 1 0.000289921
0 1 0.000289921
0 1 0.000289921
0 1 0.000289921
0 1 0.000289921
0 1 0.000289921
0 1 0.000289921
0 1 0.000289921
0 1 0.000289921
0 1 0.000289921
0 1 0.000289921
0 1 0.000289921
0.0667735 0.99942 0.000579843
0.311025 0.999908 0.000839246
0.520027 0.999847 3.0518e-05
0.668391 0.999695 0.000381476
0.784039 0.999527 0.000366217
0.885985 0.993362 0.000213626
0.979232 0.979507 0.00410468
0.992905 0.960632 0.00137331
0.997559 0.926375 0.00445563
0.998795 0.879286 0.0418097
0.999252 0.842741 0.0591592
0.99913 0.824109 0.0610361
0.998993 0.802274 0.0648814
0.999146 0.776242 0.0704967
0.99884 0.745144 0.0755474
0.999374 0.704952 0.0840772
0.999176 0.654841 0.0934005
0.999588 0.586252 0.108644
0.999619 0.487007 0.13228
0.999054 0.354772 0.169085
0.999435 0.15935 0.221088
0.0417639 0.99968 0.000137331
0.0417639 0.99968 0.000137331
0.0417639 0.99968 0.000137331
0.0417639 0.99968 0.000137331
0.0417639 0.99968 0.000137331
0.0417639 0.99968 0.000137331
0.0417639 0.99968 0.000137331
0.0415808 0.99968 0.000137331
0.0415808 0.99968 0.000137331
0.0413977 0.99968 0.000137331
0.0413977 0.99968 0.000137331
0 1 0.000289921
0.0141146 0.999695 9.15541e-05
0.19884 0.999832 0.000381476
0.401495 0.999298 0.000213626
0.572427 0.999908 0.000350958
0.7037 0.99939 4.57771e-05
0.813245 0.999863 7.62951e-05
0.916075 0.999756 0.0142061
0.986999 0.999176 0.0333867
0.991089 0.988708 0.0155337
0.995056 0.954589 0.00956741
0.997818 0.910704 0.0431067
0.998871 0.891585 0.0490578
0.999451 0.875669 0.0550088
0.998886 0.858015 0.0585794
0.999527 0.836789 0.0604257
0.999161 0.812177 0.0632639
0.998474 0.785107 0.0678264
0.999451 0.750759 0.0748608
0.999695 0.712108 0.0821698
0.999313 0.669108 0.0918746
0.999603 0.625727 0.100526
0.0460822 0.999649 0.000106813
0.0460822 0.999649 0.000106813
0.0460822 0.999649 0.000106813
0.0460822 0.999649 0.000106813
0.0460822 0.999649 0.000106813
0.0460822 0.999649 0.000106813
0.0460822 0.999649 0.000106813
0.0460822 0.999649 0.000106813
0.0460822 0.999649 0.000106813
0.0460822 0.999649 0.000106813
0.0460822 0.999649 0.000106813
0.0460822 0.999649 0.000106813
0.0460822 0.999649 0.000106813
0.12755 0.999557 0.000961318
0.301778 0.999695 0
0.470405 1 0.000457771
0.614237 0.999725 0
0.736294 0.999985 0
0.838178 0.999939 0.00234989
0.936217 0.999741 0.0343786
0.987381 0.999161 0.057847
0.988693 0.998627 0.0343328
0.99202 0.982086 0.019791
0.994598 0.952804 0.0327153
0.995972 0.938231 0.0390326
0.997848 0.923506 0.0412451
0.999802 0.90866 0.0475013
0.999619 0.891722 0.0515755
0.999832 0.873426 0.0545663
0.99939 0.854215 0.0564736
0.999237 0.832395 0.0591592
0.999557 0.812329 0.0627909
0.999969 0.795117 0.0652781
0.0460822 0.999649 0.000106813
0.0460822 0.999649 0.000106813
0.0460822 0.999649 0.000106813
0.0460822 0.999649 0.000106813
0.0460822 0.999649 0.000106813
0.0460822 0.999649 0.000106813
0.0460822 0.999649 0.000106813
0.0460822 0.999649 0.000106813
0.0460822 0.999649 0.000106813
0.0460822 0.999649 0.000106813
0.0460822 0.999649 0.000106813
0.0460822 0.999649 0.000106813
0.0460822 0.999649 0.000106813
0.051545 0.999756 9.15541e-05
0.22797 0.999481 0.000411994
0.383429 0.999802 0
0.529717 0.999786 7.62951e-05
0.652308 0.999847 0
0.760739 0.999374 0.000137331
0.860044 0.999435 0.0140688
0.958419 0.999908 0.0554208
0.986694 0.999466 0.0691844
0.986511 0.999359 0.0594339
0.990356 0.997772 0.0339055
0.991547 0.994476 0.0249027
0.992004 0.987015 0.0223392
0.993637 0.973541 0.0260624
0.995865 0.958907 0.030808
0.995651 0.943481 0.0345159
0.996796 0.929091 0.0412146
0.998703 0.915496 0.0455177
0.998184 0.903716 0.0464332
0.998322 0.89456 0.0479744
0.0460822 0.999649 0.000106813
0.0460822 0.999649 0.000106813
0.0460822 0.999649 0.000106813
0.0460822 0.999649 0.000106813
0.0460822 0.999649 0.000106813
0.0460822 0.999649 0.000106813
0.0460822 0.999649 0.000106813
0.0460822 0.999649 0.000106813
0.0460822 0.999649 0.000106813
0.0460822 0.999649 0.000106813
0.0460822 0.999649 0.000106813
0.0460822 0.999649 0.000106813
0.0460822 0.999649 0.000106813
0.0460822 0.999649 0.000106813
0.0861982 0.999893 0
0.2851 0.999924 0.000274662
0.448203 0.99971 0.000289921
0.585092 0.999771 1.5259e-05
0.693095 0.999664 0.000656138
0.790555 0.999741 0.00175479
0.884169 0.999512 0.0311131
0.972854 0.999329 0.0775616
0.98616 0.999435 0.0788739
0.986633 0.999695 0.0749981
0.989105 0.999939 0.0652018
0.988739 0.999741 0.0584421
0.988174 0.999756 0.049424
0.989929 0.999817 0.0388647
0.991318 1 0.030808
0.991714 0.996948 0.0228275
0.992523 0.98674 0.02121
0.992966 0.977386 0.0224918
0.993378 0.970886 0.0247349
0.0460822 0.999649 0.000106813
0.0460822 0.999649 0.000106813
0.0460822 0.999649 0.000106813
0.0460822 0.999649 0.000106813
0.0460822 0.999649 0.000106813
0.0460822 0.999649 0.000106813
0.0460822 0.999649 0.000106813
0.0460822 0.999649 0.000106813
0.0460822 0.999649 0.000106813
0.0460822 0.999649 0.000106813
0.0460822 0.999649 0.000106813
0.0460822 0.999649 0.000106813
0.0460822 0.999649 0.000106813
0.0460822 0.999649 0.000106813
0.0460822 0.999649 0.000106813
0.135927 0.999619 0.000595102
0.345663 0.999847 0.000717174
0.510567 0.999466 3.0518e-05
0.638437 0.999969 0.000213626
0.742794 0.999359 3.0518e-05
0.83389 0.999496 0.014847
0.924147 0.999527 0.0549477
0.986618 0.999725 0.0928664
0.986068 0.999786 0.0865644
0.986465 0.99942 0.0790265
0.986572 0.999466 0.0784314
0.986496 0.999664 0.0761578
0.986542 0.999802 0.0741131
0.98677 0.999771 0.0682841
0.987152 0.999863 0.065095
0.987533 0.999695 0.0596475
0.988525 0.999725 0.0553902
0.988846 0.99968 0.0525521
0.0460822 0.999649 0.000106813
0.0460822 0.999649 0.000106813
0.0460822 0.999649 0.000106813
0.0460822 0.999649 0.000106813
0.0460822 0.999649 0.000106813
0.0460822 0.999649 0.000106813
0.0460822 0.999649 0.000106813
0.0460822 0.999649 0.000106813
0.0460822 0.999649 0.000106813
0.0460822 0.999649 0.000106813
0.0460822 0.999649 0.000106813
0.0460822 0.999649 0.000106813
0.0460822 0.999649 0.000106813
0.0460822 0.999649 0.000106813
0.0460822 0.999649 0.000106813
0.0460822 0.999649 0.000106813
0.198978 0.999527 0.000122072
0.411215 0.99971 0.000793469
0.570565 0.999268 0.000457771
0.691493 0.999481 4.57771e-05
0.792111 0.999435 0.00251774
0.881453 0.999573 0.0328679
0.967239 0.999557 0.0809796
0.986206 0.999771 0.0875868
0.986084 0.999985 0.0834669
0.986465 0.99942 0.0790417
0.986465 0.99942 0.0790417
0.986465 0.99942 0.0790417
0.986465 0.99942 0.0790417
0.986465 0.999451 0.0789044
0.986465 0.999603 0.0781415
0.986465 0.999634 0.0779278
0.986465 0.99968 0.0777447
0.0460822 0.999649 0.000106813
0.0460822 0.999649 0.000106813
0.0460822 0.999649 0.000106813
0.0460822 0.999649 0.000106813
0.0460822 0.999649 0.000106813
0.0460822 0.999649 0.000106813
0.0460822 0.999649 0.000106813
0.0460822 0.999649 0.000106813
0.0460822 0.999649 0.000106813
0.0460822 0.999649 0.000106813
0.0460822 0.999649 0.000106813
0.0460822 0.999649 0.000106813
0.0460822 0.999649 0.000106813
0.0460822 0.999649 0.000106813
0.0460822 0.999649 0.000106813
0.0460822 0.999649 0.000106813
0.0460822 0.999649 0.000106813
0.273381 0.999985 4.57771e-05
0.480568 0.999496 4.57771e-05
0.629694 0.999802 0
0.744442 0.999527 0.000534066
0.839445 0.999954 0.0179904
0.931884 0.99968 0.0595407
0.985519 0.999954 0.0913252
0.986068 0.999969 0.0854505
0.986252 0.999512 0.0790417
0.986465 0.99942 0.0790417
0.986465 0.99942 0.0790417
0.986465 0.99942 0.0790417
0.986465 0.99942 0.0790417
0.986465 0.99942 0.0790417
0.986465 0.99942 0.0790417
0.986465 0.99942 0.0790417
0.0460822 0.999649 0.000106813
0.0460822 0.999649 0.000106813
0.0460822 0.999649 0.000106813
0.0460822 0.999649 0.000106813
0.0460822 0.999649 0.000106813
0.0460822 0.999649 0.000106813
0.0460822 0.999649 0.000106813
0.0460822 0.999649 0.000106813
0.0460822 0.999649 0.000106813
0.0460822 0.999649 0.000106813
0.0460822 0.999649 0.000106813
0.0460822 0.999649 0.000106813
0.0460822 0.999649 0.000106813
0.0460822 0.999649 0.000106813
0.0460822 0.999649 0.000106813
0.0460822 0.999649 0.000106813
0.0460822 0.999649 0.000106813
0.0554055 0.999832 4.57771e-05
0.352117 0.999924 4.57771e-05
0.55053 1 0.000610361
0.688258 0.999664 0.000518807
0.795529 0.999725 0.00369268
0.889311 1 0.0363928
0.973816 0.999542 0.085008
0.986374 0.999832 0.088304
0.986343 0.999588 0.080766
0.986465 0.99942 0.0790417
0.986465 0.99942 0.0790417
0.986465 0.99942 0.0790417
0.986465 0.99942 0.0790417
0.986465 0.99942 0.0790417
0.986465 0.99942 0.0790417
0.986465 0.99942 0.0790417
0.0460822 0.999649 0.000106813
0.0460822 0.999649 0.000106813
0.0460822 0.999649 0.000106813
0.0460822 0.999649 0.000106813
0.0460822 0.999649 0.000106813
0.0460822 0.999649 0.000106813
0.0460822 0.999649 0.000106813
0.0460822 0.999649 0.000106813
0.0460822 0.999649 0.000106813
0.0460822 0.999649 0.000106813
0.0460822 0.999649 0.000106813
0.0460822 0.999649 0.000106813
0.0460822 0.999649 0.000106813
0.0460822 0.999649 0.000106813
0.0460822 0.999649 0.000106813
0.0460822 0.999649 0.000106813
0.0460822 0.999649 0.000106813
0.0460822 0.999649 0.000106813
0.152712 0.999664 0.000991836
0.439902 0.999817 0.000106813
0.620371 0.999634 3.0518e-05
0.747082 0.999847 0.000411994
0.847654 0.999466 0.0202945
0.942382 0.999573 0.0635996
0.986877 0.999802 0.0915389
0.986328 0.999817 0.0853132
0.986465 0.99942 0.0790417
0.986465 0.99942 0.0790417
0.986465 0.99942 0.0790417
0.986465 0.99942 0.0790417
0.986465 0.99942 0.0790417
0.986465 0.99942 0.0790417
0.986465 0.99942 0.0790417
0.0460822 0.999649 0.000106813
0.0460822 0.999649 0.000106813
0.0460822 0.999649 0.000106813
0.0460822 0.999649 0.000106813
0.0460822 0.999649 0.000106813
0.0460822 0.999649 0.000106813
0.0460822 0.999649 0.000106813
0.0460822 0.999649 0.000106813
0.0460822 0.999649 0.000106813
