Log3G10_RWG_to_Eterna.cube
TITLE "Generated by Resolve"
LUT_3D_SIZE 5
0.045182 0.0437629 0.0445106
0.363394 0.0859388 0.0875105
0.998932 0.265385 0.406577
1 0.350683 0.868833
1 0.509621 0.991806
0.0764782 0.270191 0.0738842
0.201526 0.222232 0.0272831
0.9122 0.216648 0.214832
1 0.334279 0.785138
1 0.509621 0.991806
0.246403 0.868833 0.317067
0.242008 0.854124 0.276036
0.742977 0.763104 0.0776379
0.989227 0.378454 0.233417
1 0.386282 0.741772
0.290211 0.938903 0.548089
0.290211 0.938903 0.548089
0.279164 0.917693 0.257771
0.983597 0.941665 0.145251
0.999237 0.93492 0.100618
0.302098 0.949035 0.688487
0.302098 0.949035 0.688487
0.302098 0.949035 0.688487
0.925582 0.955947 0.317647
0.994949 0.955001 0.287541
0.066804 0.118074 0.371862
0.355871 0.126085 0.352255
0.998779 0.275715 0.469551
1 0.350683 0.868833
1 0.509621 0.991806
0.0622416 0.227329 0.228153
0.215518 0.214954 0.228443
0.938994 0.224887 0.240497
1 0.335058 0.790234
1 0.509621 0.991806
0.246265 0.868345 0.316609
0.241886 0.853712 0.276249
0.743465 0.762249 0.0767376
0.989624 0.375311 0.232975
1 0.386435 0.743526
0.290211 0.938903 0.548043
0.290211 0.938903 0.548043
0.279179 0.917708 0.257969
0.983581 0.941649 0.145251
0.999237 0.934905 0.100603
0.302098 0.949035 0.688487
0.302098 0.949035 0.688487
0.302098 0.949035 0.688487
0.925658 0.955932 0.317479
0.994949 0.955001 0.287541
0.145815 0.368536 0.929
0.385962 0.293294 0.954223
0.998596 0.353338 0.97406
1 0.369467 0.998352
1 0.509621 0.991806
0.143877 0.362615 0.920134
0.30695 0.314 0.935882
0.991348 0.347082 0.955566
1 0.369192 0.99823
1 0.509621 0.991806
0.235721 0.821271 0.831586
0.231281 0.805508 0.817243
0.733425 0.743954 0.766217
1 0.337606 0.452323
1 0.38761 0.762554
0.290181 0.938857 0.547509
0.290181 0.938857 0.547509
0.279194 0.917739 0.258412
0.983703 0.941588 0.14548
0.999222 0.934768 0.100465
0.302098 0.949035 0.688487
0.302098 0.949035 0.688487
0.302098 0.949035 0.688487
0.925444 0.955962 0.317891
0.994949 0.955001 0.287541
0.172595 0.465583 0.968566
0.171756 0.462333 0.968444
1 0.375875 1
1 0.376623 1
1 0.376623 1
0.172549 0.465385 0.968551
0.172351 0.464652 0.968536
1 0.37586 1
1 0.376623 1
1 0.376623 1
0.23061 0.7355 0.955871
0.230594 0.735409 0.955856
0.768444 0.539101 0.999756
1 0.376623 1
1 0.376623 1
0.302983 0.966995 0.984176
0.302998 0.966995 0.984176
0.297368 0.963272 0.979385
0.974456 0.977829 0.97377
0.996185 0.965133 0.962173
0.265644 0.960418 0.878752
0.265476 0.960403 0.878508
0.263508 0.960128 0.875837
0.918975 0.974151 0.783475
0.995331 0.953017 0.258991
0.202335 0.60415 0.962783
0.202335 0.60415 0.962783
0.942687 0.40296 1
1 0.376623 1
1 0.376623 1
0.202335 0.60415 0.962783
0.202335 0.60415 0.962783
0.941527 0.403403 1
1 0.376623 1
1 0.376623 1
0.202335 0.60415 0.962783
0.202335 0.60415 0.962783
0.923873 0.409964 1
1 0.376623 1
1 0.376623 1
0.290822 0.96492 0.991409
0.290822 0.96492 0.991409
0.282506 0.961563 0.991043
0.971389 0.971374 0.992416
1 0.942184 0.99826
0.308324 0.97113 0.991409
0.308324 0.97113 0.991409
0.308324 0.97113 0.991409
0.923659 0.99295 0.989364
0.991714 0.994842 0.991257
