Log3G10_RWG_to_ClasssicNeg.cube
TITLE "Generated by Resolve"
LUT_3D_SIZE 9
0.0104677 0.0158694 0.0142367
0.0325017 0.0157626 0.0108186
0.267445 0.061265 0.0144961
0.793683 0.161273 0.0264897
0.999237 0.213626 0.158572
1 0.282399 0.439475
1 0.388128 0.679988
1 0.455848 0.781216
1 0.510613 0.814313
0.000366217 0.0410163 0.0247349
0.0207675 0.0374609 0.0200351
0.223987 0.0588235 0.013077
0.752224 0.150942 0.0113375
0.991226 0.21033 0.119036
1 0.266178 0.405509
1 0.388128 0.679988
1 0.455848 0.781216
1 0.510613 0.814313
0 0.204486 0.110399
0 0.19263 0.100999
0.0896162 0.155627 0.067277
0.708492 0.186175 0.0235142
0.951675 0.187259 0.00698863
1 0.211398 0.245823
1 0.359838 0.595087
1 0.433188 0.759319
1 0.510613 0.814313
0 0.60824 0.331029
0 0.60145 0.324773
0 0.551934 0.289036
0.389578 0.486549 0.189578
0.911482 0.380087 0.135653
0.966842 0.193423 0.021561
1 0.251041 0.372122
1 0.385809 0.65832
1 0.424628 0.739025
0 0.84625 0.507012
0 0.84625 0.506996
0 0.835889 0.474266
0 0.808881 0.423026
0.836118 0.826856 0.297704
0.990707 0.662593 0.287129
0.923735 0.334188 0.109453
0.998337 0.236271 0.224155
1 0.36112 0.55436
0.00325017 0.863661 0.626688
0.00325017 0.863661 0.626688
0.00325017 0.863661 0.626688
0 0.843626 0.508644
0.272572 0.838804 0.412161
0.966537 0.922774 0.332998
0.973617 0.917769 0.338293
0.991608 0.861723 0.343923
0.978012 0.708858 0.309712
0.0574044 0.884352 0.744442
0.0574044 0.884352 0.744442
0.0573892 0.884352 0.744442
0.0573892 0.884352 0.744427
0 0.8327 0.457923
0.919661 0.909102 0.32192
0.976043 0.915877 0.342916
0.974044 0.916747 0.334966
0.972778 0.918379 0.334401
0.110857 0.903136 0.847608
0.110857 0.903136 0.847608
0.110857 0.903136 0.847608
0.110842 0.903136 0.847608
0.105562 0.901289 0.837507
0.709941 0.900908 0.507103
0.976684 0.915145 0.350317
0.976089 0.916625 0.362814
0.975296 0.918059 0.375723
0.147356 0.912627 0.904707
0.147356 0.912627 0.904707
0.147356 0.912627 0.904707
0.147356 0.912627 0.904707
0.147356 0.912627 0.904707
0.471138 0.913863 0.69456
0.972137 0.929931 0.465721
0.974823 0.922484 0.409369
0.973236 0.926452 0.440345
0.0246281 0.0279088 0.0495766
0.0406806 0.0225681 0.0394446
0.242008 0.0569009 0.0253758
0.792599 0.161975 0.0316777
0.999237 0.213535 0.160662
1 0.282399 0.43946
1 0.388128 0.679988
1 0.455848 0.781216
1 0.510613 0.814313
0.00796521 0.0356298 0.0362554
0.0235752 0.0337224 0.0316472
0.265141 0.0691844 0.0242771
0.754879 0.151919 0.0142672
0.991882 0.21059 0.121553
1 0.267414 0.408072
1 0.388128 0.679988
1 0.455848 0.781216
1 0.510613 0.814313
0 0.200565 0.108782
0 0.189364 0.0992905
0.0911269 0.153292 0.0657816
0.707088 0.184421 0.0225681
0.951919 0.187396 0.00741588
1 0.211536 0.247486
1 0.360815 0.596902
1 0.434302 0.760449
1 0.510613 0.814313
0 0.607187 0.330419
0 0.600504 0.324269
0 0.550774 0.288441
0.390112 0.485801 0.188907
0.912016 0.378607 0.134401
0.966934 0.193454 0.0217594
1 0.251438 0.372961
1 0.386007 0.658854
1 0.424659 0.739086
0 0.846204 0.506905
0 0.846204 0.506905
0 0.835874 0.474281
0 0.808759 0.42295
0.836622 0.826703 0.297597
0.990585 0.661952 0.286839
0.923919 0.333593 0.10898
0.998352 0.236561 0.225528
1 0.361379 0.554894
0.00323491 0.863661 0.626657
0.00323491 0.863661 0.626657
0.00323491 0.863661 0.626657
0 0.843626 0.508659
0.272679 0.838819 0.412161
0.966537 0.922774 0.332998
0.973648 0.917739 0.338308
0.991608 0.861692 0.343908
0.977584 0.708064 0.309377
0.0573892 0.884352 0.744427
0.0573892 0.884352 0.744427
0.0573892 0.884352 0.744427
0.0573892 0.884352 0.744411
0 0.832746 0.458106
0.919951 0.909117 0.32195
0.976059 0.915877 0.342885
0.974029 0.916762 0.334966
0.972778 0.918395 0.334401
0.110842 0.903136 0.847608
0.110842 0.903136 0.847608
0.110842 0.903136 0.847608
0.110842 0.903136 0.847608
0.105623 0.90132 0.837644
0.709941 0.900908 0.507088
0.976684 0.915145 0.350317
0.976089 0.916625 0.362768
0.975296 0.918059 0.375723
0.147356 0.912627 0.904707
0.147356 0.912627 0.904707
0.147356 0.912627 0.904707
0.147356 0.912627 0.904707
0.147356 0.912627 0.904707
0.47155 0.913893 0.694499
0.972137 0.929946 0.465797
0.974823 0.922484 0.409369
0.973236 0.926452 0.440345
0.102419 0.132128 0.310979
0.131807 0.137774 0.312581
0.280949 0.117998 0.222263
0.855924 0.172808 0.19118
1 0.21297 0.218616
1 0.282383 0.439429
1 0.388128 0.679988
1 0.455848 0.781216
1 0.510613 0.814313
0.0990921 0.123766 0.271458
0.109056 0.121431 0.274998
0.261295 0.110048 0.203235
0.772839 0.162768 0.141207
1 0.213626 0.174487
1 0.271901 0.417517
1 0.388128 0.679973
1 0.455848 0.781216
1 0.510613 0.814313
0.0417334 0.160204 0.179858
0.0385901 0.151263 0.168704
0.125338 0.145693 0.150393
0.745617 0.197192 0.0780957
0.960922 0.191562 0.0193332
1 0.212024 0.253956
1 0.361852 0.600534
1 0.437675 0.764446
1 0.510613 0.814313
0 0.595438 0.329107
0 0.588693 0.322576
0 0.544808 0.285313
0.392554 0.483101 0.186328
0.913558 0.374273 0.130724
0.967193 0.193591 0.0224308
1 0.252903 0.376104
1 0.386358 0.659876
1 0.425071 0.739834
0 0.846036 0.506584
0 0.846036 0.506584
0 0.835782 0.474342
0 0.808408 0.422766
0.838148 0.826185 0.29723
0.990127 0.659617 0.285786
0.924758 0.33051 0.10663
0.998398 0.23714 0.228367
1 0.361852 0.555993
0.00323491 0.863645 0.626551
0.00323491 0.863645 0.626551
0.00323491 0.863645 0.626551
0 0.843702 0.50898
0.271839 0.838865 0.412222
0.966598 0.922774 0.333013
0.973663 0.917708 0.338308
0.991684 0.861265 0.343923
0.977554 0.707668 0.309224
0.0573739 0.884352 0.744396
0.0573739 0.884352 0.744396
0.0573739 0.884352 0.744381
0.0573739 0.884352 0.744381
0 0.832731 0.458061
0.919829 0.909117 0.321935
0.976043 0.915877 0.342901
0.974029 0.916762 0.334951
0.972778 0.918395 0.334401
0.110842 0.903136 0.847593
0.110842 0.903136 0.847593
0.110842 0.903136 0.847593
0.110842 0.903136 0.847593
0.105837 0.901381 0.838026
0.709453 0.900771 0.507179
0.976684 0.915145 0.350347
0.976089 0.916625 0.362783
0.975311 0.918059 0.375677
0.147356 0.912627 0.904707
0.147356 0.912627 0.904707
0.147356 0.912627 0.904707
0.147356 0.912627 0.904707
0.147356 0.912627 0.904707
0.471107 0.913863 0.69456
0.972137 0.929931 0.465721
0.974823 0.922484 0.409369
0.973236 0.926452 0.440345
0.196643 0.308278 0.728588
0.205158 0.304173 0.719997
0.413077 0.302647 0.670359
0.842527 0.315206 0.560647
1 0.357458 0.589364
1 0.36466 0.608606
1 0.388128 0.679973
1 0.455833 0.781216
1 0.510613 0.814313
0.194293 0.304738 0.721187
0.20058 0.301976 0.714153
0.40174 0.30135 0.669886
0.832609 0.310994 0.552087
1 0.355596 0.584298
1 0.362585 0.604044
1 0.388128 0.679957
1 0.455833 0.781201
1 0.510613 0.814313
0.157656 0.293034 0.612726
0.160647 0.291691 0.620127
0.217929 0.277424 0.629007
0.761517 0.286519 0.510933
1 0.279637 0.432151
1 0.283726 0.442466
1 0.367864 0.617868
1 0.448585 0.775494
1 0.510613 0.814313
0.16524 0.533272 0.603983
0.162448 0.525765 0.59501
0.143465 0.472679 0.535348
0.473335 0.484642 0.482292
0.957153 0.408362 0.322927
0.977142 0.201831 0.0621958
1 0.258289 0.387549
1 0.387747 0.664271
1 0.42652 0.742458
0 0.851514 0.563333
0 0.851316 0.562112
0 0.836835 0.514565
0 0.802823 0.420294
0.841825 0.824018 0.295888
0.988754 0.651987 0.282322
0.927337 0.321416 0.0996414
0.998596 0.239536 0.24007
1 0.364996 0.5626
0.00318914 0.8636 0.6262
0.00318914 0.8636 0.6262
0.00318914 0.8636 0.626184
0 0.84387 0.509789
0.270237 0.839048 0.412314
0.96669 0.922759 0.333013
0.973785 0.917525 0.338338
0.991882 0.860014 0.343938
0.976272 0.704372 0.307866
0.0572976 0.884321 0.744259
0.0572976 0.884321 0.744259
0.0572976 0.884321 0.744259
0.0572976 0.884321 0.744244
0 0.832746 0.458137
0.919844 0.909117 0.321935
0.976028 0.915892 0.342931
0.974029 0.916777 0.334951
0.972747 0.91841 0.334401
0.110811 0.90312 0.847532
0.110811 0.90312 0.847532
0.110811 0.90312 0.847532
0.110811 0.90312 0.847517
0.106661 0.901671 0.839597
0.709773 0.900908 0.506935
0.976684 0.915129 0.35024
0.976089 0.916625 0.362768
0.975311 0.918044 0.375616
0.147356 0.912627 0.904707
0.147356 0.912627 0.904707
0.147356 0.912627 0.904707
0.147356 0.912627 0.904707
0.147356 0.912627 0.904707
0.470222 0.913802 0.694682
0.972137 0.929946 0.465797
0.974823 0.922499 0.409461
0.973236 0.926452 0.440345
0.240726 0.397482 0.904631
0.240833 0.396658 0.904295
0.419059 0.383993 0.873396
0.926284 0.405158 0.788174
1 0.412329 0.763668
1 0.415671 0.775402
1 0.41622 0.777111
1 0.455817 0.781186
1 0.510613 0.814313
0.240726 0.397421 0.904585
0.240787 0.396933 0.904372
0.415961 0.383764 0.873686
0.925444 0.40502 0.788022
1 0.412284 0.763531
1 0.415641 0.775296
1 0.41619 0.777035
1 0.455817 0.781186
1 0.510613 0.814313
0.240345 0.394903 0.902037
0.240345 0.394934 0.902083
0.325612 0.379568 0.883101
0.901686 0.402914 0.787366
1 0.409171 0.752605
1 0.414145 0.770962
1 0.416022 0.776562
1 0.455802 0.781186
1 0.510613 0.814313
0.21503 0.592126 0.942016
0.214801 0.591165 0.941543
0.217441 0.540215 0.923568
0.512551 0.467628 0.859586
1 0.408667 0.732174
1 0.389075 0.686381
1 0.39057 0.69163
1 0.392981 0.679774
1 0.432258 0.752605
0.275486 0.877836 0.997253
0.275502 0.877821 0.997238
0.271199 0.863462 0.987854
0.259236 0.822843 0.949248
0.871 0.838331 0.821515
0.988205 0.742657 0.689204
0.981262 0.271565 0.189471
0.999283 0.24799 0.281422
1 0.374014 0.582223
0.0973678 0.90164 0.826963
0.0970169 0.901518 0.826276
0.0959029 0.901106 0.824155
0.0286717 0.879698 0.696315
0.0998093 0.853376 0.432959
0.965805 0.922194 0.332326
0.974197 0.916915 0.33843
0.992599 0.855558 0.343999
0.970855 0.691127 0.302449
0.0570687 0.884245 0.743786
0.0570687 0.884245 0.743786
0.0570687 0.884245 0.743786
0.0570535 0.884245 0.74377
0 0.832792 0.458351
0.919814 0.909117 0.321935
0.975998 0.915953 0.343008
0.973983 0.916823 0.33492
0.972717 0.918456 0.334401
0.110689 0.903075 0.847303
0.110689 0.903075 0.847303
0.110689 0.903075 0.847303
0.110689 0.903075 0.847303
0.108721 0.902403 0.843565
0.707485 0.900267 0.507057
0.976699 0.915114 0.350134
0.976089 0.916609 0.362661
0.975311 0.918013 0.375311
0.147356 0.912627 0.904707
0.147356 0.912627 0.904707
0.147356 0.912627 0.904707
0.147356 0.912627 0.904707
0.147356 0.912627 0.904707
0.469184 0.913725 0.69482
0.972137 0.929946 0.465812
0.974823 0.922484 0.409384
0.973236 0.926452 0.440345
0.238514 0.407965 0.904585
0.238514 0.407965 0.904585
0.241047 0.403281 0.90222
0.904921 0.403769 0.785443
1 0.415381 0.775723
1 0.415656 0.776425
1 0.415229 0.775433
1 0.415579 0.775723
1 0.454597 0.790967
0.238514 0.407965 0.904585
0.238514 0.407965 0.90457
0.240925 0.403525 0.902342
0.903944 0.403677 0.785321
1 0.415396 0.775738
1 0.415656 0.77644
1 0.415229 0.775433
1 0.415595 0.775723
1 0.454719 0.791012
0.238514 0.407965 0.90457
0.238514 0.407965 0.90457
0.240436 0.404501 0.902831
0.900557 0.403342 0.784939
1 0.415396 0.775753
1 0.415671 0.776455
1 0.415229 0.775433
1 0.415625 0.775753
1 0.455192 0.791211
0.237919 0.425498 0.913344
0.237919 0.425483 0.913344
0.238849 0.406409 0.904616
0.551812 0.384131 0.844587
1 0.41503 0.775051
1 0.416892 0.77937
1 0.416037 0.77734
1 0.415702 0.776532
1 0.455222 0.791348
0.254032 0.875822 1
0.254032 0.875837 1
0.251698 0.871321 1
0.233036 0.829252 1
0.86807 0.784802 0.936156
1 0.595621 0.849119
1 0.416953 0.778958
1 0.417319 0.779904
1 0.425086 0.780118
0.296727 0.947097 1
0.296727 0.947097 1
0.296742 0.947097 1
0.296407 0.947021 1
0.373587 0.945754 1
0.997421 0.994171 0.988128
1 0.968627 0.958099
0.999756 0.860395 0.828321
0.977386 0.531838 0.457801
0.299794 0.920226 1
0.299794 0.920211 1
0.299779 0.92015 1
0.299702 0.919905 1
0.187579 0.913146 0.931044
0.844221 0.939788 0.742046
0.970336 0.933059 0.46804
0.973846 0.916991 0.334813
0.972534 0.918715 0.334417
0.110292 0.902937 0.84654
0.110292 0.902937 0.84654
0.110292 0.902937 0.84654
0.110292 0.902937 0.84654
0.110277 0.902937 0.846525
0.705531 0.900053 0.505745
0.976699 0.915068 0.349767
0.976104 0.916564 0.36228
0.975357 0.917891 0.374243
0.147356 0.912627 0.904707
0.147356 0.912627 0.904707
0.147356 0.912627 0.904707
0.147356 0.912627 0.904707
0.147356 0.912627 0.904707
0.461845 0.913207 0.695811
0.972107 0.930007 0.466239
0.974838 0.922469 0.409277
0.973236 0.926452 0.440345
0.23505 0.454994 0.923568
0.23505 0.454978 0.923552
0.235279 0.452354 0.922499
0.558984 0.383932 0.841871
1 0.414786 0.774105
1 0.415106 0.775128
1 0.415122 0.775174
1 0.415122 0.775174
1 0.415122 0.775174
0.23505 0.454948 0.923552
0.23505 0.454948 0.923537
0.235248 0.452674 0.922621
0.557061 0.383963 0.842237
1 0.414786 0.774105
1 0.415106 0.775128
1 0.415122 0.775174
1 0.415122 0.775174
1 0.415122 0.775174
0.235065 0.45481 0.923491
0.235065 0.45481 0.923491
0.235111 0.454353 0.923308
0.54818 0.384085 0.843961
1 0.414786 0.774105
1 0.415106 0.775128
1 0.415122 0.775174
1 0.415122 0.775174
1 0.415122 0.775174
0.235111 0.454322 0.923293
0.235111 0.454307 0.923293
0.235111 0.454276 0.923278
0.517678 0.384573 0.849714
1 0.414786 0.77409
1 0.415106 0.775128
1 0.415122 0.775174
1 0.415122 0.775174
1 0.415122 0.775174
0.228199 0.792676 1
0.228199 0.79266 1
0.228183 0.792599 1
0.238285 0.706416 1
0.902495 0.544762 0.837034
1 0.415518 0.774929
1 0.415122 0.775174
1 0.415122 0.775174
1 0.415122 0.775174
0.293446 0.946731 1
0.293446 0.946731 1
0.293446 0.946731 1
0.292378 0.944427 1
0.290517 0.933715 1
0.994812 0.973816 0.992081
1 0.916167 0.969451
1 0.63386 0.860487
1 0.431357 0.782696
0.297856 0.939193 1
0.297856 0.939193 1
0.297856 0.939193 1
0.297871 0.939193 1
0.297398 0.94136 1
0.892134 0.985229 1
1 1 1
1 1 1
0.999969 1 1
0.298482 0.939361 1
0.298482 0.939361 1
0.298482 0.939361 1
0.298482 0.939361 1
0.298482 0.93933 1
0.694255 0.950088 0.99913
0.998688 0.99939 0.992645
0.996536 0.998123 0.974731
0.993149 0.996887 0.957092
0.300313 0.92781 1
0.300313 0.927794 1
0.300313 0.927779 1
0.300328 0.927672 1
0.300359 0.927321 1
0.492515 0.93872 0.971618
0.984604 0.981704 0.852018
0.97084 0.950622 0.621012
0.974166 0.922972 0.413642
0.227787 0.616144 0.990417
0.227787 0.616159 0.990417
0.227787 0.616129 0.990417
0.230396 0.529564 0.95494
1 0.415274 0.774639
1 0.415122 0.775174
1 0.415122 0.775174
1 0.415122 0.775174
1 0.415122 0.775174
0.227787 0.616114 0.990417
0.227787 0.616114 0.990417
0.227787 0.616098 0.990402
0.230381 0.529747 0.955016
1 0.415274 0.774639
1 0.415122 0.775174
1 0.415122 0.775174
1 0.415122 0.775174
1 0.415122 0.775174
0.227787 0.616053 0.990387
0.227787 0.616053 0.990387
0.227787 0.616037 0.990387
0.230365 0.530236 0.95523
1 0.415274 0.774655
1 0.415122 0.775174
1 0.415122 0.775174
1 0.415122 0.775174
1 0.415122 0.775174
0.227771 0.615824 0.990311
0.227771 0.615808 0.990311
0.227771 0.615808 0.990311
0.230274 0.531868 0.955917
1 0.415229 0.774701
1 0.415122 0.775174
1 0.415122 0.775174
1 0.415122 0.775174
1 0.415122 0.775174
0.227726 0.614984 0.990036
0.227726 0.614969 0.990021
0.22771 0.614969 0.990021
0.229496 0.546044 0.962005
1 0.415106 0.774884
1 0.415122 0.775174
1 0.415122 0.775174
1 0.415122 0.775174
1 0.415122 0.775174
0.291447 0.941939 1
0.291447 0.941939 1
0.291447 0.941939 1
0.291447 0.941939 1
0.279545 0.920943 1
0.99704 0.940246 0.978744
1 0.82623 0.933471
1 0.445747 0.786801
1 0.415122 0.775174
0.294011 0.93962 1
0.294011 0.93962 1
0.294011 0.93962 1
0.294011 0.93962 1
0.293446 0.942107 1
0.800671 0.970092 1
0.999588 1 1
0.999313 1 1
0.99971 1 1
0.298955 0.93695 1
0.298955 0.93695 1
0.298955 0.93695 1
0.29897 0.93695 1
0.299001 0.93695 1
0.567452 0.94612 1
1 1 1
1 1 1
1 1 1
0.300069 0.937285 1
0.300084 0.937285 1
0.300069 0.937285 1
0.300069 0.937285 1
0.300069 0.937285 1
0.388174 0.940856 1
1 1 1
1 1 1
1 1 1
0.228504 0.628656 0.994629
0.228504 0.628656 0.994629
0.228504 0.628656 0.994629
0.225986 0.611627 0.990173
1 0.423407 0.77937
1 0.415122 0.775174
1 0.415122 0.775174
1 0.415122 0.775174
1 0.415122 0.775174
0.228504 0.628656 0.994629
0.228504 0.628656 0.994629
0.228504 0.628656 0.994629
0.226047 0.612406 0.990417
1 0.423423 0.779385
1 0.415122 0.775174
1 0.415122 0.775174
1 0.415122 0.775174
1 0.415122 0.775174
0.228504 0.628656 0.994629
0.228504 0.628656 0.994629
0.228504 0.628656 0.994629
0.226398 0.614572 0.990951
1 0.423545 0.779461
1 0.415122 0.775174
1 0.415122 0.775174
1 0.415122 0.775174
1 0.415122 0.775174
0.228504 0.628656 0.994629
0.228504 0.628656 0.994629
0.228504 0.628656 0.994629
0.227543 0.622171 0.99292
1 0.424048 0.779782
1 0.415122 0.775174
1 0.415122 0.775174
1 0.415122 0.775174
1 0.415122 0.775174
0.228504 0.628656 0.994629
0.228504 0.628656 0.994629
0.228504 0.628656 0.994629
0.228504 0.628656 0.994629
1 0.425834 0.780957
1 0.415122 0.775174
1 0.415122 0.775174
1 0.415122 0.775174
1 0.415122 0.775174
0.283528 0.927672 1
0.283513 0.927657 1
0.283528 0.927672 1
0.283513 0.927642 1
0.266133 0.896651 1
1 0.873411 0.951873
1 0.626947 0.856474
1 0.415122 0.775174
1 0.415122 0.775174
0.293736 0.940185 1
0.293736 0.940185 1
0.293736 0.940185 1
0.293736 0.940185 1
0.293141 0.942687 1
0.786313 0.969543 1
0.999466 1 1
0.999405 0.999893 0.999969
0.999954 0.999435 0.999817
0.295308 0.936645 1
0.295308 0.936645 1
0.295308 0.936645 1
0.295308 0.936645 1
0.295308 0.936645 1
0.513558 0.944549 1
0.999832 1 1
1 1 1
0.999817 1 1
0.296254 0.936599 1
0.296254 0.936599 1
0.296254 0.936599 1
0.296254 0.936599 1
0.296254 0.936599 1
0.345892 0.938537 1
0.999252 0.999985 1
1 1 1
1 1 1
