Log3G10_RWG_to_ClassicChrome.cube
TITLE "Generated by Resolve"
LUT_3D_SIZE 5
0 0 0
0.206622 0.0127718 0.0130159
1 0 0.202167
1 0.0176547 0.245106
1 0.0176547 0.245106
0 0.241733 0
0.206897 0.234104 0
1 0.204761 0.183093
1 0.0176547 0.245106
1 0.0176547 0.245106
0 1 0
0 1 0
0.892805 0.964797 0
1 0.698695 0.16762
1 0.0176547 0.245106
0 1 0
0 1 0
0 1 0
1 1 0.177035
1 1 0.132723
0 1 0
0 1 0
0 1 0
0.937224 1 0.204471
1 1 0.132723
0.00334173 0.0109407 0.0800336
0.262943 0.0102541 0.111055
1 0 0.254292
1 0.0176547 0.245106
1 0.0176547 0.245106
0 0.287678 0.336156
0.207767 0.208026 0.207797
1 0.128496 0.210544
1 0.0176547 0.245106
1 0.0176547 0.245106
0 1 0
0 1 0
0.894972 0.961379 0
1 0.693782 0.167452
1 0.0176547 0.245106
0 1 0
0 1 0
0 1 0
1 1 0.177096
1 1 0.132723
0 1 0
0 1 0
0 1 0
0.936751 1 0.204318
1 1 0.132723
0.00695811 0.0707408 0.630625
0.00701915 0.0705882 0.629541
1 0.232425 0.691203
1 0.163134 0.466987
1 0.0176547 0.245106
0.00697337 0.0699168 0.625696
0.00686656 0.0697948 0.624628
1 0.230594 0.68896
1 0.161181 0.460731
1 0.0176547 0.245106
0 0.926467 1
0 0.926482 1
0.884443 0.892546 0.887541
1 0.581827 0.360403
1 0.0176547 0.245106
0 1 0
0 1 0
0 1 0
1 1 0.176837
1 1 0.132723
0 1 0
0 1 0
0 1 0
0.933562 1 0.20296
1 1 0.132723
0 0.308659 1
0 0.308598 1
0.507576 0.426688 1
1 0.377127 1
1 0.342199 0.985138
0 0.308492 1
0 0.308431 1
0.486259 0.424353 1
1 0.377157 1
1 0.342107 0.98468
0 0.306523 1
0 0.306523 1
0.00376898 0.388495 1
1 0.376043 1
1 0.340276 0.979049
0 1 0.955932
0 1 0.955932
0 1 0.955932
1 1 1
1 1 0.981872
0 1 0
0 1 0
0 1 0
0.887465 1 0.19266
1 1 0.132723
0 0.386252 1
0 0.386252 1
0 0.386252 1
1 0.400153 1
1 0.400153 1
0 0.386252 1
0 0.386252 1
0 0.386252 1
1 0.400153 1
1 0.400153 1
0 0.386252 1
0 0.386252 1
0 0.386252 1
1 0.400153 1
1 0.400153 1
0 0.386252 1
0 0.386252 1
0 0.386252 1
1 0.400153 1
1 0.400153 1
0 1 0.955932
0 1 0.955932
0 1 0.955932
0 1 0.967147
1 1 1
