Log3G10_RWG_to_EternaBleachBypass.cube
TITLE "Generated by Resolve"
LUT_3D_SIZE 33
0 0 0
0 0 0
0 0 0
0.00805676 0.00167849 9.15541e-05
0.036286 0.00430304 0.0053254
0.0571908 0.00715648 0.0108186
0.0765393 0.009308 0.0158083
0.0986191 0.0123751 0.0191501
0.12459 0.0171664 0.0241245
0.159289 0.0191196 0.0317693
0.210178 0.0257115 0.0424964
0.27071 0.028687 0.0487831
0.349157 0.0261845 0.056199
0.425238 0.0325017 0.0636301
0.493492 0.0357824 0.0729992
0.553201 0.0484627 0.0869306
0.597986 0.0703899 0.106096
0.614679 0.0886397 0.117647
0.619944 0.100771 0.124834
0.622965 0.110155 0.128923
0.622965 0.110155 0.128923
0.622965 0.110155 0.128923
0.622965 0.110155 0.128923
0.622965 0.110155 0.128923
0.622965 0.110155 0.128923
0.622965 0.110155 0.128923
0.622965 0.110155 0.128923
0.622965 0.110155 0.128923
0.622965 0.110155 0.128923
0.622965 0.110155 0.128923
0.622965 0.110155 0.128923
0.622965 0.110155 0.128923
0.622965 0.110155 0.128923
0 0 0
0 0 0
0 0 0
0.00726329 0.00154116 1.5259e-05
0.0343023 0.00488289 0.00502022
0.054902 0.00666819 0.00982681
0.0758221 0.0087892 0.0152743
0.0964218 0.0113832 0.0178378
0.12462 0.0155184 0.0246738
0.158709 0.0190585 0.0315862
0.209995 0.0256962 0.0424506
0.270604 0.028687 0.0487678
0.34902 0.0261845 0.0561837
0.425101 0.0324865 0.0636149
0.493492 0.0357824 0.0729992
0.553094 0.0484016 0.0869001
0.59791 0.0703746 0.106065
0.614664 0.0886244 0.117632
0.619944 0.100771 0.124834
0.622965 0.110155 0.128923
0.622965 0.110155 0.128923
0.622965 0.110155 0.128923
0.622965 0.110155 0.128923
0.622965 0.110155 0.128923
0.622965 0.110155 0.128923
0.622965 0.110155 0.128923
0.622965 0.110155 0.128923
0.622965 0.110155 0.128923
0.622965 0.110155 0.128923
0.622965 0.110155 0.128923
0.622965 0.110155 0.128923
0.622965 0.110155 0.128923
0.622965 0.110155 0.128923
0 0 0
0 0 0
0 0 0
0.00408942 0.00077821 0.000198367
0.0297704 0.00474556 0.00538643
0.0521401 0.00505074 0.00816358
0.0708324 0.00924697 0.0139773
0.0930495 0.010605 0.0181582
0.118944 0.0134127 0.0235142
0.157671 0.0195163 0.0316014
0.213809 0.0255741 0.0412757
0.280629 0.0287633 0.0509499
0.34876 0.0261845 0.0561532
0.424979 0.0324712 0.0636149
0.49337 0.0357977 0.0729839
0.553094 0.0484016 0.0869001
0.59791 0.0703746 0.106065
0.614664 0.0886244 0.117632
0.619928 0.100755 0.124834
0.622965 0.110155 0.128923
0.622965 0.110155 0.128923
0.622965 0.110155 0.128923
0.622965 0.110155 0.128923
0.622965 0.110155 0.128923
0.622965 0.110155 0.128923
0.622965 0.110155 0.128923
0.622965 0.110155 0.128923
0.622965 0.110155 0.128923
0.622965 0.110155 0.128923
0.622965 0.110155 0.128923
0.622965 0.110155 0.128923
0.622965 0.110155 0.128923
0.622965 0.110155 0.128923
0.00151064 0.0120699 0.00155642
0.00146487 0.0118868 0.00151064
0.00137331 0.0115816 0.00144961
0.00375372 0.0106355 0.00141909
0.0260471 0.0124514 0.00486763
0.0521248 0.013962 0.0108186
0.073228 0.0146181 0.0146029
0.0958877 0.016846 0.0186313
0.124117 0.0191348 0.0252842
0.168536 0.0205081 0.0335393
0.231846 0.0265049 0.0440833
0.307057 0.0292363 0.0536049
0.37879 0.0257267 0.0591897
0.438605 0.0341955 0.0643778
0.493263 0.0357977 0.0729686
0.553002 0.0483558 0.0868544
0.597833 0.0703593 0.106035
0.614664 0.0886244 0.117632
0.619928 0.100755 0.124834
0.622965 0.110155 0.128923
0.622965 0.110155 0.128923
0.622965 0.110155 0.128923
0.622965 0.110155 0.128923
0.622965 0.110155 0.128923
0.622965 0.110155 0.128923
0.622965 0.110155 0.128923
0.622965 0.110155 0.128923
0.622965 0.110155 0.128923
0.622965 0.110155 0.128923
0.622965 0.110155 0.128923
0.622965 0.110155 0.128923
0.622965 0.110155 0.128923
0.622965 0.110155 0.128923
0.00646983 0.0388037 0.00788891
0.00643931 0.0385443 0.00787366
0.00666819 0.0368963 0.00834669
0.00720226 0.0356909 0.00851453
0.0291905 0.0401617 0.0142061
0.0564431 0.0435035 0.0164645
0.0791791 0.0441901 0.021149
0.1028 0.0471809 0.0246128
0.13756 0.0471962 0.032578
0.187289 0.0484016 0.0417029
0.257725 0.043946 0.0487068
0.338796 0.036408 0.05832
0.412757 0.0348363 0.0644541
0.478218 0.0352483 0.0707561
0.52668 0.0380102 0.0793164
0.555825 0.0495155 0.0883803
0.597833 0.0703593 0.106035
0.614664 0.0885939 0.117617
0.619928 0.100755 0.124834
0.622965 0.110155 0.128923
0.622965 0.110155 0.128923
0.622965 0.110155 0.128923
0.622965 0.110155 0.128923
0.622965 0.110155 0.128923
0.622965 0.110155 0.128923
0.622965 0.110155 0.128923
0.622965 0.110155 0.128923
0.622965 0.110155 0.128923
0.622965 0.110155 0.128923
0.622965 0.110155 0.128923
0.622965 0.110155 0.128923
0.622965 0.110155 0.128923
0.622965 0.110155 0.128923
0.0141909 0.0621805 0.0168917
0.0141909 0.0620737 0.0168612
0.01561 0.0626078 0.0168765
0.0156863 0.0625772 0.0166934
0.031281 0.0653086 0.0206455
0.0603952 0.0695964 0.0277104
0.0809949 0.072343 0.0294957
0.109148 0.0741894 0.0327611
0.145769 0.0750744 0.0402533
0.202609 0.0767834 0.0479896
0.281773 0.0742199 0.0561074
0.366552 0.0710765 0.0659342
0.449821 0.0668956 0.0767376
0.520378 0.0656291 0.0896315
0.568353 0.0615702 0.0966049
0.600748 0.0741131 0.106859
0.610895 0.0809033 0.113191
0.614649 0.0885634 0.117601
0.619913 0.100725 0.124834
0.622965 0.110155 0.128923
0.622965 0.110155 0.128923
0.622965 0.110155 0.128923
0.622965 0.110155 0.128923
0.622965 0.110155 0.128923
0.622965 0.110155 0.128923
0.622965 0.110155 0.128923
0.622965 0.110155 0.128923
0.622965 0.110155 0.128923
0.622965 0.110155 0.128923
0.622965 0.110155 0.128923
0.622965 0.110155 0.128923
0.622965 0.110155 0.128923
0.622965 0.110155 0.128923
0.0231785 0.0879988 0.0251621
0.0231785 0.087892 0.0251316
0.0232547 0.0881666 0.025391
0.0249485 0.0892042 0.0285649
0.0289464 0.0895094 0.0301518
0.0628061 0.0956436 0.0363012
0.0869612 0.0970932 0.0411383
0.112352 0.102251 0.0425422
0.151781 0.102983 0.0474708
0.213657 0.10312 0.0538491
0.293324 0.102281 0.0628367
0.37554 0.100359 0.0738537
0.454231 0.0996872 0.0860609
0.52546 0.106355 0.105913
0.58024 0.111666 0.118761
0.618753 0.113344 0.128801
0.615915 0.0917525 0.118532
0.617807 0.100359 0.122805
0.619898 0.100694 0.124819
0.622965 0.110155 0.128923
0.622965 0.110155 0.128923
0.622965 0.110155 0.128923
0.622965 0.110155 0.128923
0.622965 0.110155 0.128923
0.622965 0.110155 0.128923
0.622965 0.110155 0.128923
0.622965 0.110155 0.128923
0.622965 0.110155 0.128923
0.622965 0.110155 0.128923
0.622965 0.110155 0.128923
0.622965 0.110155 0.128923
0.622965 0.110155 0.128923
0.622965 0.110155 0.128923
0.0344549 0.12314 0.0402991
0.0344091 0.122972 0.0402533
0.034287 0.12314 0.0400854
0.033051 0.124544 0.0417945
0.032929 0.124239 0.0416724
0.0615396 0.129137 0.0489967
0.0900893 0.132357 0.055375
0.116701 0.134798 0.0579232
0.15523 0.13756 0.0588846
0.21503 0.138003 0.0634928
0.290501 0.136004 0.0711376
0.37232 0.136522 0.086717
0.45388 0.139132 0.098436
0.528832 0.148547 0.121721
0.5879 0.161593 0.142092
0.630793 0.17174 0.1561
0.640787 0.161761 0.154437
0.628412 0.127352 0.136751
0.622965 0.110155 0.128923
0.622965 0.110155 0.128923
0.622965 0.110155 0.128923
0.622965 0.110155 0.128923
0.622965 0.110155 0.128923
0.622965 0.110155 0.128923
0.622965 0.110155 0.128923
0.622965 0.110155 0.128923
0.622965 0.110155 0.128923
0.622965 0.110155 0.128923
0.622965 0.110155 0.128923
0.622965 0.110155 0.128923
0.622965 0.110155 0.128923
0.622965 0.110155 0.128923
0.622965 0.110155 0.128923
0.0553445 0.177905 0.063035
0.055314 0.177798 0.0629892
0.0552071 0.177722 0.0629587
0.0541848 0.180301 0.06421
0.0534218 0.18294 0.0641337
0.0588083 0.183047 0.0642405
0.0971084 0.186557 0.0737621
0.124758 0.185672 0.0772717
0.160204 0.185611 0.0838178
0.213504 0.188815 0.0826886
0.291539 0.186923 0.0896162
0.375326 0.186923 0.10486
0.460456 0.191928 0.121035
0.538674 0.206195 0.146914
0.602289 0.227771 0.170016
0.650843 0.24564 0.192737
0.673503 0.24538 0.198337
0.654627 0.203174 0.174166
0.641276 0.165011 0.154559
0.623697 0.112215 0.129274
0.622965 0.110155 0.128923
0.622965 0.110155 0.128923
0.622965 0.110155 0.128923
0.622965 0.110155 0.128923
0.622965 0.110155 0.128923
0.622965 0.110155 0.128923
0.622965 0.110155 0.128923
0.622965 0.110155 0.128923
0.622965 0.110155 0.128923
0.622965 0.110155 0.128923
0.622965 0.110155 0.128923
0.622965 0.110155 0.128923
0.622965 0.110155 0.128923
0.0842145 0.279316 0.102174
0.084123 0.279103 0.102098
0.0840314 0.278874 0.102007
0.0855573 0.281071 0.100389
0.0888685 0.290669 0.104707
0.0871138 0.283711 0.101549
0.109697 0.27219 0.103517
0.140047 0.267002 0.107713
0.174792 0.264836 0.113649
0.225467 0.26508 0.122683
0.299413 0.266941 0.128481
0.387808 0.27013 0.138979
0.477409 0.27895 0.161028
0.565606 0.297963 0.192691
0.64004 0.323583 0.21857
0.694453 0.345678 0.239704
0.729595 0.363058 0.25658
0.700435 0.305318 0.228656
0.675059 0.250324 0.201236
0.654734 0.198276 0.173693
0.631205 0.137774 0.141817
0.622965 0.110155 0.128923
0.622965 0.110155 0.128923
0.622965 0.110155 0.128923
0.622965 0.110155 0.128923
0.622965 0.110155 0.128923
0.622965 0.110155 0.128923
0.622965 0.110155 0.128923
0.622965 0.110155 0.128923
0.622965 0.110155 0.128923
0.622965 0.110155 0.128923
0.622965 0.110155 0.128923
0.622965 0.110155 0.128923
0.148272 0.424628 0.166186
0.148272 0.424628 0.166186
0.14815 0.424353 0.166064
0.148028 0.424063 0.165927
0.152102 0.434272 0.170871
0.141558 0.41178 0.159274
0.136629 0.389441 0.150851
0.167117 0.380423 0.155993
0.202472 0.374853 0.16025
0.251057 0.371389 0.169696
0.326543 0.37409 0.188342
0.413626 0.38294 0.201923
0.509789 0.397299 0.224384
0.608515 0.416312 0.252201
0.691905 0.445396 0.281422
0.7514 0.468757 0.305608
0.794858 0.487953 0.31783
0.774182 0.444678 0.296544
0.735637 0.373938 0.262592
0.70161 0.307668 0.230091
0.672923 0.244495 0.197955
0.644099 0.170123 0.158343
0.622965 0.110155 0.128923
0.622965 0.110155 0.128923
0.622965 0.110155 0.128923
0.622965 0.110155 0.128923
0.622965 0.110155 0.128923
0.622965 0.110155 0.128923
0.622965 0.110155 0.128923
0.622965 0.110155 0.128923
0.622965 0.110155 0.128923
0.622965 0.110155 0.128923
0.622965 0.110155 0.128923
0.226932 0.585779 0.247547
0.226825 0.585519 0.247425
0.226825 0.585519 0.247425
0.226719 0.58526 0.247318
0.226291 0.584405 0.246937
0.214069 0.557641 0.235126
0.198138 0.527276 0.219669
0.209171 0.508797 0.214267
0.243275 0.500282 0.219608
0.292271 0.497612 0.230182
0.366155 0.500847 0.249119
0.454002 0.510521 0.271809
0.553277 0.529213 0.295369
0.654795 0.551278 0.322011
0.737285 0.574243 0.35227
0.798901 0.593149 0.37229
0.843534 0.607233 0.381506
0.84152 0.585 0.370214
0.812497 0.520562 0.333715
0.776165 0.446983 0.298985
0.739345 0.37998 0.265339
0.700145 0.304021 0.227543
0.658091 0.20972 0.179095
0.622965 0.110155 0.128923
0.622965 0.110155 0.128923
0.622965 0.110155 0.128923
0.622965 0.110155 0.128923
0.622965 0.110155 0.128923
0.622965 0.110155 0.128923
0.622965 0.110155 0.128923
0.622965 0.110155 0.128923
0.622965 0.110155 0.128923
0.622965 0.110155 0.128923
0.280201 0.700786 0.305394
0.28011 0.700618 0.305303
0.28011 0.700618 0.305303
0.280018 0.700435 0.305211
0.280018 0.700435 0.305211
0.277409 0.694636 0.302281
0.262943 0.665675 0.286763
0.25066 0.641032 0.274571
0.282139 0.631662 0.277668
0.329671 0.627527 0.287098
0.403937 0.629786 0.304082
0.495079 0.639582 0.330877
0.591913 0.654261 0.359258
0.690105 0.67393 0.381155
0.773449 0.691173 0.399558
0.833097 0.704341 0.413565
0.876631 0.712276 0.421958
0.891356 0.702495 0.4206
0.873411 0.653147 0.404334
0.841932 0.587503 0.36846
0.815702 0.52578 0.335302
0.785702 0.464012 0.306279
0.738659 0.377432 0.264546
0.683238 0.267628 0.210193
0.630274 0.132387 0.139345
0.622965 0.110155 0.128923
0.622965 0.110155 0.128923
0.622965 0.110155 0.128923
0.622965 0.110155 0.128923
0.622965 0.110155 0.128923
0.622965 0.110155 0.128923
0.622965 0.110155 0.128923
0.622965 0.110155 0.128923
0.321492 0.77612 0.349065
0.321447 0.776028 0.349004
0.321447 0.776028 0.349004
0.321447 0.776028 0.349004
0.321416 0.775937 0.348943
0.32137 0.775845 0.348898
0.315236 0.767208 0.343145
0.303868 0.744778 0.33167
0.304997 0.731563 0.323888
0.353399 0.728405 0.332372
0.426947 0.732174 0.349966
0.516732 0.745495 0.37203
0.613764 0.759304 0.392508
0.709773 0.775051 0.413886
0.790707 0.786725 0.429969
0.850324 0.794919 0.439628
0.891966 0.79794 0.445731
0.91928 0.795941 0.446494
0.91162 0.761105 0.442939
0.894743 0.710735 0.427939
0.872221 0.650416 0.399268
0.853086 0.607034 0.377523
0.825055 0.548745 0.345037
0.78703 0.467262 0.30811
0.720897 0.345678 0.248417
0.650385 0.193469 0.170352
0.622965 0.110155 0.128923
0.622965 0.110155 0.128923
0.622965 0.110155 0.128923
0.622965 0.110155 0.128923
0.622965 0.110155 0.128923
0.622965 0.110155 0.128923
0.622965 0.110155 0.128923
0.346548 0.826886 0.379629
0.346548 0.826886 0.379629
0.346548 0.826886 0.379629
0.346548 0.826886 0.379629
0.346517 0.826825 0.379583
0.346517 0.826825 0.379583
0.346471 0.826764 0.379522
0.342016 0.816312 0.374945
0.332845 0.797787 0.364721
0.356268 0.792416 0.363561
0.424277 0.801556 0.374212
0.515038 0.815488 0.392981
0.612039 0.829984 0.411566
0.707866 0.84535 0.431617
0.791745 0.855329 0.446601
0.85452 0.860639 0.454887
0.896422 0.861341 0.462104
0.930434 0.861524 0.463416
0.929732 0.840406 0.465568
0.921828 0.803616 0.456046
0.909728 0.755581 0.442405
0.899214 0.720363 0.432959
0.887236 0.68426 0.417227
0.865415 0.63592 0.392813
0.829587 0.563302 0.356649
0.778164 0.451347 0.300206
0.690013 0.282094 0.215869
0.622965 0.110155 0.128923
0.622965 0.110155 0.128923
0.622965 0.110155 0.128923
0.622965 0.110155 0.128923
0.622965 0.110155 0.128923
0.622965 0.110155 0.128923
0.369757 0.862058 0.407996
0.369757 0.862058 0.407996
0.369757 0.862058 0.407996
0.369757 0.862058 0.407996
0.369726 0.862013 0.407965
0.369726 0.862013 0.407965
0.369696 0.861952 0.407919
0.369696 0.861952 0.407919
0.362203 0.850843 0.399619
0.353231 0.837736 0.388296
0.405692 0.843046 0.395789
0.494438 0.857313 0.411856
0.59324 0.873213 0.430304
0.690898 0.888182 0.446723
0.77969 0.899245 0.460029
0.845594 0.905196 0.467277
0.892546 0.906523 0.472221
0.926223 0.903975 0.474464
0.941573 0.893172 0.473686
0.937194 0.869398 0.473121
0.93048 0.835554 0.468437
0.92343 0.800534 0.459617
0.918532 0.779202 0.453223
0.90898 0.750698 0.441672
0.895903 0.711467 0.42977
0.875044 0.655756 0.403235
0.833661 0.568551 0.358099
0.764248 0.425666 0.288319
0.657542 0.213916 0.183368
0.622965 0.110155 0.128923
0.622965 0.110155 0.128923
0.622965 0.110155 0.128923
0.622965 0.110155 0.128923
0.401648 0.880034 0.446616
0.401648 0.880034 0.446616
0.401648 0.880034 0.446616
0.401648 0.880034 0.446616
0.401648 0.880034 0.446616
0.401556 0.880003 0.44651
0.401556 0.880003 0.44651
0.40145 0.879973 0.446387
0.40145 0.879973 0.446387
0.379461 0.873106 0.420844
0.379583 0.86746 0.413138
0.458854 0.880415 0.424811
0.55494 0.897108 0.441337
0.655512 0.912581 0.457923
0.749325 0.924895 0.471733
0.826123 0.931731 0.480613
0.878279 0.932738 0.48716
0.914626 0.930663 0.488746
0.941985 0.927214 0.48777
0.943236 0.912688 0.487266
0.942153 0.890074 0.485145
0.936248 0.863233 0.480308
0.932555 0.84509 0.473243
0.928817 0.828641 0.468482
0.924056 0.80734 0.462226
0.917769 0.778302 0.45243
0.903777 0.738415 0.436454
0.882185 0.677089 0.412985
0.84126 0.582208 0.365011
0.76704 0.430335 0.289601
0.658335 0.210437 0.179721
0.622965 0.110155 0.128923
0.622965 0.110155 0.128923
0.460044 0.897627 0.502983
0.460044 0.897627 0.502983
0.460044 0.897627 0.502983
0.460044 0.897627 0.502983
0.460044 0.897627 0.502983
0.460044 0.897627 0.502983
0.459937 0.897597 0.502876
0.459937 0.897597 0.502876
0.459831 0.897566 0.50277
0.459724 0.897536 0.502678
0.420096 0.88539 0.46392
0.426413 0.885756 0.449317
0.505348 0.901854 0.456352
0.601801 0.922957 0.467002
0.702495 0.938964 0.481819
0.78996 0.947509 0.491371
0.855131 0.950744 0.498741
0.897902 0.949798 0.50193
0.929458 0.948074 0.502327
0.94638 0.941573 0.501015
0.946456 0.926329 0.502968
0.944289 0.907546 0.499947
0.94229 0.889586 0.491356
0.939803 0.880186 0.485573
0.937331 0.867948 0.4813
0.934127 0.852125 0.476555
0.92929 0.830823 0.469886
0.923629 0.804089 0.460807
0.914549 0.76704 0.448692
0.897734 0.713985 0.429984
0.867201 0.639567 0.394491
0.82118 0.535256 0.341268
0.743236 0.386892 0.267643
0.516014 0.911543 0.554131
0.516014 0.911543 0.554131
0.516014 0.911543 0.554131
0.516014 0.911543 0.554131
0.516014 0.911543 0.554131
0.516014 0.911543 0.554131
0.516014 0.911543 0.554131
0.515908 0.911513 0.554025
0.515908 0.911513 0.554025
0.515816 0.911482 0.553918
0.515816 0.911482 0.553918
0.469688 0.900023 0.511238
0.488945 0.902373 0.498894
0.560555 0.918196 0.499046
0.649393 0.934401 0.502571
0.740948 0.949584 0.505669
0.820478 0.958968 0.510643
0.874571 0.963272 0.514763
0.91342 0.962524 0.515404
0.940932 0.959823 0.513298
0.948425 0.951659 0.514565
0.947509 0.937804 0.516426
0.946807 0.922469 0.513008
0.944747 0.91339 0.507164
0.943358 0.906584 0.501747
0.942107 0.897963 0.496849
0.941176 0.88716 0.489372
0.937835 0.8748 0.482521
0.934905 0.856855 0.478233
0.930694 0.835981 0.469413
0.924514 0.809079 0.461814
0.916609 0.778393 0.449744
0.905791 0.7449 0.438346
0.51841 0.912169 0.556634
0.51841 0.912169 0.556634
0.51841 0.912169 0.556634
0.51841 0.912169 0.556634
0.51841 0.912169 0.556634
0.51841 0.912169 0.556634
0.51841 0.912169 0.556634
0.51841 0.912169 0.556634
0.51841 0.912169 0.556634
0.51841 0.912169 0.556634
0.51841 0.912169 0.556634
0.51841 0.912169 0.556634
0.516396 0.912215 0.554299
0.543877 0.916991 0.538872
0.608667 0.929061 0.538537
0.691066 0.944289 0.541039
0.773342 0.954574 0.545464
0.842084 0.963409 0.545098
0.891539 0.967987 0.537392
0.924132 0.97026 0.52932
0.950896 0.969253 0.525948
0.949142 0.959899 0.529244
0.948592 0.948653 0.529747
0.948653 0.938689 0.525368
0.947127 0.933089 0.522026
0.947219 0.927245 0.517739
0.945708 0.921202 0.51191
0.945174 0.913741 0.506905
0.942901 0.905989 0.50222
0.942702 0.895262 0.495262
0.940719 0.885084 0.487846
0.93901 0.873899 0.482719
0.938293 0.863203 0.478996
0.51841 0.912169 0.556634
0.51841 0.912169 0.556634
0.51841 0.912169 0.556634
0.51841 0.912169 0.556634
0.51841 0.912169 0.556634
0.51841 0.912169 0.556634
0.51841 0.912169 0.556634
0.51841 0.912169 0.556634
0.51841 0.912169 0.556634
0.51841 0.912169 0.556634
0.51841 0.912169 0.556634
0.51841 0.912169 0.556634
0.51841 0.912169 0.556634
0.519997 0.912657 0.556023
0.586557 0.927275 0.568719
0.655451 0.939849 0.577188
0.729015 0.950591 0.580987
0.800824 0.958938 0.583352
0.860609 0.965713 0.579416
0.90219 0.969192 0.568261
0.933608 0.971572 0.555795
0.951156 0.972427 0.541665
0.951232 0.969223 0.545464
0.950744 0.958907 0.543496
0.950744 0.954604 0.539849
0.94934 0.950042 0.536583
0.949386 0.94551 0.532769
0.948333 0.940856 0.527367
0.948028 0.935393 0.522164
0.947478 0.930098 0.519295
0.947082 0.923919 0.515053
0.94667 0.918883 0.510292
0.945998 0.914565 0.50721
0.51841 0.912169 0.556634
0.51841 0.912169 0.556634
0.51841 0.912169 0.556634
0.51841 0.912169 0.556634
0.51841 0.912169 0.556634
0.51841 0.912169 0.556634
0.51841 0.912169 0.556634
0.51841 0.912169 0.556634
0.51841 0.912169 0.556634
0.51841 0.912169 0.556634
0.51841 0.912169 0.556634
0.51841 0.912169 0.556634
0.51841 0.912169 0.556634
0.51841 0.912169 0.556634
0.532723 0.914946 0.557656
0.610498 0.931304 0.57438
0.689097 0.945632 0.588144
0.764431 0.955428 0.602869
0.828107 0.962646 0.612909
0.877638 0.968215 0.61236
0.914992 0.971771 0.602716
0.942229 0.973251 0.586542
0.951659 0.97406 0.558846
0.951949 0.973587 0.557992
0.951766 0.971298 0.556191
0.951308 0.96788 0.552987
0.952026 0.964111 0.549111
0.950637 0.96054 0.545953
0.950469 0.956847 0.542611
0.949218 0.953933 0.538323
0.949462 0.950164 0.5346
0.949248 0.946792 0.531609
0.948928 0.944533 0.530007
0.51841 0.912169 0.556634
0.51841 0.912169 0.556634
0.51841 0.912169 0.556634
0.51841 0.912169 0.556634
0.51841 0.912169 0.556634
0.51841 0.912169 0.556634
0.51841 0.912169 0.556634
0.51841 0.912169 0.556634
0.51841 0.912169 0.556634
0.51841 0.912169 0.556634
0.51841 0.912169 0.556634
0.51841 0.912169 0.556634
0.51841 0.912169 0.556634
0.51841 0.912169 0.556634
0.51841 0.912169 0.556634
0.552087 0.91928 0.560662
0.636652 0.938033 0.578927
0.720058 0.950454 0.59263
0.796933 0.958831 0.609079
0.855589 0.965347 0.616983
0.898909 0.970596 0.617929
0.928954 0.97322 0.613245
0.951202 0.97528 0.602853
0.954849 0.975235 0.584482
0.952392 0.973754 0.566125
0.953628 0.973419 0.563836
0.952026 0.973709 0.560082
0.951583 0.973236 0.55848
0.952056 0.971847 0.556954
0.952361 0.970062 0.555627
0.952728 0.968338 0.553353
0.951202 0.966186 0.55108
0.951095 0.965042 0.549966
0.51841 0.912169 0.556634
0.51841 0.912169 0.556634
0.51841 0.912169 0.556634
0.51841 0.912169 0.556634
0.51841 0.912169 0.556634
0.51841 0.912169 0.556634
0.51841 0.912169 0.556634
0.51841 0.912169 0.556634
0.51841 0.912169 0.556634
0.51841 0.912169 0.556634
0.51841 0.912169 0.556634
0.51841 0.912169 0.556634
0.51841 0.912169 0.556634
0.51841 0.912169 0.556634
0.51841 0.912169 0.556634
0.51841 0.912169 0.556634
0.575998 0.925261 0.566049
0.67039 0.942184 0.584436
0.756344 0.953948 0.601831
0.826764 0.962615 0.613138
0.880598 0.968887 0.617807
0.915648 0.970993 0.614237
0.943236 0.974624 0.610208
0.954421 0.976532 0.589319
0.95201 0.974685 0.570748
0.952392 0.973754 0.566155
0.952392 0.973754 0.566155
0.952392 0.973754 0.566155
0.952728 0.973663 0.565713
0.952758 0.973632 0.565133
0.951888 0.97377 0.562951
0.951766 0.97377 0.562219
0.951659 0.97377 0.561532
0.51841 0.912169 0.556634
0.51841 0.912169 0.556634
0.51841 0.912169 0.556634
0.51841 0.912169 0.556634
0.51841 0.912169 0.556634
0.51841 0.912169 0.556634
0.51841 0.912169 0.556634
0.51841 0.912169 0.556634
0.51841 0.912169 0.556634
0.51841 0.912169 0.556634
0.51841 0.912169 0.556634
0.51841 0.912169 0.556634
0.51841 0.912169 0.556634
0.51841 0.912169 0.556634
0.51841 0.912169 0.556634
0.51841 0.912169 0.556634
0.51841 0.912169 0.556634
0.606149 0.930739 0.57435
0.705135 0.948196 0.590311
0.79028 0.958312 0.606973
0.855344 0.965988 0.616236
0.900114 0.970779 0.618296
0.931548 0.972702 0.613169
0.952148 0.97583 0.598749
0.954025 0.975525 0.580652
0.952331 0.973953 0.566567
0.952392 0.973754 0.566155
0.952392 0.973754 0.566155
0.952392 0.973754 0.566155
0.952392 0.973754 0.566155
0.952392 0.973754 0.566155
0.952392 0.973754 0.566155
0.952392 0.973754 0.566155
0.51841 0.912169 0.556634
0.51841 0.912169 0.556634
0.51841 0.912169 0.556634
0.51841 0.912169 0.556634
0.51841 0.912169 0.556634
0.51841 0.912169 0.556634
0.51841 0.912169 0.556634
0.51841 0.912169 0.556634
0.51841 0.912169 0.556634
0.51841 0.912169 0.556634
0.51841 0.912169 0.556634
0.51841 0.912169 0.556634
0.51841 0.912169 0.556634
0.51841 0.912169 0.556634
0.51841 0.912169 0.556634
0.51841 0.912169 0.556634
0.51841 0.912169 0.556634
0.521202 0.912886 0.555795
0.641413 0.93753 0.579934
0.743908 0.952895 0.598306
0.825162 0.962386 0.613519
0.881727 0.968963 0.617731
0.9187 0.97261 0.615442
0.9449 0.974548 0.608484
0.954803 0.975341 0.58854
0.953094 0.97438 0.570825
0.952392 0.973754 0.566155
0.952392 0.973754 0.566155
0.952392 0.973754 0.566155
0.952392 0.973754 0.566155
0.952392 0.973754 0.566155
0.952392 0.973754 0.566155
0.952392 0.973754 0.566155
0.51841 0.912169 0.556634
0.51841 0.912169 0.556634
0.51841 0.912169 0.556634
0.51841 0.912169 0.556634
0.51841 0.912169 0.556634
0.51841 0.912169 0.556634
0.51841 0.912169 0.556634
0.51841 0.912169 0.556634
0.51841 0.912169 0.556634
0.51841 0.912169 0.556634
0.51841 0.912169 0.556634
0.51841 0.912169 0.556634
0.51841 0.912169 0.556634
0.51841 0.912169 0.556634
0.51841 0.912169 0.556634
0.51841 0.912169 0.556634
0.51841 0.912169 0.556634
0.51841 0.912169 0.556634
0.559396 0.921508 0.563424
0.684901 0.944701 0.587488
0.785016 0.957839 0.607385
0.85658 0.966339 0.616373
0.904005 0.970306 0.616602
0.93434 0.974182 0.612284
0.95259 0.975753 0.598108
0.952926 0.974777 0.578408
0.952392 0.973754 0.566155
0.952392 0.973754 0.566155
0.952392 0.973754 0.566155
0.952392 0.973754 0.566155
0.952392 0.973754 0.566155
0.952392 0.973754 0.566155
0.952392 0.973754 0.566155
0.51841 0.912169 0.556634
0.51841 0.912169 0.556634
