Log3G10_RWG_to_Velvia.cube
TITLE "Generated by Resolve"
LUT_3D_SIZE 9
0 0 0
0.0102846 0.000244144 4.57771e-05
0.218067 0.000183108 0.000396735
0.659541 1.5259e-05 0.00230411
1 0 0.340993
0.999954 0.00456245 0.420554
0.999954 0.00456245 0.420554
0.999954 0.00456245 0.420554
0.999954 0.00456245 0.420554
4.57771e-05 0.00616464 0.000640879
0.000671397 0.00564584 0.00047303
0.227878 0.00161746 0.00015259
0.779431 0 0.0168612
1 0 0.340352
0.999954 0.00456245 0.420554
0.999954 0.00456245 0.420554
0.999954 0.00456245 0.420554
0.999954 0.00456245 0.420554
0 0.261967 0
0.000259403 0.275517 3.0518e-05
0.136416 0.254276 0.000137331
0.760632 0.222614 0
0.999298 0.188846 0.216526
0.999954 0.00456245 0.420554
0.999954 0.00456245 0.420554
0.999954 0.00456245 0.420554
0.999954 0.00456245 0.420554
0.000122072 0.887327 0.000106813
0.000122072 0.886961 0.000122072
0.00015259 0.806867 0.000213626
0.533242 0.694423 0
0.998764 0.630732 0
0.999069 0.473381 0.0122377
0.999313 0.0312657 0.385992
0.999954 0.00456245 0.420554
0.999954 0.00456245 0.420554
0 1 0.000289921
0 1 0.000289921
0 1 0.000289921
0 1 0.000289921
0.812757 0.96527 0
0.999374 0.863996 1.5259e-05
0.999603 0.735058 0
0.999466 0.51928 0.000839246
0.999954 0.00456245 0.420554
0 1 0.000289921
0 1 0.000289921
0 1 0.000289921
0 1 0.000289921
0 1 0.000289921
0.960189 0.999908 9.15541e-05
0.999603 0.994186 0.0146181
0.998932 0.962158 9.15541e-05
0.99968 0.917082 0.000457771
0 1 0.000289921
0 1 0.000289921
0 1 0.000289921
0 1 0.000289921
0 1 0.000289921
0.487373 0.999649 3.0518e-05
0.998596 0.999863 0.0192416
0.999969 0.999893 0.0155337
0.999969 0.999893 0.0155337
0 1 0.000289921
0 1 0.000289921
0 1 0.000289921
0 1 0.000289921
0 1 0.000289921
0 1 0.000289921
0.952758 0.999908 0.00875868
0.999969 0.999893 0.0155337
0.999969 0.999893 0.0155337
0 1 0.000289921
0 1 0.000289921
0 1 0.000289921
0 1 0.000289921
0 1 0.000289921
0 1 0.000289921
0.758938 0.999588 0
0.999969 0.999893 0.0155337
0.999969 0.999893 0.0155337
0 0 0.00112917
0.00836194 0.0010071 0.000350958
0.240284 0 1.5259e-05
0.672023 0 0.00128176
1 0 0.340352
0.999954 0.00456245 0.420554
0.999954 0.00456245 0.420554
0.999954 0.00456245 0.420554
0.999954 0.00456245 0.420554
0.000274662 0.00302129 0.00349432
0.0018616 0.00218204 0.00183108
0.245151 0.000167849 0.000411994
0.741314 1.5259e-05 0.0109407
1 0 0.339712
0.999954 0.00456245 0.420554
0.999954 0.00456245 0.420554
0.999954 0.00456245 0.420554
0.999954 0.00456245 0.420554
0 0.241138 0
0.000137331 0.25185 6.10361e-05
0.137911 0.236088 6.10361e-05
0.763806 0.205097 0
0.999435 0.168917 0.233753
0.999954 0.00456245 0.420554
0.999954 0.00456245 0.420554
0.999954 0.00456245 0.420554
0.999954 0.00456245 0.420554
0.000167849 0.883406 0.000167849
0.000183108 0.88304 0.000167849
0.000106813 0.802976 0.000213626
0.534234 0.691142 0
0.998688 0.627619 0
0.999176 0.469261 0.0140078
0.999466 0.0208743 0.399145
0.999954 0.00456245 0.420554
0.999954 0.00456245 0.420554
0 1 0.000289921
0 1 0.000289921
0 1 0.000289921
0 1 0.000289921
0.813581 0.964752 0
0.999359 0.863294 0
0.999619 0.734112 0
0.999512 0.517128 0.000991836
0.999954 0.00456245 0.420554
0 1 0.000289921
0 1 0.000289921
0 1 0.000289921
0 1 0.000289921
0 1 0.000289921
0.960159 0.999847 0.000106813
0.999603 0.994141 0.0145876
0.998932 0.96199 9.15541e-05
0.999664 0.916762 0.000442512
0 1 0.000289921
0 1 0.000289921
0 1 0.000289921
0 1 0.000289921
0 1 0.000289921
0.486992 0.999664 3.0518e-05
0.998596 0.999863 0.0192416
0.999969 0.999893 0.0155337
0.999969 0.999893 0.0155337
0 1 0.000289921
0 1 0.000289921
0 1 0.000289921
0 1 0.000289921
0 1 0.000289921
0 1 0.000289921
0.952758 0.999908 0.00875868
0.999969 0.999893 0.0155337
0.999969 0.999893 0.0155337
0 1 0.000289921
0 1 0.000289921
0 1 0.000289921
0 1 0.000289921
0 1 0.000289921
0 1 0.000289921
0.758938 0.999588 0
0.999969 0.999893 0.0155337
0.999969 0.999893 0.0155337
0.000259403 6.10361e-05 0.0961318
0.0018616 7.62951e-05 0.0831769
0.295445 0 0.102327
0.844282 0.00030518 0.205447
0.999603 0.00047303 0.445655
0.999954 0.00456245 0.420554
0.999954 0.00456245 0.420554
0.999954 0.00456245 0.420554
0.999954 0.00456245 0.420554
0.000122072 7.62951e-05 0.0900435
0.000518807 1.5259e-05 0.076463
0.285313 0 0.0935683
0.836545 0.000137331 0.185031
0.999649 0.000350958 0.441947
0.999954 0.00456245 0.420554
0.999954 0.00456245 0.420554
0.999954 0.00456245 0.420554
0.999954 0.00456245 0.420554
0.000366217 0.286839 0.37023
7.62951e-05 0.280232 0.345632
0.188281 0.188891 0.188312
0.824079 0.120607 0.121752
0.999893 0.0945602 0.310903
0.999954 0.00456245 0.420554
0.999954 0.00456245 0.420554
0.999954 0.00456245 0.420554
0.999954 0.00456245 0.420554
0 0.868421 0.000457771
0 0.868055 0.000442512
1.5259e-05 0.788663 0.000183108
0.538231 0.679118 0
0.998627 0.615305 0
0.999603 0.454017 0.0206149
0.999954 0.00456245 0.420554
0.999954 0.00456245 0.420554
0.999954 0.00456245 0.420554
0 1 0.000289921
0 1 0.000289921
0 1 0.000289921
0 1 0.000289921
0.816373 0.962936 0
0.999374 0.860243 1.5259e-05
0.999664 0.730236 0
0.999695 0.509071 0.00157168
0.999954 0.00456245 0.420554
0 1 0.000289921
0 1 0.000289921
0 1 0.000289921
0 1 0.000289921
0 1 0.000289921
0.960372 0.99968 0.000183108
0.999588 0.99379 0.0143893
0.998917 0.961334 0.000106813
0.999649 0.915846 0.000442512
0 1 0.000289921
0 1 0.000289921
0 1 0.000289921
0 1 0.000289921
0 1 0.000289921
0.486183 0.999664 3.0518e-05
0.998596 0.999863 0.0192264
0.999969 0.999893 0.0155337
0.999969 0.999893 0.0155337
0 1 0.000289921
0 1 0.000289921
0 1 0.000289921
0 1 0.000289921
0 1 0.000289921
0 1 0.000289921
0.952514 0.999908 0.0087129
0.999969 0.999893 0.0155337
0.999969 0.999893 0.0155337
0 1 0.000289921
0 1 0.000289921
0 1 0.000289921
0 1 0.000289921
0 1 0.000289921
0 1 0.000289921
0.758602 0.999588 0
0.999969 0.999893 0.0155337
0.999969 0.999893 0.0155337
0.000488289 0 0.434455
0.000488289 0 0.433463
0.311879 0.000167849 0.467399
0.951308 7.62951e-05 0.709331
0.999771 0.0241703 0.742351
0.999527 0.0248264 0.504097
0.999954 0.00456245 0.420554
0.999954 0.00456245 0.420554
0.999954 0.00456245 0.420554
0.000457771 0 0.42948
0.000442512 0 0.428489
0.301122 0.000183108 0.458244
0.947387 9.15541e-05 0.703166
0.999725 0.0229496 0.739895
0.999496 0.0230106 0.495064
0.999954 0.00456245 0.420554
0.999954 0.00456245 0.420554
0.999954 0.00456245 0.420554
0.000534066 0.00508125 0.624125
0.000671397 0.00296025 0.61474
0.307164 0.000396735 0.751369
0.998337 0.000183108 0.843336
0.999542 0.0186007 0.731212
0.999741 0.014847 0.459052
0.999954 0.00456245 0.420554
0.999954 0.00456245 0.420554
0.999954 0.00456245 0.420554
0.000381476 0.79173 0.951034
0.000381476 0.791165 0.949203
0.000366217 0.708995 0.763363
0.573556 0.57377 0.573602
0.999588 0.496544 0.502129
0.999466 0.349233 0.0721599
0.999954 0.00456245 0.420554
0.999954 0.00456245 0.420554
0.999954 0.00456245 0.420554
0 1 0.000289921
0 1 0.000289921
0 1 0.000289921
0 1 0.000289921
0.827543 0.956176 0
0.999512 0.84831 0.000167849
0.999832 0.716014 0
0.999908 0.476173 0.0118715
0.999954 0.00456245 0.420554
0 1 0.000289921
0 1 0.000289921
0 1 0.000289921
0 1 0.000289921
0 1 0.000289921
0.961181 0.999023 0.000442512
0.999542 0.992569 0.0136873
0.998886 0.95906 0.00015259
0.999573 0.912444 0.000442512
0 1 0.000289921
0 1 0.000289921
0 1 0.000289921
0 1 0.000289921
0 1 0.000289921
0.483543 0.99968 3.0518e-05
0.998596 0.999863 0.0192416
0.999969 0.999893 0.0155337
0.999969 0.999893 0.0155337
0 1 0.000289921
0 1 0.000289921
0 1 0.000289921
0 1 0.000289921
0 1 0.000289921
0 1 0.000289921
0.952041 0.999908 0.00865187
0.999969 0.999893 0.0155337
0.999969 0.999893 0.0155337
0 1 0.000289921
0 1 0.000289921
0 1 0.000289921
0 1 0.000289921
0 1 0.000289921
0 1 0.000289921
0.757259 0.999588 0
0.999969 0.999893 0.0155337
0.999969 0.999893 0.0155337
0.00106813 0.000549325 0.820478
0.00105287 0.000549325 0.820417
0.0010071 0.000564584 0.82005
0.961883 0.00047303 0.999954
0.99971 0.13785 0.985321
0.999939 0.134096 0.890257
0.999893 0.0886397 0.714717
0.999954 0.00456245 0.420554
0.999954 0.00456245 0.420554
0.0010071 0.000564584 0.82005
0.0010071 0.000564584 0.819989
0.000961318 0.000579843 0.819684
0.959136 0.000488289 0.999969
0.99971 0.137331 0.985153
0.999924 0.133852 0.889281
0.999893 0.0881208 0.713115
0.999954 0.00456245 0.420554
0.999954 0.00456245 0.420554
0.000823987 0.000640879 0.818509
0.000808728 0.000640879 0.818448
0.000762951 0.000656138 0.818067
0.947799 0.000442512 1
0.99971 0.135286 0.984619
0.999863 0.133074 0.885863
0.999908 0.0869001 0.706615
0.999954 0.00456245 0.420554
0.999954 0.00456245 0.420554
0.00030518 0.521782 0.999893
0.000320439 0.520745 0.999908
0.000335698 0.517128 0.999939
0.720562 0.270604 0.999802
0.999695 0.197711 0.999298
0.999649 0.130251 0.873152
0.999985 0.0838178 0.679438
0.999954 0.00456245 0.420554
0.999954 0.00456245 0.420554
0.000366217 0.938628 0.999893
0.000350958 0.938628 0.999908
0.000335698 0.938643 0.999908
0.000610361 0.916991 0.999878
0.830335 0.832258 0.831159
0.999924 0.70428 0.678096
0.999634 0.597375 0.292378
0.999283 0.278737 0.137545
0.999954 0.00456245 0.420554
0.000396735 0.999649 0.396643
0.000381476 0.999634 0.394568
0.000289921 0.999573 0.386801
9.15541e-05 0.999466 0.357443
0 1 0.000289921
0.965438 0.997055 0.00120546
0.999374 0.988174 0.0112001
0.998749 0.950652 0.00030518
0.999603 0.899519 0.000411994
0 1 0.000289921
0 1 0.000289921
0 1 0.000289921
0 1 0.000289921
0 1 0.000289921
0.47393 0.999725 0
0.998596 0.999863 0.0193027
0.999969 0.999893 0.0155337
0.999969 0.999893 0.0155337
0 1 0.000289921
0 1 0.000289921
0 1 0.000289921
0 1 0.000289921
0 1 0.000289921
0 1 0.000289921
0.950423 0.999893 0.00840772
0.999969 0.999893 0.0155337
0.999969 0.999893 0.0155337
0 1 0.000289921
0 1 0.000289921
0 1 0.000289921
0 1 0.000289921
0 1 0.000289921
0 1 0.000289921
0.752911 0.999603 0
0.999969 0.999893 0.0155337
0.999969 0.999893 0.0155337
0.0488136 0.0733654 0.994888
0.0488136 0.0733654 0.994888
0.0487678 0.0732738 0.994751
0.0423438 0.0766003 0.993347
0.999893 0.209796 0.998932
0.999786 0.220005 0.999954
0.999908 0.19733 0.999481
1 0.158846 0.970047
1 0.0957656 0.740414
0.0487678 0.0732738 0.994751
0.0487678 0.0732738 0.994751
0.0487373 0.073228 0.994675
0.0415503 0.07393 0.991058
0.999878 0.209415 0.998947
0.999786 0.219928 0.999954
0.999908 0.197253 0.999481
1 0.158724 0.969711
1 0.0956283 0.739406
0.0485542 0.0729229 0.994232
0.0485542 0.0729229 0.994232
0.0484932 0.0728313 0.994095
0.0373388 0.064622 0.978714
0.999878 0.208057 0.998947
0.999802 0.219684 0.999954
0.999908 0.196918 0.999496
1 0.15816 0.968246
1 0.0950942 0.735698
0.047776 0.0716564 0.99234
0.047776 0.0716564 0.99234
0.0477455 0.0716106 0.992264
0.0475776 0.0713207 0.991836
0.999817 0.203052 0.998978
0.999847 0.218845 0.999939
0.999908 0.195743 0.999527
1 0.156176 0.962997
0.999969 0.0928359 0.721553
0.000213626 0.725795 0.999695
0.000213626 0.725475 0.999695
0.000213626 0.724544 0.999695
0.000213626 0.721355 0.99968
0.867994 0.535271 0.999603
0.999908 0.440452 0.999802
0.999878 0.19144 0.999649
0.999969 0.14902 0.942824
0.999603 0.0782025 0.660365
0.000579843 0.986755 0.999649
0.000579843 0.986755 0.999649
0.000579843 0.986755 0.999649
0.000579843 0.986755 0.999649
0.00015259 0.972503 0.999969
0.942382 0.946944 0.94638
0.999847 0.872801 0.82089
0.999603 0.820294 0.598291
0.998199 0.841321 0
0 0.994064 0.988815
0 0.99411 0.988708
0 0.994247 0.988266
0 0.994766 0.986679
6.10361e-05 0.996719 0.970092
0.412528 0.999985 0.348547
0.99881 0.999619 0.0217746
0.999969 0.999893 0.0155337
0.999969 0.999893 0.0155337
0 1 0.000289921
0 1 0.000289921
0 1 0.000289921
0 1 0.000289921
0 1 0.000289921
0 1 0.000289921
0.94461 0.999863 0.00737011
0.999969 0.999893 0.0155337
0.999969 0.999893 0.0155337
0 1 0.000289921
0 1 0.000289921
0 1 0.000289921
0 1 0.000289921
0 1 0.000289921
0 1 0.000289921
0.737896 0.999603 4.57771e-05
0.999969 0.999893 0.0155337
0.999969 0.999893 0.0155337
0.15378 0.186999 1
0.15378 0.186999 1
0.153826 0.186923 1
0.153887 0.186847 1
0.730144 0.29865 0.999954
0.999435 0.267872 0.998993
0.999481 0.266011 0.998947
0.99971 0.256397 0.999695
0.999878 0.245228 0.998932
0.153826 0.186923 1
0.153826 0.186923 1
0.153826 0.186923 1
0.153933 0.18677 1
0.727581 0.298161 0.999939
0.999435 0.267887 0.998993
0.999481 0.266011 0.998947
0.99971 0.256397 0.999695
0.999878 0.245197 0.998932
0.153933 0.18677 1
0.153933 0.18677 1
0.153979 0.186694 1
0.154025 0.186618 1
0.71809 0.296605 0.999939
0.999451 0.267903 0.999008
0.999481 0.265995 0.998947
0.999695 0.256306 0.99968
0.999878 0.245106 0.998947
0.15433 0.186145 1
0.15433 0.186145 1
0.154376 0.186069 1
0.154421 0.185992 1
0.681697 0.290623 0.999741
0.999466 0.267994 0.999054
0.999481 0.265949 0.998978
0.99968 0.256046 0.999664
0.999878 0.244724 0.998962
0.155718 0.183963 1
0.155764 0.183886 1
0.155764 0.183886 1
0.155871 0.183734 1
0.482963 0.263935 0.999786
0.999527 0.268284 0.999222
0.999512 0.265797 0.999023
0.999603 0.25507 0.999588
0.999908 0.243442 0.999008
0.000335698 0.940154 0.999969
0.000335698 0.940154 0.999969
0.000350958 0.940002 0.999969
0.000366217 0.939406 0.999969
0.000396735 0.937438 0.999924
0.987396 0.705745 0.999512
0.999817 0.59556 0.999374
0.999878 0.495216 0.999695
0.999985 0.238758 0.999161
0.000579843 0.986755 0.999649
0.000579843 0.986755 0.999649
0.000579843 0.986755 0.999649
0.000579843 0.986755 0.999649
0.000579843 0.986755 0.999649
0.000579843 0.986572 0.999847
0.989944 0.99588 0.994568
0.999939 0.986893 0.945144
0.999695 0.980133 0.878416
0.000579843 0.986755 0.999649
0.000579843 0.986755 0.999649
0.000579843 0.986755 0.999649
0.000579843 0.986755 0.999649
0.000579843 0.986755 0.999649
0.000579843 0.986755 0.999649
0.803998 0.999283 0.817273
0.999893 0.999664 0.534661
0.999496 0.999847 0.250782
0 1 0.000289921
0 1 0.000289921
0 1 0.000289921
0 1 0.000289921
0 1 0.000289921
0 1 0.000289921
0.690547 0.999451 0.000350958
0.999969 0.999893 0.0155337
0.999969 0.999893 0.0155337
0.0535744 0.297597 1
0.0535744 0.297597 1
0.0536202 0.297551 1
0.0536202 0.297551 1
0.053727 0.297459 1
0.999435 0.271672 0.999695
0.999435 0.271672 0.999695
0.999435 0.271672 0.999695
0.999435 0.271672 0.999695
0.0536202 0.297551 1
0.0536202 0.297551 1
0.0536202 0.297551 1
0.0536202 0.297551 1
0.0537881 0.297414 1
0.999435 0.271672 0.999695
0.999435 0.271672 0.999695
0.999435 0.271672 0.999695
0.999435 0.271672 0.999695
0.0536202 0.297551 1
0.0536812 0.297505 1
0.0536812 0.297505 1
0.0536812 0.297505 1
0.0538338 0.297368 1
0.999435 0.271672 0.999695
0.999435 0.271672 0.999695
0.999435 0.271672 0.999695
0.999435 0.271672 0.999695
0.0537881 0.297414 1
0.0538338 0.297368 1
0.0538338 0.297368 1
0.0538338 0.297368 1
0.0539864 0.29723 1
0.999435 0.271672 0.999695
0.999435 0.271672 0.999695
0.999435 0.271672 0.999695
0.999435 0.271672 0.999695
0.0543679 0.296895 1
0.0543679 0.296895 1
0.0543679 0.296895 1
0.0544137 0.296849 1
0.0545205 0.296757 1
0.999435 0.271672 0.999695
0.999435 0.271672 0.999695
0.999435 0.271672 0.999695
0.999435 0.271672 0.999695
0.0563668 0.295125 1
0.0563668 0.295125 1
0.0563668 0.295125 1
0.0564126 0.295079 1
0.0565194 0.294972 1
0.999435 0.271672 0.999695
0.999435 0.271672 0.999695
0.999435 0.271672 0.999695
0.999435 0.271672 0.999695
0.000579843 0.986755 0.999649
0.000579843 0.986755 0.999649
0.000579843 0.986755 0.999649
0.000579843 0.986755 0.999649
0.000579843 0.986755 0.999649
0.000701915 0.985855 0.999878
0.999908 0.913588 0.999481
0.999771 0.855283 0.999527
0.999649 0.809964 0.999207
0.000579843 0.986755 0.999649
0.000579843 0.986755 0.999649
0.000579843 0.986755 0.999649
0.000579843 0.986755 0.999649
0.000579843 0.986755 0.999649
0.000579843 0.986755 0.999649
0.605753 0.999405 0.999756
1 1 1
1 1 1
0.000579843 0.986755 0.999649
0.000579843 0.986755 0.999649
0.000579843 0.986755 0.999649
0.000579843 0.986755 0.999649
0.000579843 0.986755 0.999649
0.000579843 0.986755 0.999649
0.0712749 0.999588 0.999924
1 1 1
0.999741 1 0.998367
0.0298772 0.319417 1
0.0298772 0.319417 1
0.0298772 0.319417 1
0.0298772 0.319417 1
0.0298772 0.319417 1
0.0298772 0.319417 1
0.999435 0.271672 0.999695
0.999435 0.271672 0.999695
0.999435 0.271672 0.999695
0.0298772 0.319417 1
0.0298772 0.319417 1
0.0298772 0.319417 1
0.0298772 0.319417 1
0.0298772 0.319417 1
0.0298772 0.319417 1
0.999435 0.271672 0.999695
0.999435 0.271672 0.999695
0.999435 0.271672 0.999695
0.0298772 0.319417 1
0.0298772 0.319417 1
0.0298772 0.319417 1
0.0298772 0.319417 1
0.0298772 0.319417 1
0.0298772 0.319417 1
0.999435 0.271672 0.999695
0.999435 0.271672 0.999695
0.999435 0.271672 0.999695
0.0298772 0.319417 1
0.0298772 0.319417 1
0.0298772 0.319417 1
0.0298772 0.319417 1
0.0298772 0.319417 1
0.0298772 0.319417 1
0.999435 0.271672 0.999695
0.999435 0.271672 0.999695
0.999435 0.271672 0.999695
0.0298772 0.319417 1
0.0298772 0.319417 1
0.0298772 0.319417 1
0.0298772 0.319417 1
0.0298772 0.319417 1
0.0298772 0.319417 1
0.999435 0.271672 0.999695
0.999435 0.271672 0.999695
0.999435 0.271672 0.999695
0.0298772 0.319417 1
0.0298772 0.319417 1
0.0298772 0.319417 1
0.0298772 0.319417 1
0.0298772 0.319417 1
0.0298772 0.319417 1
0.999435 0.271672 0.999695
0.999435 0.271672 0.999695
0.999435 0.271672 0.999695
0.0298772 0.319417 1
0.0298772 0.319417 1
0.0298772 0.319417 1
0.0298772 0.319417 1
0.0298772 0.319417 1
0.0298772 0.319417 1
0.999435 0.271672 0.999695
0.999435 0.271672 0.999695
0.999435 0.271672 0.999695
0.000579843 0.986755 0.999649
0.000579843 0.986755 0.999649
0.000579843 0.986755 0.999649
0.000579843 0.986755 0.999649
0.000579843 0.986755 0.999649
0.000579843 0.986755 0.999649
0.469368 0.999939 0.999573
1 1 1
1 1 1
0.000579843 0.986755 0.999649
0.000579843 0.986755 0.999649
0.000579843 0.986755 0.999649
0.000579843 0.986755 0.999649
0.000579843 0.986755 0.999649
0.000579843 0.986755 0.999649
0.000579843 0.986419 1
0.9991 0.999954 0.999298
1 1 1
