Log3G10_RWG_to_ProNeg_Std.cube
TITLE "Generated by Resolve"
LUT_3D_SIZE 33
0.0216831 0.0213779 0.0215305
0.0270695 0.0218967 0.0219425
0.0355993 0.0228428 0.0229038
0.0487984 0.0244297 0.0252689
0.0729992 0.0278019 0.029572
0.128069 0.0367437 0.0411994
0.208667 0.0500191 0.0592508
0.291676 0.0628519 0.0772412
0.372244 0.0802625 0.0967575
0.455802 0.0982071 0.12015
0.543359 0.116579 0.148852
0.633936 0.135302 0.182132
0.730465 0.154788 0.223056
0.822889 0.172793 0.269795
0.910704 0.188937 0.324895
0.982345 0.20235 0.3888
1 0.209537 0.45359
1 0.216083 0.520714
1 0.226627 0.593317
1 0.23566 0.662348
1 0.241108 0.731579
1 0.243748 0.800565
1 0.245655 0.866545
1 0.247333 0.925689
1 0.250568 0.971572
1 0.259861 0.993286
1 0.276616 1
1 0.298466 1
1 0.327062 1
1 0.353994 1
1 0.380926 1
1 0.402716 1
1 0.407767 1
0.021088 0.025803 0.0204318
0.0242313 0.0249332 0.0196078
0.0324254 0.0254673 0.0203861
0.045655 0.0260166 0.0228122
0.0697032 0.0293736 0.0280461
0.123812 0.0382849 0.0399786
0.207126 0.0523232 0.0589151
0.291417 0.0654154 0.0774701
0.372457 0.0805066 0.0961624
0.452247 0.0975967 0.117769
0.539223 0.115908 0.145602
0.629541 0.134615 0.178363
0.725429 0.153979 0.218753
0.817746 0.172 0.264927
0.905653 0.188251 0.319173
0.9776 0.201755 0.382574
1 0.209247 0.447669
1 0.214939 0.513451
1 0.226078 0.589303
1 0.235645 0.662211
1 0.241108 0.731563
1 0.243748 0.800565
1 0.245655 0.866545
1 0.247333 0.925673
1 0.250568 0.971572
1 0.259861 0.993286
1 0.276616 1
1 0.298466 1
1 0.327062 1
1 0.353994 1
1 0.380926 1
1 0.402716 1
1 0.407767 1
0.0204471 0.0329137 0.0193027
0.0232548 0.032166 0.0188602
0.028397 0.0305943 0.0171817
0.0421912 0.0292363 0.0204013
0.0618906 0.0307622 0.0243992
0.111284 0.0385443 0.0356298
0.195361 0.0522316 0.0548562
0.284566 0.0675669 0.0758831
0.374411 0.0813458 0.0961471
0.449653 0.0972 0.115328
0.534127 0.115053 0.141756
0.623621 0.133684 0.173297
0.718685 0.152926 0.21268
0.810697 0.170947 0.257939
0.898863 0.187335 0.311254
0.973648 0.201129 0.374151
1 0.209155 0.440024
1 0.213931 0.504494
1 0.224628 0.579904
1 0.234791 0.653635
1 0.240955 0.728344
1 0.243748 0.800549
1 0.245655 0.866529
1 0.247333 0.925673
1 0.250568 0.971572
1 0.259861 0.993286
1 0.276616 1
1 0.298466 1
1 0.327062 1
1 0.353994 1
1 0.380926 1
1 0.402716 1
1 0.407767 1
0.0194095 0.0436408 0.0175937
0.0218204 0.0429847 0.0174105
0.0258946 0.0409552 0.0172732
0.0349279 0.0389105 0.0142367
0.0577249 0.0364843 0.0209049
0.0908522 0.0404974 0.0295262
0.170123 0.0520943 0.0462348
0.268833 0.0675059 0.0699016
0.367041 0.0836347 0.093492
0.445396 0.0965286 0.111513
0.527565 0.114031 0.135882
0.616892 0.132692 0.166537
0.71014 0.151751 0.203357
0.801297 0.16965 0.247532
0.889555 0.186099 0.300221
0.967361 0.200244 0.362417
1 0.208957 0.429007
1 0.213275 0.493004
1 0.223026 0.567971
1 0.233463 0.641596
1 0.240284 0.716472
1 0.243549 0.793683
1 0.245655 0.866529
1 0.247333 0.925673
1 0.250568 0.971572
1 0.259861 0.993271
1 0.276616 1
1 0.298466 1
1 0.327047 1
1 0.353994 1
1 0.380926 1
1 0.402716 1
1 0.407767 1
0.0173495 0.0608835 0.0168307
0.0201267 0.0605783 0.0166934
0.0239109 0.0597696 0.016434
0.0305486 0.0562448 0.0160067
0.0445106 0.0517128 0.0123293
0.088838 0.0493019 0.0247044
0.147387 0.0583658 0.0397192
0.232578 0.0694591 0.0559243
0.338659 0.0834821 0.0801099
0.439414 0.0983902 0.105943
0.517891 0.112551 0.125643
0.599298 0.129915 0.149905
0.699229 0.150362 0.190265
0.789639 0.168185 0.233021
0.876799 0.184512 0.284184
0.957336 0.198978 0.344747
0.998306 0.20853 0.412055
1 0.212604 0.476722
1 0.220478 0.550042
1 0.231434 0.625284
1 0.239399 0.700389
1 0.24303 0.777951
1 0.245304 0.854093
1 0.247288 0.923827
1 0.250568 0.971572
1 0.259861 0.993271
1 0.276616 1
1 0.298466 1
1 0.327047 1
1 0.353994 1
1 0.380926 1
1 0.402716 1
1 0.407767 1
0.0222324 0.0938735 0.0168765
0.021973 0.0928969 0.0152743
0.0226139 0.0920577 0.0146792
0.027924 0.0907912 0.014023
0.0387121 0.0849775 0.0134585
0.0619974 0.0745251 0.00917067
0.139284 0.0723735 0.0307469
0.219776 0.0847944 0.0519875
0.305745 0.0938582 0.0657816
0.40206 0.101839 0.0853437
0.498085 0.112718 0.110079
0.590646 0.12903 0.137697
0.673609 0.146426 0.163027
0.769467 0.165682 0.207477
0.860746 0.182925 0.259434
0.942687 0.197498 0.318044
0.994354 0.208164 0.385153
1 0.211902 0.451606
1 0.216114 0.519707
1 0.227604 0.599191
1 0.237263 0.67631
1 0.242267 0.755322
1 0.244739 0.833844
1 0.246784 0.906218
1 0.249821 0.966064
1 0.259846 0.993271
1 0.2766 1
1 0.298466 1
1 0.327047 1
1 0.353994 1
1 0.380926 1
1 0.402716 1
1 0.407767 1
0.0339055 0.144045 0.0228275
0.0335699 0.142794 0.0201267
0.0330816 0.140826 0.0178683
0.0324712 0.138323 0.0167239
0.0360876 0.135164 0.0159152
0.0543679 0.123812 0.0142061
0.0899367 0.108415 0.00552377
0.186587 0.105379 0.0294041
0.305364 0.119829 0.0648203
0.398795 0.124117 0.082887
0.474968 0.127916 0.100343
0.563409 0.133379 0.124666
0.656413 0.145953 0.155535
0.747005 0.162173 0.184955
0.834806 0.180148 0.220966
0.927108 0.19678 0.283024
0.988876 0.208179 0.350362
1 0.212894 0.419883
1 0.214221 0.486305
1 0.222416 0.562219
1 0.233478 0.640848
1 0.240558 0.720302
1 0.243809 0.802121
1 0.246036 0.879728
1 0.247959 0.946273
1 0.256062 0.988342
1 0.275303 1
1 0.298466 1
1 0.327047 1
1 0.353994 1
1 0.380926 1
1 0.402716 1
1 0.407767 1
0.0483864 0.20621 0.0317998
0.0480201 0.204746 0.0294499
0.047425 0.202441 0.0261387
0.0466011 0.199054 0.0237888
0.0455329 0.194339 0.0232242
0.0509651 0.189212 0.0220188
0.0805829 0.172213 0.0193484
0.126345 0.15288 0.00642405
0.245304 0.146883 0.0336461
0.38558 0.159121 0.0796368
0.489799 0.158068 0.102678
0.56083 0.158434 0.121218
0.638926 0.156741 0.140627
0.728786 0.163867 0.170748
0.812222 0.176226 0.203922
0.895354 0.19295 0.240482
0.977401 0.208392 0.308339
1 0.214343 0.382635
1 0.214069 0.452247
1 0.216541 0.520302
1 0.227985 0.601465
1 0.237919 0.683116
1 0.242618 0.763348
1 0.244968 0.841886
1 0.246983 0.913527
1 0.251301 0.970397
1 0.264622 1
1 0.28864 1
1 0.325872 1
1 0.353979 1
1 0.380911 1
1 0.402701 1
1 0.407767 1
0.0662394 0.282872 0.0428168
0.0658427 0.281285 0.0410925
0.0652628 0.27892 0.0383459
0.0643168 0.275105 0.0340734
0.063035 0.269703 0.0321355
0.060914 0.260594 0.0310369
0.0719005 0.253819 0.029099
0.112551 0.2336 0.0256657
0.173953 0.210773 0.00727855
0.314824 0.202976 0.0419928
0.459586 0.208179 0.0961166
0.57528 0.203082 0.123857
0.653544 0.195987 0.141985
0.729183 0.18674 0.160418
0.804456 0.182589 0.186328
0.874083 0.189441 0.221286
0.944381 0.203601 0.260075
0.998383 0.216419 0.330526
1 0.216464 0.411887
1 0.214099 0.477989
1 0.221027 0.554528
1 0.233402 0.641032
1 0.240772 0.724407
1 0.243839 0.804318
1 0.245991 0.877806
1 0.248524 0.938811
1 0.25568 0.982773
1 0.269657 1
1 0.296651 1
1 0.330587 1
1 0.370077 1
1 0.402701 1
1 0.407767 1
0.0861372 0.368215 0.0554665
0.0858778 0.367132 0.0543832
0.0853285 0.36492 0.0525216
0.0845045 0.361685 0.0488136
0.0831922 0.35639 0.0432136
0.0812848 0.348211 0.0413367
0.0781872 0.334524 0.0397192
0.0988937 0.327016 0.0368048
0.154147 0.303868 0.0333867
0.233677 0.279576 0.00706493
0.387655 0.271824 0.047837
0.530556 0.264942 0.108339
0.656168 0.258228 0.143725
0.750607 0.241962 0.163455
0.817929 0.221836 0.179324
0.879942 0.202625 0.19884
0.937072 0.203616 0.23537
0.983047 0.213794 0.275792
1 0.220584 0.343847
1 0.216678 0.430945
1 0.215595 0.500313
1 0.226566 0.590417
1 0.237736 0.680659
1 0.242618 0.76437
1 0.244907 0.840116
1 0.246937 0.905974
1 0.25153 0.958022
1 0.260044 0.996582
1 0.276555 0.999924
1 0.297536 1
1 0.322576 1
1 0.347814 1
1 0.362051 1
0.106157 0.453971 0.0696422
0.106157 0.453956 0.0696422
0.105653 0.451957 0.0675669
0.104952 0.449119 0.0646372
0.103792 0.444526 0.0593729
0.101976 0.437171 0.0523995
0.0992599 0.425574 0.0504616
0.0959029 0.411048 0.0487373
0.129381 0.402197 0.04448
0.207965 0.375891 0.0429084
0.3037 0.353552 0.00842298
0.461707 0.34818 0.0502937
0.600031 0.327565 0.11986
0.732982 0.323491 0.159243
0.833738 0.294331 0.178149
0.900236 0.262242 0.194324
0.952071 0.227161 0.210651
0.985412 0.215763 0.242908
0.999634 0.220371 0.291157
1 0.221881 0.356909
1 0.216419 0.440055
1 0.217548 0.521324
1 0.230884 0.622049
1 0.240055 0.716075
1 0.243687 0.799222
1 0.245777 0.869413
1 0.249012 0.92697
1 0.255192 0.971633
1 0.267155 0.992218
1 0.281193 1
1 0.298924 1
1 0.314229 1
1 0.320241 1
0.12665 0.541588 0.0862135
0.12665 0.541573 0.0862135
0.126528 0.54107 0.0856031
0.125795 0.53817 0.0825055
0.124804 0.534188 0.0781262
0.12311 0.527504 0.0707561
0.120806 0.518166 0.0614481
0.117494 0.50399 0.0596933
0.116655 0.488258 0.0575723
0.167254 0.475883 0.0513008
0.272297 0.445686 0.0556344
0.379644 0.4271 0.0104372
0.537163 0.424857 0.0518349
0.668772 0.397986 0.128298
0.803433 0.390158 0.169131
0.901625 0.355444 0.196445
0.967834 0.306325 0.213046
0.995087 0.252155 0.227604
0.999985 0.224674 0.255314
1 0.224475 0.300786
1 0.223102 0.351507
1 0.216648 0.441321
1 0.219791 0.540734
1 0.234318 0.65156
1 0.241688 0.74699
1 0.244495 0.825833
1 0.247486 0.889128
1 0.251881 0.939544
1 0.261311 0.97995
1 0.272145 0.998489
1 0.28571 1
1 0.297261 1
1 0.300969 1
0.148119 0.633173 0.106661
0.148119 0.633173 0.106645
0.148119 0.633158 0.106645
0.147738 0.631617 0.105013
0.146654 0.627314 0.0999619
0.145205 0.621561 0.09308
0.142779 0.611994 0.0807355
0.140063 0.601022 0.0711223
0.136217 0.584482 0.0691691
0.139406 0.567544 0.0665141
0.219333 0.549615 0.0578622
0.34461 0.516167 0.0718547
0.455589 0.500664 0.012665
0.612253 0.501549 0.051957
0.736782 0.476738 0.131106
0.864515 0.456809 0.185901
0.950561 0.418585 0.215518
0.994217 0.355062 0.226886
1 0.278126 0.239643
1 0.233661 0.261082
1 0.226154 0.307454
1 0.224292 0.339849
1 0.217212 0.438483
1 0.22089 0.554345
1 0.236728 0.674708
1 0.242756 0.769131
1 0.246052 0.844312
1 0.249912 0.900587
1 0.257816 0.945754
1 0.266804 0.976959
1 0.277653 0.991531
1 0.287114 0.99939
1 0.28986 0.999985
0.170016 0.726268 0.130709
0.170016 0.726268 0.130709
0.170016 0.726253 0.130709
0.170016 0.726253 0.130694
0.169238 0.723186 0.126986
0.167773 0.717403 0.11989
0.165515 0.708507 0.108019
0.162615 0.697276 0.0915999
0.159365 0.683986 0.0808881
0.155108 0.665705 0.0787366
0.170764 0.648035 0.0748608
0.285588 0.623255 0.068101
0.420066 0.589944 0.0765698
0.530037 0.574914 0.0115511
0.688197 0.57734 0.0521401
0.800824 0.551995 0.136461
0.915084 0.516442 0.199359
0.975494 0.476036 0.228199
0.997269 0.41033 0.236957
1 0.319509 0.246113
1 0.248631 0.259419
1 0.227787 0.30692
1 0.225605 0.324147
1 0.217624 0.423316
1 0.222293 0.556786
1 0.237186 0.681773
1 0.244114 0.775708
1 0.248753 0.847257
1 0.25594 0.9037
1 0.263096 0.945251
1 0.272114 0.973541
1 0.279896 0.992142
1 0.281758 0.996963
0.190616 0.813336 0.160311
0.190616 0.813336 0.160311
0.190616 0.813321 0.160311
0.190616 0.813321 0.160311
0.190616 0.813321 0.160296
0.189502 0.809003 0.154116
0.187594 0.801678 0.142199
0.184634 0.790417 0.122576
0.181827 0.779706 0.103395
0.178134 0.764736 0.0903944
0.173709 0.745693 0.0881514
0.208789 0.728161 0.0825971
0.367361 0.695781 0.0814832
0.498222 0.662272 0.0869764
0.604883 0.649668 0.00906386
0.760311 0.650813 0.0493019
0.860838 0.625284 0.138521
0.954635 0.570993 0.210361
0.984436 0.528618 0.236454
0.994766 0.467933 0.245167
0.99884 0.391028 0.248234
1 0.297932 0.252781
1 0.241596 0.290654
1 0.226596 0.318151
1 0.219394 0.402487
1 0.22388 0.537194
1 0.236027 0.666926
1 0.24744 0.769299
1 0.255329 0.842618
1 0.26273 0.895109
1 0.270634 0.936065
1 0.277333 0.964446
1 0.278843 0.971359
0.207294 0.882826 0.196445
0.207294 0.882826 0.196445
0.207294 0.882826 0.196445
0.207294 0.882826 0.196445
0.207294 0.882811 0.196429
0.207294 0.882811 0.196429
0.205966 0.877989 0.184283
0.203723 0.869856 0.164645
0.2009 0.859876 0.136309
0.198428 0.851011 0.112749
0.194858 0.836652 0.0988632
0.192691 0.819242 0.0966354
0.264118 0.801663 0.0877089
0.459159 0.763058 0.0955978
0.572045 0.733944 0.0902419
0.676402 0.720821 0.0059968
0.824872 0.720989 0.0406043
0.915022 0.694484 0.138262
0.980163 0.634272 0.213718
0.993271 0.573816 0.240146
0.992233 0.525048 0.248692
0.996063 0.467704 0.248508
0.997879 0.384695 0.250095
1 0.291005 0.271626
1 0.233402 0.301228
1 0.222171 0.368444
1 0.222156 0.490349
1 0.239139 0.640681
1 0.253941 0.741283
1 0.264973 0.818448
1 0.271931 0.870069
1 0.277623 0.911925
1 0.278996 0.92015
0.218524 0.928313 0.237339
0.218524 0.928313 0.237339
0.218524 0.928313 0.237339
0.218524 0.928313 0.237339
0.218524 0.928313 0.237339
0.218524 0.928313 0.237324
0.218524 0.928313 0.237324
0.217151 0.923964 0.216846
0.214878 0.916716 0.185016
0.212711 0.910307 0.147158
0.210666 0.903716 0.117357
0.207691 0.891798 0.105348
0.211505 0.879194 0.103243
0.343557 0.860685 0.089601
0.545266 0.819867 0.123247
0.640681 0.799069 0.0796826
0.742382 0.78613 0.00265507
0.879973 0.785214 0.0280461
0.958404 0.763439 0.127764
0.995209 0.707759 0.203204
0.998627 0.639582 0.239567
0.995499 0.581735 0.247684
0.993637 0.536126 0.249073
0.99501 0.47039 0.24828
0.999191 0.368353 0.258549
1 0.250462 0.275761
1 0.227451 0.305791
1 0.222095 0.410498
1 0.237797 0.543709
1 0.261631 0.679255
1 0.274372 0.756756
1 0.28336 0.814023
1 0.285389 0.829587
0.225803 0.952468 0.282048
0.225803 0.952468 0.282048
0.225803 0.952468 0.282048
0.225803 0.952468 0.282048
0.225803 0.952468 0.282048
0.225803 0.952468 0.282048
0.225803 0.952468 0.282048
0.225803 0.952468 0.282032
0.224125 0.949172 0.250706
0.222004 0.945113 0.205447
0.220005 0.941161 0.156435
0.218265 0.93666 0.117845
0.216358 0.929107 0.109743
0.237324 0.920119 0.106584
0.442573 0.900755 0.0965744
0.622583 0.861936 0.154147
0.701762 0.853239 0.0505684
0.801526 0.841077 6.10361e-05
0.924926 0.838727 0.0178073
0.987213 0.825742 0.104036
0.999695 0.786862 0.173739
1 0.724193 0.222522
0.999283 0.666773 0.238605
0.99678 0.602762 0.247181
0.995956 0.547585 0.247608
0.993759 0.472801 0.250904
0.998962 0.326787 0.253056
1 0.279973 0.26804
1 0.235111 0.311269
1 0.234836 0.392981
1 0.247974 0.485115
1 0.269017 0.587808
1 0.274372 0.615534
0.231632 0.962676 0.326436
0.231632 0.962676 0.326436
0.231632 0.962676 0.326436
0.231632 0.962676 0.326436
0.231632 0.962676 0.326436
0.231632 0.962676 0.326436
0.231632 0.962676 0.326436
0.231632 0.962676 0.326436
0.231632 0.962676 0.326436
0.229435 0.960632 0.281987
0.227039 0.958572 0.223819
0.224704 0.956405 0.161608
0.222492 0.954131 0.117174
0.222385 0.949935 0.112154
0.284581 0.943984 0.107454
0.547417 0.922484 0.112642
0.688518 0.891859 0.147097
0.755962 0.894072 0.0218509
0.854841 0.884123 0
0.95874 0.879973 0.00955215
0.998459 0.874647 0.0716259
1 0.854749 0.12604
1 0.815702 0.174975
1 0.765011 0.206928
0.999771 0.702113 0.23212
0.999176 0.627924 0.246021
0.993637 0.5682 0.246891
0.997589 0.474174 0.246235
0.999649 0.397086 0.250263
0.999741 0.329366 0.254368
1 0.27422 0.263981
1 0.273884 0.310063
1 0.27332 0.321492
0.23592 0.966232 0.36817
0.23592 0.966232 0.36817
0.23592 0.966232 0.36817
0.23592 0.966232 0.36817
0.23592 0.966232 0.36817
0.23592 0.966232 0.36817
0.23592 0.966232 0.36817
0.23592 0.966232 0.36817
0.23592 0.966232 0.36817
0.23592 0.966232 0.368154
0.233585 0.965179 0.309514
0.231083 0.963958 0.236774
0.228367 0.96286 0.160159
0.22594 0.961639 0.116258
0.232288 0.959731 0.114717
0.389105 0.953643 0.105531
0.637964 0.926238 0.154742
0.742901 0.916548 0.0810864
0.807279 0.921859 0.00123598
0.903944 0.914 0
0.97966 0.909041 0.00318914
1 0.906859 0.0422522
1 0.897887 0.0791638
1 0.879988 0.109865
1 0.853132 0.145556
1 0.809476 0.182391
1 0.745724 0.213016
0.99852 0.687419 0.229801
0.998474 0.609232 0.246311
0.997879 0.547143 0.249409
0.992828 0.499657 0.251164
0.992462 0.449973 0.25185
0.99263 0.436591 0.251972
0.239063 0.967376 0.407874
0.239063 0.967376 0.407874
0.239063 0.967376 0.407874
0.239063 0.967376 0.407874
0.239063 0.967376 0.407874
0.239063 0.967376 0.407874
0.239063 0.967376 0.407874
0.239063 0.967376 0.407874
0.239063 0.967376 0.407874
0.239063 0.967376 0.407874
0.238941 0.967346 0.404608
0.236439 0.966613 0.33228
0.233799 0.96582 0.240421
0.231037 0.965072 0.152834
0.229053 0.964508 0.119005
0.262791 0.963134 0.116915
0.527565 0.954253 0.107805
0.712261 0.92781 0.152605
0.786618 0.933852 0.0157626
0.859709 0.937804 0
0.943557 0.931548 0
0.991958 0.927382 0.000457771
0.999969 0.926406 0.0204929
1 0.921324 0.0431983
1 0.912596 0.0607309
1 0.900267 0.0819867
1 0.879637 0.110475
1 0.848997 0.140963
1 0.816846 0.176104
1 0.760952 0.19939
1 0.713115 0.226108
0.997726 0.675059 0.236606
0.996674 0.664744 0.237079
0.241413 0.967758 0.443366
0.241413 0.967758 0.443366
0.241413 0.967758 0.443366
0.241413 0.967758 0.443366
0.241413 0.967758 0.443366
0.241413 0.967758 0.443366
0.241413 0.967758 0.443366
0.241413 0.967758 0.443366
0.241413 0.967758 0.443366
0.241413 0.967758 0.443366
0.241413 0.967758 0.443351
0.241062 0.967681 0.431907
0.238422 0.967086 0.348623
0.235447 0.966323 0.233906
0.232593 0.965667 0.139681
0.233066 0.965423 0.121569
0.354543 0.96257 0.114473
0.640253 0.942306 0.160327
0.768688 0.936736 0.0720836
0.828107 0.944381 0
0.907485 0.945388 0
0.970108 0.941054 0
0.997223 0.938064 0.00047303
0.999954 0.937301 0.00813306
1 0.934371 0.019852
1 0.92961 0.0297704
1 0.923598 0.04094
1 0.914916 0.0560922
1 0.906722 0.0711376
1 0.890333 0.09308
1 0.878996 0.111513
1 0.859297 0.128923
1 0.849119 0.13492
0.242451 0.967971 0.473243
0.242451 0.967971 0.473243
0.242451 0.967971 0.473243
0.242451 0.967971 0.473243
0.242451 0.967971 0.473243
0.242451 0.967971 0.473243
0.242451 0.967971 0.473243
0.242451 0.967971 0.473243
0.242451 0.967971 0.473243
0.242451 0.967971 0.473243
0.242451 0.967971 0.473243
0.242451 0.967971 0.473243
0.241794 0.967803 0.446326
0.239475 0.967193 0.354559
0.236057 0.966293 0.214786
0.233402 0.965698 0.127062
0.261326 0.965087 0.122087
0.523613 0.957687 0.118212
0.729442 0.934371 0.155322
0.812299 0.945098 0.00323491
0.873228 0.949386 0
0.945663 0.94818 0
0.986068 0.945769 0.00329595
0.998917 0.943786 0.00184634
1 0.943038 0.00340276
1 0.941619 0.00749218
1 0.93933 0.01178
1 0.93637 0.016968
1 0.933654 0.0221256
1 0.929229 0.0304112
1 0.925307 0.0378271
1 0.920638 0.0460517
1 0.918196 0.0500496
0.243183 0.968154 0.50106
0.243183 0.968154 0.50106
0.243183 0.968154 0.50106
0.243183 0.968154 0.50106
0.243183 0.968154 0.501045
0.243183 0.968154 0.501045
0.243183 0.968154 0.501045
0.243183 0.968154 0.501045
0.243183 0.968154 0.501045
0.243183 0.968154 0.501045
0.243183 0.968154 0.501045
0.243183 0.968154 0.501045
0.243183 0.968154 0.501045
0.242023 0.967849 0.453834
0.23946 0.967163 0.346914
0.235492 0.96611 0.184741
0.233539 0.965698 0.123934
0.383871 0.962646 0.116716
0.669322 0.9393 0.181811
0.790982 0.942885 0.0343633
0.851896 0.949538 0
0.916213 0.950545 0
0.971984 0.948867 0
0.99472 0.94786 0.0078584
0.999619 0.946532 0.00433356
1 0.945846 0.00341802
1 0.945129 0.00425727
1 0.944152 0.00544747
1 0.943282 0.00526436
1 0.941894 0.00733959
1 0.941039 0.00883497
1 0.939529 0.0115969
1 0.938674 0.0132143
0.243915 0.968338 0.52987
0.243915 0.968338 0.52987
0.243915 0.968338 0.52987
0.243915 0.968338 0.52987
0.243915 0.968338 0.52987
0.243915 0.968338 0.52987
0.243915 0.968338 0.52987
0.243915 0.968338 0.52987
0.243915 0.968338 0.52987
0.243915 0.968338 0.52987
0.243915 0.968338 0.52987
0.243915 0.968338 0.52987
0.243915 0.968338 0.52987
0.243915 0.968338 0.52987
0.242069 0.967849 0.455375
0.238911 0.966995 0.323171
0.234806 0.965942 0.159075
0.274983 0.965209 0.131441
0.580987 0.950988 0.145525
0.762127 0.93843 0.102266
0.832639 0.948516 0
0.892058 0.950957 0
0.950561 0.950362 0
0.988174 0.948989 0.00187686
0.998657 0.948806 0.0150301
1 0.947921 0.0107729
1 0.947356 0.00726329
1 0.946929 0.00538643
1 0.946548 0.0039826
1 0.946014 0.00360113
1 0.945739 0.00360113
1 0.945281 0.00419623
1 0.945068 0.00454719
0.244709 0.968505 0.556954
0.244709 0.968505 0.556954
0.244709 0.968505 0.556954
0.244709 0.968505 0.556954
0.244709 0.968505 0.556954
0.244709 0.968505 0.556954
0.244709 0.968505 0.556954
0.244709 0.968505 0.556954
0.244709 0.968505 0.556954
0.244709 0.968505 0.556954
0.244709 0.968505 0.556954
0.244709 0.968505 0.556954
0.244709 0.968505 0.556954
0.244709 0.968505 0.556954
0.244709 0.968505 0.556954
0.241917 0.967819 0.448783
0.237858 0.96672 0.278309
0.241428 0.966323 0.182269
0.452033 0.962295 0.15053
0.718303 0.9355 0.184527
0.815717 0.9467 0
0.872435 0.950774 0
0.928038 0.951003 0
0.974838 0.949783 3.0518e-05
0.996399 0.948974 0.00596628
0.999832 0.949264 0.0206912
1 0.948684 0.016556
1 0.948241 0.0120546
1 0.947982 0.00965896
1 0.947692 0.00830091
1 0.947524 0.00691234
1 0.947311 0.00680552
1 0.947234 0.00679026
0.245823 0.968688 0.582238
0.245823 0.968688 0.582238
0.245823 0.968688 0.582238
0.245823 0.968688 0.582238
0.245823 0.968688 0.582238
0.245823 0.968688 0.582238
0.245823 0.968688 0.582238
0.245823 0.968688 0.582238
0.245823 0.968688 0.582238
0.245823 0.968688 0.582238
0.245823 0.968688 0.582223
0.245823 0.968688 0.582223
0.245823 0.968688 0.582223
0.245823 0.968688 0.582223
0.245823 0.968688 0.582223
0.244404 0.968444 0.547036
0.241352 0.967651 0.424018
0.239628 0.966751 0.272648
0.345907 0.968917 0.230503
0.647745 0.948028 0.227008
0.796414 0.945205 0.0521706
0.85507 0.950576 0
0.911101 0.951308 0
0.958221 0.950347 0
0.988632 0.949325 0.00265507
0.999237 0.949157 0.0125734
1 0.949477 0.0240635
1 0.94905 0.0199588
1 0.949004 0.0205844
1 0.948745 0.0177768
1 0.94847 0.013962
1 0.948333 0.0128481
1 0.948287 0.0124056
0.247166 0.968872 0.606058
0.247166 0.968872 0.606058
0.247166 0.968872 0.606058
0.247166 0.968872 0.606058
0.247166 0.968872 0.606058
0.247166 0.968872 0.606058
0.247166 0.968872 0.606058
0.247166 0.968872 0.606058
0.247166 0.968872 0.606058
