Log3G10_RWG_to_709FLog2.cube
TITLE "Generated by Resolve"
LUT_3D_SIZE 33
0.00709544 0.00515755 0.00529488
0.0479438 0.00369268 0.00361639
0.10515 0.0019379 0.00137331
0.166323 0.000366217 0
0.224598 0 0
0.277562 0 0
0.327108 0 0
0.374731 0 0
0.42089 0 0
0.466072 0 0
0.510628 0 0
0.554635 0 0
0.598352 0 0
0.641764 0 0
0.684855 0 0
0.727794 0 0
0.77052 0 0
0.813001 0 0
0.855177 0 0
0.896971 0 0
0.938384 0 0
0.979187 0 0
1 0 0
1 0 0
1 0 0
1 0 0
1 0 0
1 0 0
1 0 0
1 0 0
1 0 0
1 0 0
1 0 0
0.00138857 0.0363317 0
0.0286259 0.0325933 0
0.0873884 0.0271153 0
0.153613 0.0194553 0
0.215137 0.010544 0
0.270253 0.00259403 0
0.321706 0 0
0.370825 0 0
0.418341 0 0
0.464988 0 0
0.510475 0 0
0.554559 0 0
0.598276 0 0
0.641688 0 0
0.684855 0 0
0.727718 0 0
0.770443 0 0
0.812924 0 0
0.855177 0 0
0.896971 0 0
0.938384 0 0
0.97911 0 0
1 0 0
1 0 0
1 0 0
1 0 0
1 0 0
1 0 0
1 0 0
1 0 0
1 0 0
1 0 0
1 0 0
0 0.0801099 0
0.00759899 0.0763409 0
0.0605325 0.0710765 0
0.13434 0.0635843 0
0.201099 0.0537881 0
0.259251 0.0423438 0
0.312596 0.0289921 0
0.362997 0.01355 0
0.411658 0.00225834 0
0.459052 0 0
0.505776 0 0
0.552132 0 0
0.598123 0 0
0.641611 0 0
0.684779 0 0
0.727718 0 0
0.770443 0 0
0.812924 0 0
0.8551 0 0
0.896971 0 0
0.938384 0 0
0.97911 0 0
1 0 0
1 0 0
1 0 0
1 0 0
1 0 0
1 0 0
1 0 0
1 0 0
1 0 0
1 0 0
1 0 0
0 0.133654 0
0 0.131228 0
0.0214542 0.12726 0
0.102724 0.121447 0
0.179538 0.113497 0
0.242588 0.103731 0
0.299046 0.0915541 0
0.351583 0.0761425 0
0.401785 0.0574502 0
0.450477 0.0347295 0
0.498238 0.00891127 0
0.545342 0 0
0.592126 0 0
0.638972 0 0
0.684703 0 0
0.727642 0 0
0.770367 0 0
0.812924 0 0
0.8551 0 0
0.896971 0 0
0.938308 0 0
0.97911 0 0
1 0 0
1 0 0
1 0 0
1 0 0
1 0 0
1 0 0
1 0 0
1 0 0
1 0 0
1 0 0
1 0 0
0 0.182742 0
0 0.181247 0
0.000213626 0.178241 0
0.0555428 0.173983 0
0.149447 0.168002 0
0.220447 0.160952 0
0.281315 0.152483 0
0.336614 0.142138 0
0.388785 0.129458 0
0.438788 0.113069 0
0.487541 0.090898 0
0.535485 0.0607919 0
0.583185 0.0217899 0
0.630945 0 0
0.678782 0 0
0.726986 0 0
0.770367 0 0
0.812848 0 0
0.8551 0 0
0.896895 0 0
0.938308 0 0
0.97911 0 0
1 0 0
1 0 0
1 0 0
1 0 0
1 0 0
1 0 0
1 0 0
1 0 0
1 0 0
1 0 0
1 0 0
0 0.227436 0
0 0.226703 0
0 0.224262 0
0.00460822 0.22089 0
0.107607 0.216083 0
0.192462 0.210407 0
0.259709 0.203861 0
0.318929 0.196094 0
0.373617 0.186831 0
0.425422 0.17554 0
0.475425 0.161303 0
0.524315 0.142992 0
0.572473 0.117601 0
0.620371 0.0795758 0
0.668467 0.0231632 0
0.717357 0 0
0.767178 0 0
0.812772 0 0
0.855024 0 0
0.896895 0 0
0.938308 0 0
0.97911 0 0
1 0 0
1 0 0
1 0 0
1 0 0
1 0 0
1 0 0
1 0 0
1 0 0
1 0 0
1 0 0
1 0 0
0 0.269413 0
0 0.269215 0
0 0.267277 0
0 0.264485 0
0.046479 0.260426 0
0.15555 0.255665 0
0.232959 0.250217 0
0.297673 0.243977 0
0.35584 0.236667 0
0.410025 0.228016 0
0.461769 0.217578 0
0.511864 0.204715 0
0.560815 0.188373 0
0.609201 0.1664 0
0.657343 0.134829 0
0.705699 0.0830091 0
0.755016 0.000869764 0
0.806516 0 0
0.854948 0 0
0.896819 0 0
0.938231 0 0
0.97911 0 0
1 0 0
1 0 0
1 0 0
1 0 0
1 0 0
1 0 0
1 0 0
1 0 0
1 0 0
1 0 0
1 0 0
0 0.309575 0
0 0.309453 0
0 0.308415 0
0 0.306004 0
0.000976577 0.30251 0
0.10103 0.29836 0
0.198596 0.293614 0
0.271901 0.28835 0
0.33489 0.282292 0
0.392386 0.275303 0
0.446235 0.26714 0
0.497932 0.257237 0
0.548028 0.245243 0
0.597177 0.230076 0
0.645762 0.210117 0
0.694087 0.182498 0
0.742718 0.139452 0
0.792264 0.0572366 0
0.844358 0 0
0.896819 0 0
0.938231 0 0
0.979034 0 0
1 0 0
1 0 0
1 0 0
1 0 0
1 0 0
1 0 0
1 0 0
1 0 0
1 0 0
1 0 0
1 0 0
0 0.348516 0
0 0.348455 0
0 0.348348 0
0 0.346181 0
0 0.343145 0
0.0199893 0.339361 0
0.15172 0.335164 0
0.239399 0.330526 0
0.309697 0.325307 0
0.371542 0.319448 0
0.428443 0.312596 0
0.48217 0.304677 0
0.533867 0.295293 0
0.5841 0.283909 0
0.633356 0.269612 0
0.682109 0.251026 0
0.730632 0.225589 0
0.779339 0.187747 0
0.829023 0.120394 0
0.881331 0 0
0.938155 0 0
0.978958 0 0
1 0 0
1 0 0
1 0 0
1 0 0
1 0 0
1 0 0
1 0 0
1 0 0
1 0 0
1 0 0
1 0 0
0 0.386679 0
0 0.386618 0
0 0.386557 0
0 0.38558 0
0 0.382971 0
0 0.37937 0
0.0777142 0.375494 0
0.196445 0.371283 0
0.278599 0.366644 0
0.346761 0.361563 0
0.407813 0.355688 0
0.464317 0.34905 0
0.517998 0.341375 0
0.56965 0.332296 0
0.619974 0.321324 0
0.669398 0.307652 0
0.718257 0.290135 0
0.766842 0.266377 0
0.815656 0.23183 0
0.8654 0.173938 0
0.917647 0.0328985 0
0.978622 0 0
1 0 0
1 0 0
1 0 0
1 0 0
1 0 0
1 0 0
1 0 0
1 0 0
1 0 0
1 0 0
1 0 0
0 0.424201 0
0 0.424201 0
0 0.42414 0
0 0.424063 0
0 0.422141 0
0 0.418799 0
0 0.415045 0
0.133867 0.411109 0
0.238285 0.406867 0
0.316472 0.402289 0
0.383398 0.397162 0
0.443656 0.391424 0
0.500053 0.384894 0
0.553643 0.377356 0
0.60531 0.368536 0
0.655695 0.357839 0
0.705226 0.344778 0
0.754116 0.328038 0
0.802747 0.305623 0
0.851545 0.273579 0
0.90103 0.221851 0
0.952926 0.110079 0
1 0 0
1 0 0
1 0 0
1 0 0
1 0 0
1 0 0
1 0 0
1 0 0
1 0 0
1 0 0
1 0 0
0 0.461326 0
0 0.461265 0
0 0.461265 0
0 0.461204 0
0 0.461036 0
0 0.45803 0
0 0.454185 0
0.0266728 0.450324 0
0.181704 0.446311 0
0.27808 0.442084 0
0.35378 0.437446 0
0.419425 0.432334 0
0.479332 0.426703 0
0.535546 0.420249 0
0.589059 0.412894 0
0.640864 0.404257 0
0.691279 0.393881 0
0.740749 0.381201 0
0.78967 0.365148 0
0.838224 0.343801 0
0.886732 0.313817 0
0.935927 0.266987 0
0.987076 0.17586 0
1 0 0
1 0 0
1 0 0
1 0 0
1 0 0
1 0 0
1 0 0
1 0 0
1 0 0
1 0 0
0 0.498131 0
0 0.49807 0
0 0.49807 0
0 0.498009 0
0 0.498009 0
0 0.497124 0
0 0.493339 0
0 0.489326 0
0.0874495 0.485359 0
0.226047 0.4813 0
0.316732 0.476951 0
0.390463 0.472374 0
0.45536 0.467262 0
0.514824 0.461677 0
0.570855 0.455268 0
0.624323 0.44802 0
0.676112 0.439521 0
0.726619 0.429496 0
0.775998 0.417166 0
0.824735 0.401648 0
0.87306 0.381399 0
0.921141 0.353307 0
0.969665 0.310842 0
1 0.234409 0
1 0 0
1 0 0
1 0 0
1 0 0
1 0 0
1 0 0
1 0 0
1 0 0
1 0 0
0 0.534676 0
0 0.534615 0
0 0.534615 0
0 0.534615 0
0 0.534554 0
0 0.534478 0
0 0.53286 0
0 0.528374 0
0 0.524208 0
0.147097 0.520165 0
0.268193 0.51603 0
0.354574 0.511666 0
0.42678 0.507042 0
0.49099 0.501945 0
0.550271 0.496315 0
0.606012 0.490043 0
0.659495 0.482872 0
0.711223 0.474571 0
0.761486 0.464805 0
0.810864 0.452873 0
0.859327 0.437934 0
0.907134 0.418631 0
0.95465 0.392432 0
0.995804 0.354009 0
1 0.28983 0
1 0.12845 0
1 0 0
1 0 0
1 0 0
1 0 0
1 0 0
1 0 0
1 0 0
0 0.570962 0
0 0.570962 0
0 0.570962 0
0 0.570962 0
0 0.570901 0
0 0.570901 0
0 0.57084 0
0 0.56817 0
0 0.563149 0
0.00698863 0.558846 0
0.196109 0.554696 0
0.307988 0.550515 0
0.391867 0.546181 0
0.462791 0.541482 0
0.526513 0.536446 0
0.585382 0.530846 0
0.641077 0.52462 0
0.694438 0.517617 0
0.745998 0.509438 0
0.796124 0.499809 0
0.845106 0.488273 0
0.893095 0.473991 0
0.940215 0.455787 0
0.986664 0.431495 0
1 0.397284 0
1 0.343984 0
1 0.239506 0
1 0 0
1 0 0
1 0 0
1 0 0
1 0 0
1 0 0
0 0.607126 0
0 0.607126 0
0 0.607126 0
0 0.607126 0
0 0.607065 0
0 0.607065 0
0 0.606989 0
0 0.606989 0
0 0.603037 0
0 0.597772 0
0.0573739 0.593347 0
0.241688 0.58912 0
0.346777 0.584878 0
0.428428 0.580499 0
0.498558 0.575784 0
0.561669 0.570764 0
0.620371 0.565179 0
0.675914 0.559014 0
0.729 0.552102 0
0.780362 0.544091 0
0.830152 0.534722 0
0.878599 0.523644 0
0.925948 0.510002 0
0.972091 0.492851 0
1 0.470695 0
1 0.440726 0
1 0.397421 0
1 0.326406 0
1 0.151415 0
1 0 0
1 0 0
1 0 0
1 0 0
0 0.643091 0
0 0.643091 0
0 0.643091 0
0 0.643091 0
0 0.643091 0
0 0.643015 0
0 0.643015 0
0 0.642954 0
0 0.642954 0
0 0.637598 0
0 0.632197 0
0.125719 0.627649 0
0.284962 0.623346 0
0.385077 0.619043 0
0.464881 0.614633 0
0.534157 0.609918 0
0.59675 0.604898 0
0.655177 0.599329 0
0.710323 0.593301 0
0.763272 0.58645 0
0.814221 0.578592 0
0.863462 0.569543 0
0.911223 0.558846 0
0.957473 0.545998 0
0.996201 0.530159 0
1 0.510338 0
1 0.484749 0
1 0.450431 0
1 0.401923 0
1 0.324331 0
1 0.136858 0
1 0 0
1 0 0
0 0.678859 0
0 0.678859 0
0 0.678859 0
0 0.678859 0
0 0.678859 0
0 0.678859 0
0 0.678798 0
0 0.678798 0
0 0.678721 0
0 0.67866 0
0 0.671992 0
0 0.666407 0
0.184802 0.661753 0
0.32668 0.657374 0
0.42295 0.653025 0
0.50103 0.648524 0
0.569512 0.643854 0
0.631662 0.638834 0
0.689632 0.63331 0
0.744579 0.627329 0
0.797009 0.620569 0
0.847349 0.612985 0
0.895888 0.604288 0
0.94258 0.594079 0
0.986694 0.582101 0
1 0.567758 0
1 0.550332 0
1 0.529107 0
1 0.502892 0
1 0.470176 0
1 0.428489 0
1 0.37496 0
1 0.298817 0
0 0.714366 0
0 0.714366 0
0 0.714366 0
0 0.714366 0
0 0.714366 0
0 0.714366 0
0 0.714366 0
0 0.714305 0
0 0.714305 0
0 0.714244 0
0 0.714244 0
0 0.706065 0
0.00109865 0.700313 0
0.236927 0.695583 0
0.367117 0.691127 0
0.460319 0.686748 0
0.537072 0.682216 0
0.6047 0.677531 0
0.666331 0.672541 0
0.723903 0.667124 0
0.778256 0.661204 0
0.830045 0.654627 0
0.879622 0.647257 0
0.927062 0.638911 0
0.972396 0.629374 0
1 0.618296 0
1 0.605585 0
1 0.590738 0
1 0.573754 0
1 0.554299 0
1 0.532616 0
1 0.510277 0
1 0.487999 0
0 0.74963 0
0 0.74963 0
0 0.74963 0
0 0.74963 0
0 0.74963 0
0 0.74963 0
0 0.749554 0
0 0.749554 0
0 0.749554 0
0 0.749493 0
0 0.749493 0
0 0.749432 0
0 0.739818 0
0.0310369 0.733883 0
0.284825 0.729046 0
0.406912 0.724544 0
0.49749 0.720119 0
0.573022 0.715648 0
0.639765 0.710903 0
0.700816 0.705928 0
0.757702 0.700572 0
0.811322 0.694789 0
0.862211 0.688426 0
0.91075 0.6813 0
0.956695 0.673411 0
0.996902 0.664576 0
1 0.654658 0
1 0.643595 0
1 0.631479 0
1 0.618219 0
1 0.60441 0
1 0.591516 0
1 0.580316 0
0 0.784421 0
0 0.784421 0
0 0.784421 0
0 0.784421 0
0 0.784421 0
0 0.784421 0
0 0.784421 0
0 0.784421 0
0 0.784421 0
0 0.78436 0
0 0.78436 0
0 0.784298 0
0 0.784298 0
0 0.773037 0
0.118593 0.767071 0
0.33022 0.762173 0
0.446342 0.757626 0
0.534371 0.75317 0
0.608728 0.748608 0
0.67451 0.743954 0
0.734768 0.739025 0
0.790875 0.73373 0
0.843534 0.728054 0
0.893324 0.721904 0
0.940337 0.715145 0
0.983841 0.70782 0
1 0.699763 0
1 0.691142 0
1 0.681819 0
1 0.672129 0
1 0.662364 0
1 0.653819 0
1 0.64712 0
0 0.818769 0
0 0.818769 0
0 0.818769 0
0 0.818769 0
0 0.818769 0
0 0.818769 0
0 0.818769 0
0 0.818769 0
0 0.818769 0
0 0.818708 0
0 0.818708 0
0 0.818708 0
0 0.818647 0
0 0.818082 0
0 0.805707 0
0.193454 0.799619 0
0.37496 0.794675 0
0.485695 0.790097 0
0.571374 0.785626 0
0.644221 0.781125 0
0.708965 0.77644 0
0.768292 0.771618 0
0.823331 0.7664 0
0.874739 0.760937 0
0.922957 0.755047 0
0.967971 0.748745 0
0.998596 0.741955 0
1 0.73489 0
1 0.727489 0
1 0.719936 0
1 0.712505 0
1 0.706416 0
1 0.702037 0
0 0.852476 0
0 0.852476 0
0 0.852476 0
0 0.852476 0
0 0.852415 0
0 0.852415 0
0 0.852415 0
0 0.852415 0
0 0.852415 0
0 0.852415 0
0 0.852415 0
0 0.852354 0
0 0.852354 0
0 0.852277 0
0 0.849302 0
0 0.837552 0
0.258152 0.831525 0
0.419501 0.826551 0
0.525063 0.821958 0
0.60824 0.817487 0
0.67953 0.81294 0
0.743053 0.808347 0
0.801129 0.80354 0
0.85478 0.798505 0
0.904585 0.79321 0
0.950744 0.787671 0
0.992798 0.781872 0
1 0.775814 0
1 0.769696 0
1 0.763531 0
1 0.757687 0
1 0.753017 0
1 0.750057 0
0 0.885206 0
0 0.885206 0
0 0.885206 0
0 0.885206 0
0 0.885206 0
0 0.885206 0
0 0.885206 0
0 0.885206 0
0 0.885206 0
0 0.885206 0
0 0.885206 0
0 0.885206 0
0 0.885145 0
0 0.885145 0
0 0.885084 0
0 0.879133 0
0.0010071 0.868421 0
0.317113 0.862364 0
0.46389 0.857404 0
0.564553 0.852811 0
0.645396 0.848341 0
0.714733 0.8439 0
0.776699 0.839307 0
0.833143 0.834669 0
0.884978 0.829786 0
0.932616 0.824826 0
0.976333 0.819608 0
1 0.814359 0
1 0.809064 0
1 0.803922 0
1 0.799039 0
1 0.795346 0
1 0.793271 0
0 0.916915 0
0 0.916915 0
0 0.916915 0
0 0.916915 0
0 0.916915 0
0 0.916915 0
0 0.916915 0
0 0.916915 0
0 0.916915 0
0 0.916915 0
0 0.916854 0
0 0.916854 0
0 0.916854 0
0 0.916854 0
0 0.916777 0
0 0.916716 0
0 0.907713 0
0.0730144 0.897948 0
0.374731 0.892073 0
0.508614 0.887083 0
0.604456 0.882506 0
0.682399 0.878096 0
0.749599 0.873701 0
0.809659 0.8692 0
0.864012 0.864683 0
0.913588 0.860044 0
0.958587 0.85539 0
0.994202 0.850706 0
1 0.846052 0
1 0.84155 0
1 0.837415 0
1 0.834241 0
1 0.832746 0
0 0.947127 0
0 0.947127 0
0 0.947127 0
0 0.947127 0
0 0.947127 0
0 0.947127 0
0 0.947127 0
0 0.947127 0
0 0.947127 0
0 0.947127 0
0 0.947127 0
0 0.947127 0
0 0.947127 0
0 0.947066 0
0 0.947066 0
0 0.947005 0
0 0.947005 0
0 0.934676 0
0.207599 0.925902 0
0.431983 0.920195 0
0.55407 0.915267 0
0.644739 0.91075 0
0.719493 0.906386 0
0.784161 0.902083 0
0.841718 0.897704 0
0.893538 0.893416 0
0.940185 0.889082 0
0.981659 0.884718 0
0.999725 0.880598 0
1 0.876554 0
1 0.872877 0
1 0.870161 0
1 0.869047 0
0 0.975601 0
0 0.975601 0
0 0.975601 0
0 0.975601 0
0 0.975601 0
0 0.975601 0
0 0.975601 0
0 0.975601 0
0 0.975601 0
0 0.975601 0
0 0.975601 0
0 0.975601 0
0 0.975601 0
0 0.97554 0
0 0.97554 0
0 0.97554 0
0 0.975479 0
0 0.975479 0
0 0.959792 0
0.308919 0.951934 0
0.488777 0.946365 0
0.600137 0.941619 0
0.685328 0.937179 0
0.756374 0.932845 0
0.818036 0.928664 0
0.872648 0.924498 0
0.921309 0.920439 0
0.964584 0.916365 0
0.995544 0.912535 0
1 0.908858 0
1 0.905547 0
1 0.903075 0
1 0.902235 0
0 0.997848 0
0 0.997848 0
0 0.997848 0
0 0.997848 0
0 0.997848 0
0 0.997848 0
0 0.997848 0
0 0.997848 0
0 0.997848 0
